(.../Documents/eagle/ulp/pcb-gcode.ulp)
(Copyright 2005 - 2009 by John Johnson)
(See readme.txt for licensing terms.)
(This file generated from the board:)
(.../Teensy-Futurlec/Teensy-Futurlec-Shield.brd)
(Current profile is .../eagle/ulp/profiles/generic.pp  )
(This file generated 11/4/12 2:19 PM)
(Settings from pcb-machine.h)
(  Tool Size)
(0.0120 )
(Z Axis Settings)
(  High     Up        Down     Drill)
(1.0000 	0.1000 	-0.0020 	-0.0800 )
(spindle on time = 0.0000)
(milling depth = -0.1000)
(text depth = -0.0050)
(tool change at 24.0000 48.0000 0.0000 )
(feed rate xy = F20.00 )
(feed rate z  = F20.00 )
(Settings from pcb-defaults.h)
(Default isolate = 0.0010)
(isolate max = 0.0100)
(isolate step = 0.0100)
(Generated bottom outlines, bottom drill, )
(Unit of measure: inch)
(Beginning of every file)
(Beginning of every bottom file)
(Beginning of All Drill files)
(Bottom Drill Begin)
( Tool|       Size       |  Min Sub |  Max Sub |   Count )
( T01  0.635mm 0.0250in 0.0000in 0.0000in )
( T02  1.016mm 0.0400in 0.0000in 0.0000in )
(Inch Mode)
G20
(Absolute Coordinates)
G90

S5000
m3

G00 X-1.1025 Y0.9590 
G01 Z-0.0800 F20.00 
G00 Z0.1000 
G00 X-1.1025 Y1.0110 
G01 Z-0.0800 F20.00 
G00 Z0.1000 


G00 X-1.3125 Y1.2750 
G01 Z-0.0800 F20.00 
G00 Z0.1000 
G00 X-1.3125 Y0.6750 
G01 Z-0.0800 F20.00 
G00 Z0.1000 
G00 X-1.3625 Y0.3325 
G01 Z-0.0800 F20.00 
G00 Z0.1000 
G00 X-1.3625 Y0.4425 
G01 Z-0.0800 F20.00 
G00 Z0.1000 
G00 X-1.4125 Y1.2750 
G01 Z-0.0800 F20.00 
G00 Z0.1000 
G00 X-1.4125 Y0.6750 
G01 Z-0.0800 F20.00 
G00 Z0.1000 
G00 X-1.4625 Y0.3325 
G01 Z-0.0800 F20.00 
G00 Z0.1000 
G00 X-1.4625 Y0.4425 
G01 Z-0.0800 F20.00 
G00 Z0.1000 
G00 X-1.5125 Y1.2750 
G01 Z-0.0800 F20.00 
G00 Z0.1000 
G00 X-1.5125 Y0.6750 
G01 Z-0.0800 F20.00 
G00 Z0.1000 
G00 X-1.5625 Y0.3325 
G01 Z-0.0800 F20.00 
G00 Z0.1000 
G00 X-1.5625 Y0.4425 
G01 Z-0.0800 F20.00 
G00 Z0.1000 
G00 X-1.6125 Y1.2750 
G01 Z-0.0800 F20.00 
G00 Z0.1000 
G00 X-1.6125 Y1.5200 
G01 Z-0.0800 F20.00 
G00 Z0.1000 
G00 X-1.6125 Y1.6300 
G01 Z-0.0800 F20.00 
G00 Z0.1000 
G00 X-1.6125 Y0.6750 
G01 Z-0.0800 F20.00 
G00 Z0.1000 
G00 X-1.6625 Y0.3325 
G01 Z-0.0800 F20.00 
G00 Z0.1000 
G00 X-1.6625 Y0.4425 
G01 Z-0.0800 F20.00 
G00 Z0.1000 
G00 X-1.7125 Y1.2750 
G01 Z-0.0800 F20.00 
G00 Z0.1000 
G00 X-1.7125 Y1.5200 
G01 Z-0.0800 F20.00 
G00 Z0.1000 
G00 X-1.7125 Y1.6300 
G01 Z-0.0800 F20.00 
G00 Z0.1000 
G00 X-1.7125 Y0.6750 
G01 Z-0.0800 F20.00 
G00 Z0.1000 
G00 X-1.7625 Y0.3325 
G01 Z-0.0800 F20.00 
G00 Z0.1000 
G00 X-1.7625 Y0.4425 
G01 Z-0.0800 F20.00 
G00 Z0.1000 
G00 X-1.8125 Y1.2750 
G01 Z-0.0800 F20.00 
G00 Z0.1000 
G00 X-1.8125 Y1.5200 
G01 Z-0.0800 F20.00 
G00 Z0.1000 
G00 X-1.8125 Y1.6300 
G01 Z-0.0800 F20.00 
G00 Z0.1000 
G00 X-1.8125 Y0.6750 
G01 Z-0.0800 F20.00 
G00 Z0.1000 
G00 X-1.8125 Y0.9750 
G01 Z-0.0800 F20.00 
G00 Z0.1000 
G00 X-1.8125 Y1.0750 
G01 Z-0.0800 F20.00 
G00 Z0.1000 
G00 X-1.9125 Y1.2750 
G01 Z-0.0800 F20.00 
G00 Z0.1000 
G00 X-1.9125 Y1.5200 
G01 Z-0.0800 F20.00 
G00 Z0.1000 
G00 X-1.9125 Y1.6300 
G01 Z-0.0800 F20.00 
G00 Z0.1000 
G00 X-1.9125 Y0.6750 
G01 Z-0.0800 F20.00 
G00 Z0.1000 
G00 X-1.9125 Y0.9750 
G01 Z-0.0800 F20.00 
G00 Z0.1000 
G00 X-1.9125 Y1.0750 
G01 Z-0.0800 F20.00 
G00 Z0.1000 
G00 X-2.0125 Y1.2750 
G01 Z-0.0800 F20.00 
G00 Z0.1000 
G00 X-2.0125 Y1.5200 
G01 Z-0.0800 F20.00 
G00 Z0.1000 
G00 X-2.0125 Y1.6300 
G01 Z-0.0800 F20.00 
G00 Z0.1000 
G00 X-2.0125 Y0.6750 
G01 Z-0.0800 F20.00 
G00 Z0.1000 
G00 X-2.0125 Y0.9750 
G01 Z-0.0800 F20.00 
G00 Z0.1000 
G00 X-2.0125 Y1.0750 
G01 Z-0.0800 F20.00 
G00 Z0.1000 
G00 X-2.1125 Y1.2750 
G01 Z-0.0800 F20.00 
G00 Z0.1000 
G00 X-2.1125 Y0.6750 
G01 Z-0.0800 F20.00 
G00 Z0.1000 
G00 X-2.1125 Y0.9750 
G01 Z-0.0800 F20.00 
G00 Z0.1000 
G00 X-2.1125 Y1.0750 
G01 Z-0.0800 F20.00 
G00 Z0.1000 
G00 X-2.2125 Y1.2750 
G01 Z-0.0800 F20.00 
G00 Z0.1000 
G00 X-2.2125 Y0.3325 
G01 Z-0.0800 F20.00 
G00 Z0.1000 
G00 X-2.2125 Y0.4425 
G01 Z-0.0800 F20.00 
G00 Z0.1000 
G00 X-2.2125 Y0.6750 
G01 Z-0.0800 F20.00 
G00 Z0.1000 
G00 X-2.3125 Y1.2750 
G01 Z-0.0800 F20.00 
G00 Z0.1000 
G00 X-2.3125 Y0.3325 
G01 Z-0.0800 F20.00 
G00 Z0.1000 
G00 X-2.3125 Y0.4425 
G01 Z-0.0800 F20.00 
G00 Z0.1000 
G00 X-2.3125 Y0.6750 
G01 Z-0.0800 F20.00 
G00 Z0.1000 
G00 X-2.4125 Y1.2750 
G01 Z-0.0800 F20.00 
G00 Z0.1000 
G00 X-2.4125 Y0.3325 
G01 Z-0.0800 F20.00 
G00 Z0.1000 
G00 X-2.4125 Y0.4425 
G01 Z-0.0800 F20.00 
G00 Z0.1000 
G00 X-2.4125 Y0.6750 
G01 Z-0.0800 F20.00 
G00 Z0.1000 
G00 X-2.4125 Y0.8750 
G01 Z-0.0800 F20.00 
G00 Z0.1000 
G00 X-2.4125 Y0.9750 
G01 Z-0.0800 F20.00 
G00 Z0.1000 
G00 X-2.4125 Y1.0750 
G01 Z-0.0800 F20.00 
G00 Z0.1000 
G00 X-2.5125 Y0.3325 
G01 Z-0.0800 F20.00 
G00 Z0.1000 
G00 X-2.5125 Y0.4425 
G01 Z-0.0800 F20.00 
G00 Z0.1000 
G00 X-2.6125 Y0.3325 
G01 Z-0.0800 F20.00 
G00 Z0.1000 
G00 X-2.6125 Y0.4425 
G01 Z-0.0800 F20.00 
G00 Z0.1000 
G00 X-0.4750 Y0.3325 
G01 Z-0.0800 F20.00 
G00 Z0.1000 
G00 X-0.4750 Y0.4425 
G01 Z-0.0800 F20.00 
G00 Z0.1000 
G00 X-0.5125 Y1.2750 
G01 Z-0.0800 F20.00 
G00 Z0.1000 
G00 X-0.5125 Y1.5200 
G01 Z-0.0800 F20.00 
G00 Z0.1000 
G00 X-0.5125 Y1.6300 
G01 Z-0.0800 F20.00 
G00 Z0.1000 
G00 X-0.5125 Y0.6750 
G01 Z-0.0800 F20.00 
G00 Z0.1000 
G00 X-0.5750 Y0.3325 
G01 Z-0.0800 F20.00 
G00 Z0.1000 
G00 X-0.5750 Y0.4425 
G01 Z-0.0800 F20.00 
G00 Z0.1000 
G00 X-0.6125 Y1.2750 
G01 Z-0.0800 F20.00 
G00 Z0.1000 
G00 X-0.6125 Y1.5200 
G01 Z-0.0800 F20.00 
G00 Z0.1000 
G00 X-0.6125 Y1.6300 
G01 Z-0.0800 F20.00 
G00 Z0.1000 
G00 X-0.6125 Y0.6750 
G01 Z-0.0800 F20.00 
G00 Z0.1000 
G00 X-0.6750 Y0.3325 
G01 Z-0.0800 F20.00 
G00 Z0.1000 
G00 X-0.6750 Y0.4425 
G01 Z-0.0800 F20.00 
G00 Z0.1000 
G00 X-0.7125 Y1.2750 
G01 Z-0.0800 F20.00 
G00 Z0.1000 
G00 X-0.7125 Y1.5200 
G01 Z-0.0800 F20.00 
G00 Z0.1000 
G00 X-0.7125 Y1.6300 
G01 Z-0.0800 F20.00 
G00 Z0.1000 
G00 X-0.7125 Y0.6750 
G01 Z-0.0800 F20.00 
G00 Z0.1000 
G00 X-0.7750 Y0.3325 
G01 Z-0.0800 F20.00 
G00 Z0.1000 
G00 X-0.7750 Y0.4425 
G01 Z-0.0800 F20.00 
G00 Z0.1000 
G00 X-0.8125 Y1.2750 
G01 Z-0.0800 F20.00 
G00 Z0.1000 
G00 X-0.8125 Y1.5200 
G01 Z-0.0800 F20.00 
G00 Z0.1000 
G00 X-0.8125 Y1.6300 
G01 Z-0.0800 F20.00 
G00 Z0.1000 
G00 X-0.8125 Y0.6750 
G01 Z-0.0800 F20.00 
G00 Z0.1000 
G00 X-0.8750 Y0.3325 
G01 Z-0.0800 F20.00 
G00 Z0.1000 
G00 X-0.8750 Y0.4425 
G01 Z-0.0800 F20.00 
G00 Z0.1000 
G00 X-0.9125 Y1.2750 
G01 Z-0.0800 F20.00 
G00 Z0.1000 
G00 X-0.9125 Y1.5200 
G01 Z-0.0800 F20.00 
G00 Z0.1000 
G00 X-0.9125 Y1.6300 
G01 Z-0.0800 F20.00 
G00 Z0.1000 
G00 X-0.9125 Y0.6750 
G01 Z-0.0800 F20.00 
G00 Z0.1000 
G00 X-1.0125 Y1.2750 
G01 Z-0.0800 F20.00 
G00 Z0.1000 
G00 X-1.0125 Y0.6750 
G01 Z-0.0800 F20.00 
G00 Z0.1000 
G00 X-1.1125 Y1.2750 
G01 Z-0.0800 F20.00 
G00 Z0.1000 
G00 X-1.1125 Y0.6750 
G01 Z-0.0800 F20.00 
G00 Z0.1000 
G00 X-1.2125 Y1.2750 
G01 Z-0.0800 F20.00 
G00 Z0.1000 
G00 X-1.2125 Y0.6750 
G01 Z-0.0800 F20.00 
G00 Z0.1000 
(Bottom Drill End)
(End of all Drill Files)
(End of every bottom file)
(End of every file)

G00 Z1.0000 
M05
M02
