(.../Documents/eagle/ulp/pcb-gcode.ulp)
(Copyright 2005 - 2009 by John Johnson)
(See readme.txt for licensing terms.)
(This file generated from the board:)
(.../Teensy-Futurlec/Teensy-Futurlec-Shield.brd)
(Current profile is .../eagle/ulp/profiles/generic.pp  )
(This file generated 11/4/12 2:19 PM)
(Settings from pcb-machine.h)
(  Tool Size)
(0.0120 )
(Z Axis Settings)
(  High     Up        Down     Drill)
(1.0000 	0.1000 	-0.0020 	-0.0800 )
(spindle on time = 0.0000)
(milling depth = -0.1000)
(text depth = -0.0050)
(tool change at 24.0000 48.0000 0.0000 )
(feed rate xy = F20.00 )
(feed rate z  = F20.00 )
(Settings from pcb-defaults.h)
(Default isolate = 0.0010)
(isolate max = 0.0100)
(isolate step = 0.0100)
(Generated bottom outlines, bottom drill, )
(Unit of measure: inch)
(Beginning of every file)
(Beginning of every bottom file)
(Outline Begin)
(Bottom outline Begin)
(Inch Mode)
G20
(Absolute Coordinates)
G90
G00 X0.0000 Y0.0000 

S16000
M03


G00 Z0.1000 
G00 X-1.9225 Y0.8185 
G01 Z-0.0020 F20.00 
G01 X-1.9310 Y0.8185 F20.00 
G01 X-1.9429 Y0.8198 
G01 X-1.9545 Y0.8225 
G01 X-1.9658 Y0.8265 
G01 X-1.9766 Y0.8316 
G01 X-1.9867 Y0.8380 
G01 X-1.9961 Y0.8455 
G01 X-2.0045 Y0.8539 
G01 X-2.0120 Y0.8633 
G01 X-2.0184 Y0.8734 
G01 X-2.0235 Y0.8842 
G01 X-2.0275 Y0.8955 
G01 X-2.0302 Y0.9071 
G01 X-2.0315 Y0.9190 
G01 X-2.0315 Y0.9353 
G01 X-2.0356 Y0.9374 
G01 X-2.0412 Y0.9414 
G01 X-2.0461 Y0.9463 
G01 X-2.0501 Y0.9519 
G01 X-2.0533 Y0.9581 
G01 X-2.0554 Y0.9647 
G01 X-2.0565 Y0.9715 
G01 X-2.0565 Y0.9785 
G01 X-2.0554 Y0.9853 
G01 X-2.0533 Y0.9919 
G01 X-2.0501 Y0.9981 
G01 X-2.0461 Y1.0037 
G01 X-2.0412 Y1.0086 
G01 X-2.0356 Y1.0126 
G01 X-2.0294 Y1.0158 
G01 X-2.0228 Y1.0179 
G01 X-2.0160 Y1.0190 
G01 X-2.0090 Y1.0190 
G01 X-2.0022 Y1.0179 
G01 X-1.9956 Y1.0158 
G01 X-1.9894 Y1.0126 
G01 X-1.9838 Y1.0086 
G01 X-1.9789 Y1.0037 
G01 X-1.9749 Y0.9981 
G01 X-1.9717 Y0.9919 
G01 X-1.9696 Y0.9853 
G01 X-1.9685 Y0.9785 
G01 X-1.9685 Y0.9715 
G01 X-1.9696 Y0.9647 
G01 X-1.9717 Y0.9581 
G01 X-1.9749 Y0.9519 
G01 X-1.9789 Y0.9463 
G01 X-1.9838 Y0.9414 
G01 X-1.9894 Y0.9374 
G01 X-1.9935 Y0.9353 
G01 X-1.9935 Y0.9250 
G01 X-1.9934 Y0.9212 
G01 X-1.9925 Y0.9135 
G01 X-1.9908 Y0.9060 
G01 X-1.9883 Y0.8988 
G01 X-1.9850 Y0.8919 
G01 X-1.9809 Y0.8854 
G01 X-1.9761 Y0.8794 
G01 X-1.9706 Y0.8739 
G01 X-1.9646 Y0.8691 
G01 X-1.9581 Y0.8650 
G01 X-1.9512 Y0.8617 
G01 X-1.9440 Y0.8592 
G01 X-1.9365 Y0.8575 
G01 X-1.9288 Y0.8566 
G01 X-1.9250 Y0.8565 
G01 X-0.4922 Y0.8565 
G01 X-0.4766 Y0.8551 
G01 X-0.4613 Y0.8522 
G01 X-0.4462 Y0.8479 
G01 X-0.4317 Y0.8423 
G01 X-0.4177 Y0.8353 
G01 X-0.4044 Y0.8271 
G01 X-0.3919 Y0.8177 
G01 X-0.3804 Y0.8071 
G01 X-0.3698 Y0.7956 
G01 X-0.3604 Y0.7831 
G01 X-0.3522 Y0.7698 
G01 X-0.3452 Y0.7558 
G01 X-0.3396 Y0.7413 
G01 X-0.3353 Y0.7262 
G01 X-0.3324 Y0.7109 
G01 X-0.3310 Y0.6953 
G01 X-0.3310 Y0.4504 
G01 X-0.3324 Y0.4363 
G01 X-0.3351 Y0.4225 
G01 X-0.3393 Y0.4089 
G01 X-0.3447 Y0.3959 
G01 X-0.3513 Y0.3834 
G01 X-0.3592 Y0.3716 
G01 X-0.3682 Y0.3607 
G01 X-0.3782 Y0.3507 
G01 X-0.3891 Y0.3417 
G01 X-0.4009 Y0.3338 
G01 X-0.4134 Y0.3272 
G01 X-0.4264 Y0.3218 
G01 X-0.4310 Y0.3204 
G01 X-0.4310 Y0.3143 
G01 X-0.4568 Y0.2885 
G01 X-0.4932 Y0.2885 
G01 X-0.5190 Y0.3143 
G01 X-0.5190 Y0.3507 
G01 X-0.4932 Y0.3765 
G01 X-0.4568 Y0.3765 
G01 X-0.4384 Y0.3581 
G01 X-0.4297 Y0.3617 
G01 X-0.4205 Y0.3666 
G01 X-0.4119 Y0.3724 
G01 X-0.4038 Y0.3790 
G01 X-0.3965 Y0.3863 
G01 X-0.3899 Y0.3944 
G01 X-0.3841 Y0.4030 
G01 X-0.3792 Y0.4122 
G01 X-0.3752 Y0.4218 
G01 X-0.3722 Y0.4317 
G01 X-0.3701 Y0.4419 
G01 X-0.3691 Y0.4523 
G01 X-0.3690 Y0.4575 
G01 X-0.3690 Y0.6875 
G01 X-0.3691 Y0.6936 
G01 X-0.3703 Y0.7056 
G01 X-0.3725 Y0.7175 
G01 X-0.3758 Y0.7291 
G01 X-0.3802 Y0.7404 
G01 X-0.3856 Y0.7512 
G01 X-0.3919 Y0.7615 
G01 X-0.3992 Y0.7712 
G01 X-0.4074 Y0.7801 
G01 X-0.4163 Y0.7883 
G01 X-0.4260 Y0.7956 
G01 X-0.4363 Y0.8019 
G01 X-0.4471 Y0.8073 
G01 X-0.4584 Y0.8117 
G01 X-0.4700 Y0.8150 
G01 X-0.4819 Y0.8172 
G01 X-0.4939 Y0.8184 
G01 X-0.5000 Y0.8185 
G01 X-1.9225 Y0.8185 
G00 Z0.1000 
G00 X-1.1558 Y1.0123 
G01 Z-0.0020 F20.00 
G01 X-1.1560 Y1.0111 F20.00 
G01 X-1.1560 Y1.0100 
G01 X-1.1564 Y1.0087 
G01 X-1.1568 Y1.0053 
G01 X-1.1594 Y0.9967 
G01 X-1.1631 Y0.9884 
G01 X-1.1680 Y0.9808 
G01 X-1.1739 Y0.9740 
G01 X-1.1807 Y0.9681 
G01 X-1.1883 Y0.9632 
G01 X-1.1966 Y0.9594 
G01 X-1.2052 Y0.9569 
G01 X-1.2142 Y0.9556 
G01 X-1.2232 Y0.9556 
G01 X-1.2264 Y0.9560 
G01 X-1.7728 Y0.9560 
G01 X-1.7749 Y0.9519 
G01 X-1.7789 Y0.9463 
G01 X-1.7838 Y0.9414 
G01 X-1.7894 Y0.9374 
G01 X-1.7956 Y0.9342 
G01 X-1.8022 Y0.9321 
G01 X-1.8090 Y0.9310 
G01 X-1.8160 Y0.9310 
G01 X-1.8228 Y0.9321 
G01 X-1.8294 Y0.9342 
G01 X-1.8356 Y0.9374 
G01 X-1.8412 Y0.9414 
G01 X-1.8461 Y0.9463 
G01 X-1.8501 Y0.9519 
G01 X-1.8533 Y0.9581 
G01 X-1.8554 Y0.9647 
G01 X-1.8565 Y0.9715 
G01 X-1.8565 Y0.9785 
G01 X-1.8554 Y0.9853 
G01 X-1.8533 Y0.9919 
G01 X-1.8501 Y0.9981 
G01 X-1.8461 Y1.0037 
G01 X-1.8412 Y1.0086 
G01 X-1.8356 Y1.0126 
G01 X-1.8294 Y1.0158 
G01 X-1.8228 Y1.0179 
G01 X-1.8160 Y1.0190 
G01 X-1.8090 Y1.0190 
G01 X-1.8022 Y1.0179 
G01 X-1.7956 Y1.0158 
G01 X-1.7894 Y1.0126 
G01 X-1.7838 Y1.0086 
G01 X-1.7789 Y1.0037 
G01 X-1.7749 Y0.9981 
G01 X-1.7728 Y0.9940 
G01 X-1.2261 Y0.9940 
G01 X-1.2248 Y0.9942 
G01 X-1.2236 Y0.9940 
G01 X-1.2225 Y0.9940 
G01 X-1.2214 Y0.9937 
G01 X-1.2205 Y0.9936 
G01 X-1.2169 Y0.9936 
G01 X-1.2134 Y0.9941 
G01 X-1.2099 Y0.9952 
G01 X-1.2067 Y0.9966 
G01 X-1.2036 Y0.9986 
G01 X-1.2009 Y1.0010 
G01 X-1.1986 Y1.0037 
G01 X-1.1966 Y1.0067 
G01 X-1.1951 Y1.0100 
G01 X-1.1941 Y1.0134 
G01 X-1.1940 Y1.0141 
G01 X-1.1940 Y1.0183 
G01 X-1.1925 Y1.0297 
G01 X-1.1895 Y1.0408 
G01 X-1.1851 Y1.0514 
G01 X-1.1794 Y1.0614 
G01 X-1.1724 Y1.0705 
G01 X-1.1642 Y1.0786 
G01 X-1.1551 Y1.0856 
G01 X-1.1451 Y1.0914 
G01 X-1.1345 Y1.0958 
G01 X-1.1234 Y1.0987 
G01 X-1.1120 Y1.1002 
G01 X-1.1005 Y1.1002 
G01 X-1.0891 Y1.0987 
G01 X-1.0780 Y1.0958 
G01 X-1.0674 Y1.0914 
G01 X-1.0574 Y1.0856 
G01 X-1.0483 Y1.0786 
G01 X-1.0401 Y1.0705 
G01 X-1.0331 Y1.0614 
G01 X-1.0274 Y1.0514 
G01 X-1.0230 Y1.0408 
G01 X-1.0200 Y1.0297 
G01 X-1.0185 Y1.0183 
G01 X-1.0185 Y1.0141 
G01 X-1.0184 Y1.0134 
G01 X-1.0174 Y1.0100 
G01 X-1.0159 Y1.0067 
G01 X-1.0139 Y1.0037 
G01 X-1.0116 Y1.0010 
G01 X-1.0089 Y0.9986 
G01 X-1.0058 Y0.9966 
G01 X-1.0026 Y0.9952 
G01 X-0.9991 Y0.9941 
G01 X-0.9956 Y0.9936 
G01 X-0.9920 Y0.9936 
G01 X-0.9911 Y0.9937 
G01 X-0.9900 Y0.9940 
G01 X-0.9889 Y0.9940 
G01 X-0.9877 Y0.9942 
G01 X-0.9864 Y0.9940 
G01 X-0.5256 Y0.9940 
G01 X-0.5151 Y0.9946 
G01 X-0.4928 Y0.9945 
G01 X-0.4706 Y0.9928 
G01 X-0.4486 Y0.9896 
G01 X-0.4268 Y0.9849 
G01 X-0.4054 Y0.9788 
G01 X-0.3845 Y0.9712 
G01 X-0.3641 Y0.9622 
G01 X-0.3444 Y0.9518 
G01 X-0.3255 Y0.9401 
G01 X-0.3074 Y0.9271 
G01 X-0.2902 Y0.9129 
G01 X-0.2741 Y0.8976 
G01 X-0.2590 Y0.8812 
G01 X-0.2451 Y0.8639 
G01 X-0.2324 Y0.8456 
G01 X-0.2209 Y0.8265 
G01 X-0.2108 Y0.8067 
G01 X-0.2021 Y0.7862 
G01 X-0.1948 Y0.7652 
G01 X-0.1890 Y0.7437 
G01 X-0.1846 Y0.7218 
G01 X-0.1817 Y0.6998 
G01 X-0.1812 Y0.6906 
G01 X-0.1810 Y0.6900 
G01 X-0.1810 Y0.6881 
G01 X-0.1809 Y0.6862 
G01 X-0.1810 Y0.6856 
G01 X-0.1810 Y0.4145 
G01 X-0.1809 Y0.4140 
G01 X-0.1810 Y0.4120 
G01 X-0.1810 Y0.4100 
G01 X-0.1811 Y0.4095 
G01 X-0.1815 Y0.4015 
G01 X-0.1840 Y0.3815 
G01 X-0.1880 Y0.3617 
G01 X-0.1935 Y0.3423 
G01 X-0.2004 Y0.3234 
G01 X-0.2087 Y0.3050 
G01 X-0.2183 Y0.2873 
G01 X-0.2293 Y0.2704 
G01 X-0.2414 Y0.2543 
G01 X-0.2548 Y0.2392 
G01 X-0.2692 Y0.2252 
G01 X-0.2846 Y0.2122 
G01 X-0.3010 Y0.2004 
G01 X-0.3182 Y0.1899 
G01 X-0.3361 Y0.1807 
G01 X-0.3547 Y0.1729 
G01 X-0.3738 Y0.1665 
G01 X-0.3933 Y0.1615 
G01 X-0.4132 Y0.1580 
G01 X-0.4332 Y0.1560 
G01 X-0.4534 Y0.1555 
G01 X-0.4630 Y0.1560 
G01 X-0.5279 Y0.1560 
G01 X-0.5283 Y0.1559 
G01 X-0.5304 Y0.1560 
G01 X-0.5325 Y0.1560 
G01 X-0.5329 Y0.1561 
G01 X-0.5387 Y0.1563 
G01 X-0.5543 Y0.1584 
G01 X-0.5696 Y0.1620 
G01 X-0.5846 Y0.1669 
G01 X-0.5990 Y0.1732 
G01 X-0.6128 Y0.1808 
G01 X-0.6259 Y0.1896 
G01 X-0.6380 Y0.1996 
G01 X-0.6492 Y0.2107 
G01 X-0.6594 Y0.2228 
G01 X-0.6683 Y0.2358 
G01 X-0.6761 Y0.2495 
G01 X-0.6825 Y0.2639 
G01 X-0.6876 Y0.2788 
G01 X-0.6899 Y0.2885 
G01 X-0.6932 Y0.2885 
G01 X-0.7190 Y0.3143 
G01 X-0.7190 Y0.3507 
G01 X-0.6932 Y0.3765 
G01 X-0.6568 Y0.3765 
G01 X-0.6310 Y0.3507 
G01 X-0.6310 Y0.3143 
G01 X-0.6519 Y0.2934 
G01 X-0.6509 Y0.2894 
G01 X-0.6470 Y0.2778 
G01 X-0.6420 Y0.2667 
G01 X-0.6360 Y0.2560 
G01 X-0.6290 Y0.2460 
G01 X-0.6211 Y0.2366 
G01 X-0.6125 Y0.2280 
G01 X-0.6030 Y0.2202 
G01 X-0.5929 Y0.2134 
G01 X-0.5822 Y0.2075 
G01 X-0.5710 Y0.2026 
G01 X-0.5594 Y0.1987 
G01 X-0.5474 Y0.1960 
G01 X-0.5353 Y0.1944 
G01 X-0.5295 Y0.1940 
G01 X-0.4645 Y0.1940 
G01 X-0.4640 Y0.1941 
G01 X-0.4620 Y0.1940 
G01 X-0.4600 Y0.1940 
G01 X-0.4597 Y0.1939 
G01 X-0.4529 Y0.1937 
G01 X-0.4356 Y0.1941 
G01 X-0.4184 Y0.1959 
G01 X-0.4014 Y0.1989 
G01 X-0.3846 Y0.2031 
G01 X-0.3682 Y0.2086 
G01 X-0.3523 Y0.2154 
G01 X-0.3369 Y0.2232 
G01 X-0.3221 Y0.2323 
G01 X-0.3081 Y0.2424 
G01 X-0.2948 Y0.2535 
G01 X-0.2824 Y0.2656 
G01 X-0.2710 Y0.2785 
G01 X-0.2605 Y0.2923 
G01 X-0.2511 Y0.3068 
G01 X-0.2429 Y0.3220 
G01 X-0.2358 Y0.3378 
G01 X-0.2298 Y0.3540 
G01 X-0.2252 Y0.3707 
G01 X-0.2217 Y0.3877 
G01 X-0.2196 Y0.4048 
G01 X-0.2190 Y0.4131 
G01 X-0.2190 Y0.6868 
G01 X-0.2197 Y0.6961 
G01 X-0.2223 Y0.7156 
G01 X-0.2261 Y0.7349 
G01 X-0.2313 Y0.7539 
G01 X-0.2377 Y0.7724 
G01 X-0.2454 Y0.7905 
G01 X-0.2544 Y0.8080 
G01 X-0.2645 Y0.8249 
G01 X-0.2757 Y0.8410 
G01 X-0.2880 Y0.8564 
G01 X-0.3013 Y0.8708 
G01 X-0.3155 Y0.8843 
G01 X-0.3307 Y0.8968 
G01 X-0.3467 Y0.9083 
G01 X-0.3634 Y0.9186 
G01 X-0.3808 Y0.9278 
G01 X-0.3987 Y0.9357 
G01 X-0.4172 Y0.9425 
G01 X-0.4361 Y0.9479 
G01 X-0.4553 Y0.9520 
G01 X-0.4748 Y0.9548 
G01 X-0.4944 Y0.9563 
G01 X-0.5140 Y0.9565 
G01 X-0.5221 Y0.9561 
G01 X-0.5225 Y0.9560 
G01 X-0.5244 Y0.9560 
G01 X-0.5263 Y0.9559 
G01 X-0.5269 Y0.9560 
G01 X-0.9861 Y0.9560 
G01 X-0.9893 Y0.9556 
G01 X-0.9983 Y0.9556 
G01 X-1.0073 Y0.9569 
G01 X-1.0159 Y0.9594 
G01 X-1.0242 Y0.9632 
G01 X-1.0318 Y0.9681 
G01 X-1.0386 Y0.9740 
G01 X-1.0445 Y0.9808 
G01 X-1.0494 Y0.9884 
G01 X-1.0531 Y0.9967 
G01 X-1.0557 Y1.0053 
G01 X-1.0561 Y1.0087 
G01 X-1.0565 Y1.0100 
G01 X-1.0565 Y1.0111 
G01 X-1.0567 Y1.0123 
G01 X-1.0565 Y1.0134 
G01 X-1.0566 Y1.0158 
G01 X-1.0575 Y1.0222 
G01 X-1.0591 Y1.0285 
G01 X-1.0616 Y1.0345 
G01 X-1.0649 Y1.0401 
G01 X-1.0688 Y1.0453 
G01 X-1.0734 Y1.0499 
G01 X-1.0786 Y1.0539 
G01 X-1.0842 Y1.0571 
G01 X-1.0903 Y1.0596 
G01 X-1.0965 Y1.0613 
G01 X-1.1030 Y1.0621 
G01 X-1.1095 Y1.0621 
G01 X-1.1160 Y1.0613 
G01 X-1.1222 Y1.0596 
G01 X-1.1283 Y1.0571 
G01 X-1.1339 Y1.0539 
G01 X-1.1391 Y1.0499 
G01 X-1.1437 Y1.0453 
G01 X-1.1476 Y1.0401 
G01 X-1.1509 Y1.0345 
G01 X-1.1534 Y1.0285 
G01 X-1.1550 Y1.0222 
G01 X-1.1559 Y1.0158 
G01 X-1.1560 Y1.0134 
G01 X-1.1558 Y1.0123 
G00 Z0.1000 
G00 X-1.1320 Y1.0081 
G01 Z-0.0020 F20.00 
G01 X-1.1320 Y1.0139 F20.00 
G01 X-1.1309 Y1.0196 
G01 X-1.1286 Y1.0250 
G01 X-1.1254 Y1.0298 
G01 X-1.1213 Y1.0339 
G01 X-1.1165 Y1.0371 
G01 X-1.1111 Y1.0394 
G01 X-1.1054 Y1.0405 
G01 X-1.0996 Y1.0405 
G01 X-1.0939 Y1.0394 
G01 X-1.0885 Y1.0371 
G01 X-1.0837 Y1.0339 
G01 X-1.0796 Y1.0298 
G01 X-1.0764 Y1.0250 
G01 X-1.0741 Y1.0196 
G01 X-1.0730 Y1.0139 
G01 X-1.0730 Y1.0081 
G01 X-1.0741 Y1.0024 
G01 X-1.0764 Y0.9970 
G01 X-1.0796 Y0.9922 
G01 X-1.0837 Y0.9881 
G01 X-1.0883 Y0.9850 
G01 X-1.0837 Y0.9819 
G01 X-1.0796 Y0.9778 
G01 X-1.0764 Y0.9730 
G01 X-1.0741 Y0.9676 
G01 X-1.0730 Y0.9619 
G01 X-1.0730 Y0.9561 
G01 X-1.0741 Y0.9504 
G01 X-1.0764 Y0.9450 
G01 X-1.0796 Y0.9402 
G01 X-1.0837 Y0.9361 
G01 X-1.0885 Y0.9329 
G01 X-1.0939 Y0.9306 
G01 X-1.0996 Y0.9295 
G01 X-1.1054 Y0.9295 
G01 X-1.1111 Y0.9306 
G01 X-1.1165 Y0.9329 
G01 X-1.1213 Y0.9361 
G01 X-1.1254 Y0.9402 
G01 X-1.1286 Y0.9450 
G01 X-1.1309 Y0.9504 
G01 X-1.1320 Y0.9561 
G01 X-1.1320 Y0.9619 
G01 X-1.1309 Y0.9676 
G01 X-1.1286 Y0.9730 
G01 X-1.1254 Y0.9778 
G01 X-1.1213 Y0.9819 
G01 X-1.1167 Y0.9850 
G01 X-1.1213 Y0.9881 
G01 X-1.1254 Y0.9922 
G01 X-1.1286 Y0.9970 
G01 X-1.1309 Y1.0024 
G01 X-1.1320 Y1.0081 
G00 Z0.1000 
G00 X-2.4533 Y0.8919 
G01 Z-0.0020 F20.00 
G01 X-2.4501 Y0.8981 F20.00 
G01 X-2.4461 Y0.9037 
G01 X-2.4412 Y0.9086 
G01 X-2.4356 Y0.9126 
G01 X-2.4294 Y0.9158 
G01 X-2.4228 Y0.9179 
G01 X-2.4160 Y0.9190 
G01 X-2.4090 Y0.9190 
G01 X-2.4022 Y0.9179 
G01 X-2.3956 Y0.9158 
G01 X-2.3894 Y0.9126 
G01 X-2.3838 Y0.9086 
G01 X-2.3789 Y0.9037 
G01 X-2.3749 Y0.8981 
G01 X-2.3717 Y0.8919 
G01 X-2.3696 Y0.8853 
G01 X-2.3685 Y0.8785 
G01 X-2.3685 Y0.8715 
G01 X-2.3696 Y0.8647 
G01 X-2.3717 Y0.8581 
G01 X-2.3749 Y0.8519 
G01 X-2.3789 Y0.8463 
G01 X-2.3838 Y0.8414 
G01 X-2.3894 Y0.8374 
G01 X-2.3956 Y0.8342 
G01 X-2.4022 Y0.8321 
G01 X-2.4090 Y0.8310 
G01 X-2.4160 Y0.8310 
G01 X-2.4228 Y0.8321 
G01 X-2.4294 Y0.8342 
G01 X-2.4356 Y0.8374 
G01 X-2.4412 Y0.8414 
G01 X-2.4461 Y0.8463 
G01 X-2.4501 Y0.8519 
G01 X-2.4508 Y0.8532 
G01 X-2.4602 Y0.8519 
G01 X-2.4790 Y0.8480 
G01 X-2.4975 Y0.8428 
G01 X-2.5156 Y0.8364 
G01 X-2.5332 Y0.8288 
G01 X-2.5502 Y0.8199 
G01 X-2.5666 Y0.8100 
G01 X-2.5823 Y0.7989 
G01 X-2.5972 Y0.7868 
G01 X-2.6112 Y0.7737 
G01 X-2.6243 Y0.7597 
G01 X-2.6364 Y0.7448 
G01 X-2.6475 Y0.7291 
G01 X-2.6574 Y0.7127 
G01 X-2.6663 Y0.6957 
G01 X-2.6739 Y0.6781 
G01 X-2.6803 Y0.6600 
G01 X-2.6855 Y0.6415 
G01 X-2.6894 Y0.6227 
G01 X-2.6920 Y0.6037 
G01 X-2.6933 Y0.5846 
G01 X-2.6935 Y0.5750 
G01 X-2.6935 Y0.4325 
G01 X-2.6934 Y0.4280 
G01 X-2.6924 Y0.4189 
G01 X-2.6903 Y0.4101 
G01 X-2.6873 Y0.4015 
G01 X-2.6834 Y0.3933 
G01 X-2.6786 Y0.3856 
G01 X-2.6729 Y0.3785 
G01 X-2.6665 Y0.3721 
G01 X-2.6594 Y0.3664 
G01 X-2.6517 Y0.3616 
G01 X-2.6476 Y0.3596 
G01 X-2.6307 Y0.3765 
G01 X-2.5943 Y0.3765 
G01 X-2.5685 Y0.3507 
G01 X-2.5685 Y0.3143 
G01 X-2.5920 Y0.2908 
G01 X-2.5916 Y0.2869 
G01 X-2.5886 Y0.2692 
G01 X-2.5843 Y0.2518 
G01 X-2.5789 Y0.2347 
G01 X-2.5722 Y0.2180 
G01 X-2.5643 Y0.2019 
G01 X-2.5553 Y0.1864 
G01 X-2.5452 Y0.1715 
G01 X-2.5341 Y0.1575 
G01 X-2.5221 Y0.1442 
G01 X-2.5091 Y0.1318 
G01 X-2.4952 Y0.1204 
G01 X-2.4806 Y0.1100 
G01 X-2.4653 Y0.1007 
G01 X-2.4493 Y0.0925 
G01 X-2.4328 Y0.0855 
G01 X-2.4158 Y0.0797 
G01 X-2.3985 Y0.0750 
G01 X-2.3809 Y0.0717 
G01 X-2.3631 Y0.0696 
G01 X-2.3544 Y0.0690 
G01 X-2.0131 Y0.0690 
G01 X-2.0047 Y0.0695 
G01 X-1.9874 Y0.0716 
G01 X-1.9703 Y0.0749 
G01 X-1.9535 Y0.0794 
G01 X-1.9371 Y0.0851 
G01 X-1.9211 Y0.0920 
G01 X-1.9056 Y0.0999 
G01 X-1.8908 Y0.1090 
G01 X-1.8766 Y0.1191 
G01 X-1.8632 Y0.1302 
G01 X-1.8506 Y0.1422 
G01 X-1.8389 Y0.1550 
G01 X-1.8281 Y0.1687 
G01 X-1.8184 Y0.1831 
G01 X-1.8097 Y0.1982 
G01 X-1.8020 Y0.2139 
G01 X-1.7956 Y0.2300 
G01 X-1.7903 Y0.2466 
G01 X-1.7862 Y0.2635 
G01 X-1.7833 Y0.2807 
G01 X-1.7824 Y0.2902 
G01 X-1.8065 Y0.3143 
G01 X-1.8065 Y0.3507 
G01 X-1.7807 Y0.3765 
G01 X-1.7443 Y0.3765 
G01 X-1.7185 Y0.3507 
G01 X-1.7185 Y0.3143 
G01 X-1.7420 Y0.2908 
G01 X-1.7416 Y0.2869 
G01 X-1.7386 Y0.2692 
G01 X-1.7343 Y0.2518 
G01 X-1.7289 Y0.2347 
G01 X-1.7222 Y0.2180 
G01 X-1.7143 Y0.2019 
G01 X-1.7053 Y0.1864 
G01 X-1.6952 Y0.1715 
G01 X-1.6841 Y0.1575 
G01 X-1.6721 Y0.1442 
G01 X-1.6591 Y0.1318 
G01 X-1.6452 Y0.1204 
G01 X-1.6306 Y0.1100 
G01 X-1.6153 Y0.1007 
G01 X-1.5993 Y0.0925 
G01 X-1.5828 Y0.0855 
G01 X-1.5658 Y0.0797 
G01 X-1.5485 Y0.0750 
G01 X-1.5309 Y0.0717 
G01 X-1.5131 Y0.0696 
G01 X-1.5044 Y0.0690 
G01 X-1.0632 Y0.0690 
G01 X-1.0562 Y0.0696 
G01 X-1.0414 Y0.0718 
G01 X-1.0268 Y0.0751 
G01 X-1.0125 Y0.0797 
G01 X-0.9987 Y0.0855 
G01 X-0.9853 Y0.0923 
G01 X-0.9726 Y0.1003 
G01 X-0.9606 Y0.1092 
G01 X-0.9494 Y0.1192 
G01 X-0.9390 Y0.1300 
G01 X-0.9295 Y0.1416 
G01 X-0.9211 Y0.1540 
G01 X-0.9137 Y0.1670 
G01 X-0.9074 Y0.1807 
G01 X-0.9022 Y0.1947 
G01 X-0.8983 Y0.2092 
G01 X-0.8955 Y0.2239 
G01 X-0.8940 Y0.2388 
G01 X-0.8936 Y0.2538 
G01 X-0.8939 Y0.2596 
G01 X-0.8940 Y0.2600 
G01 X-0.8940 Y0.2619 
G01 X-0.8941 Y0.2638 
G01 X-0.8940 Y0.2644 
G01 X-0.8940 Y0.2893 
G01 X-0.9190 Y0.3143 
G01 X-0.9190 Y0.3507 
G01 X-0.8932 Y0.3765 
G01 X-0.8568 Y0.3765 
G01 X-0.8310 Y0.3507 
G01 X-0.8310 Y0.3143 
G01 X-0.8554 Y0.2899 
G01 X-0.8551 Y0.2853 
G01 X-0.8524 Y0.2670 
G01 X-0.8484 Y0.2491 
G01 X-0.8431 Y0.2314 
G01 X-0.8366 Y0.2142 
G01 X-0.8289 Y0.1975 
G01 X-0.8201 Y0.1814 
G01 X-0.8100 Y0.1659 
G01 X-0.7990 Y0.1512 
G01 X-0.7869 Y0.1373 
G01 X-0.7738 Y0.1244 
G01 X-0.7598 Y0.1124 
G01 X-0.7451 Y0.1014 
G01 X-0.7295 Y0.0915 
G01 X-0.7133 Y0.0827 
G01 X-0.6966 Y0.0751 
G01 X-0.6793 Y0.0688 
G01 X-0.6616 Y0.0636 
G01 X-0.6436 Y0.0598 
G01 X-0.6254 Y0.0572 
G01 X-0.6167 Y0.0565 
G01 X-0.4131 Y0.0565 
G01 X-0.4025 Y0.0572 
G01 X-0.3806 Y0.0597 
G01 X-0.3590 Y0.0636 
G01 X-0.3376 Y0.0688 
G01 X-0.3166 Y0.0753 
G01 X-0.2960 Y0.0832 
G01 X-0.2760 Y0.0923 
G01 X-0.2566 Y0.1027 
G01 X-0.2379 Y0.1142 
G01 X-0.2199 Y0.1270 
G01 X-0.2028 Y0.1408 
G01 X-0.1866 Y0.1556 
G01 X-0.1713 Y0.1715 
G01 X-0.1571 Y0.1883 
G01 X-0.1440 Y0.2059 
G01 X-0.1320 Y0.2244 
G01 X-0.1211 Y0.2435 
G01 X-0.1115 Y0.2633 
G01 X-0.1032 Y0.2837 
G01 X-0.0961 Y0.3045 
G01 X-0.0904 Y0.3257 
G01 X-0.0860 Y0.3473 
G01 X-0.0830 Y0.3691 
G01 X-0.0814 Y0.3910 
G01 X-0.0811 Y0.4130 
G01 X-0.0814 Y0.4222 
G01 X-0.0815 Y0.4225 
G01 X-0.0815 Y0.4245 
G01 X-0.0816 Y0.4265 
G01 X-0.0815 Y0.4270 
G01 X-0.0815 Y1.3280 
G01 X-0.0834 Y1.3370 
G01 X-0.0890 Y1.3582 
G01 X-0.0959 Y1.3791 
G01 X-0.1040 Y1.3995 
G01 X-0.1134 Y1.4194 
G01 X-0.1239 Y1.4386 
G01 X-0.1355 Y1.4572 
G01 X-0.1483 Y1.4751 
G01 X-0.1621 Y1.4921 
G01 X-0.1769 Y1.5083 
G01 X-0.1927 Y1.5236 
G01 X-0.2094 Y1.5379 
G01 X-0.2269 Y1.5512 
G01 X-0.2451 Y1.5633 
G01 X-0.2641 Y1.5744 
G01 X-0.2837 Y1.5843 
G01 X-0.3039 Y1.5930 
G01 X-0.3245 Y1.6004 
G01 X-0.3456 Y1.6066 
G01 X-0.3670 Y1.6115 
G01 X-0.3886 Y1.6151 
G01 X-0.4105 Y1.6174 
G01 X-0.4324 Y1.6184 
G01 X-0.4543 Y1.6180 
G01 X-0.4685 Y1.6169 
G01 X-0.4685 Y1.6118 
G01 X-0.4943 Y1.5860 
G01 X-0.5307 Y1.5860 
G01 X-0.5565 Y1.6118 
G01 X-0.5565 Y1.6482 
G01 X-0.5346 Y1.6701 
G01 X-0.5355 Y1.6769 
G01 X-0.5393 Y1.6953 
G01 X-0.5444 Y1.7135 
G01 X-0.5507 Y1.7313 
G01 X-0.5583 Y1.7485 
G01 X-0.5669 Y1.7653 
G01 X-0.5767 Y1.7814 
G01 X-0.5876 Y1.7968 
G01 X-0.5995 Y1.8114 
G01 X-0.6123 Y1.8252 
G01 X-0.6261 Y1.8380 
G01 X-0.6407 Y1.8499 
G01 X-0.6561 Y1.8608 
G01 X-0.6722 Y1.8706 
G01 X-0.6890 Y1.8792 
G01 X-0.7062 Y1.8868 
G01 X-0.7240 Y1.8931 
G01 X-0.7422 Y1.8982 
G01 X-0.7606 Y1.9020 
G01 X-0.7793 Y1.9046 
G01 X-0.7981 Y1.9058 
G01 X-0.8075 Y1.9060 
G01 X-1.3175 Y1.9060 
G01 X-1.3269 Y1.9058 
G01 X-1.3457 Y1.9046 
G01 X-1.3644 Y1.9020 
G01 X-1.3828 Y1.8982 
G01 X-1.4010 Y1.8931 
G01 X-1.4188 Y1.8868 
G01 X-1.4360 Y1.8792 
G01 X-1.4528 Y1.8706 
G01 X-1.4689 Y1.8608 
G01 X-1.4843 Y1.8499 
G01 X-1.4989 Y1.8380 
G01 X-1.5127 Y1.8252 
G01 X-1.5255 Y1.8114 
G01 X-1.5374 Y1.7968 
G01 X-1.5483 Y1.7814 
G01 X-1.5581 Y1.7653 
G01 X-1.5667 Y1.7485 
G01 X-1.5743 Y1.7313 
G01 X-1.5806 Y1.7135 
G01 X-1.5857 Y1.6953 
G01 X-1.5895 Y1.6769 
G01 X-1.5904 Y1.6701 
G01 X-1.5685 Y1.6482 
G01 X-1.5685 Y1.6118 
G01 X-1.5943 Y1.5860 
G01 X-1.6307 Y1.5860 
G01 X-1.6565 Y1.6118 
G01 X-1.6565 Y1.6482 
G01 X-1.6307 Y1.6740 
G01 X-1.6284 Y1.6740 
G01 X-1.6271 Y1.6834 
G01 X-1.6227 Y1.7044 
G01 X-1.6170 Y1.7250 
G01 X-1.6098 Y1.7453 
G01 X-1.6012 Y1.7649 
G01 X-1.5914 Y1.7840 
G01 X-1.5802 Y1.8023 
G01 X-1.5678 Y1.8198 
G01 X-1.5543 Y1.8365 
G01 X-1.5397 Y1.8522 
G01 X-1.5240 Y1.8668 
G01 X-1.5073 Y1.8803 
G01 X-1.4898 Y1.8927 
G01 X-1.4715 Y1.9039 
G01 X-1.4524 Y1.9137 
G01 X-1.4328 Y1.9223 
G01 X-1.4125 Y1.9295 
G01 X-1.3919 Y1.9352 
G01 X-1.3709 Y1.9396 
G01 X-1.3496 Y1.9425 
G01 X-1.3282 Y1.9440 
G01 X-0.7968 Y1.9440 
G01 X-0.7754 Y1.9425 
G01 X-0.7541 Y1.9396 
G01 X-0.7331 Y1.9352 
G01 X-0.7125 Y1.9295 
G01 X-0.6922 Y1.9223 
G01 X-0.6726 Y1.9137 
G01 X-0.6535 Y1.9039 
G01 X-0.6352 Y1.8927 
G01 X-0.6177 Y1.8803 
G01 X-0.6010 Y1.8668 
G01 X-0.5853 Y1.8522 
G01 X-0.5707 Y1.8365 
G01 X-0.5572 Y1.8198 
G01 X-0.5448 Y1.8023 
G01 X-0.5336 Y1.7840 
G01 X-0.5238 Y1.7649 
G01 X-0.5152 Y1.7453 
G01 X-0.5080 Y1.7250 
G01 X-0.5022 Y1.7044 
G01 X-0.4979 Y1.6834 
G01 X-0.4966 Y1.6740 
G01 X-0.4943 Y1.6740 
G01 X-0.4750 Y1.6547 
G01 X-0.4561 Y1.6562 
G01 X-0.4319 Y1.6566 
G01 X-0.4076 Y1.6555 
G01 X-0.3835 Y1.6530 
G01 X-0.3596 Y1.6490 
G01 X-0.3359 Y1.6435 
G01 X-0.3126 Y1.6367 
G01 X-0.2898 Y1.6285 
G01 X-0.2675 Y1.6189 
G01 X-0.2459 Y1.6079 
G01 X-0.2249 Y1.5957 
G01 X-0.2047 Y1.5823 
G01 X-0.1854 Y1.5676 
G01 X-0.1670 Y1.5518 
G01 X-0.1496 Y1.5350 
G01 X-0.1332 Y1.5171 
G01 X-0.1179 Y1.4982 
G01 X-0.1038 Y1.4785 
G01 X-0.0909 Y1.4579 
G01 X-0.0793 Y1.4366 
G01 X-0.0690 Y1.4147 
G01 X-0.0600 Y1.3921 
G01 X-0.0524 Y1.3691 
G01 X-0.0462 Y1.3456 
G01 X-0.0440 Y1.3343 
G01 X-0.0435 Y1.3325 
G01 X-0.0435 Y1.3319 
G01 X-0.0434 Y1.3313 
G01 X-0.0435 Y1.3294 
G01 X-0.0435 Y0.4255 
G01 X-0.0429 Y0.4138 
G01 X-0.0432 Y0.3894 
G01 X-0.0450 Y0.3650 
G01 X-0.0484 Y0.3409 
G01 X-0.0532 Y0.3170 
G01 X-0.0596 Y0.2934 
G01 X-0.0674 Y0.2703 
G01 X-0.0767 Y0.2477 
G01 X-0.0873 Y0.2258 
G01 X-0.0993 Y0.2045 
G01 X-0.1126 Y0.1841 
G01 X-0.1272 Y0.1645 
G01 X-0.1430 Y0.1459 
G01 X-0.1599 Y0.1283 
G01 X-0.1779 Y0.1118 
G01 X-0.1969 Y0.0965 
G01 X-0.2168 Y0.0824 
G01 X-0.2376 Y0.0696 
G01 X-0.2591 Y0.0581 
G01 X-0.2813 Y0.0479 
G01 X-0.3041 Y0.0392 
G01 X-0.3274 Y0.0320 
G01 X-0.3511 Y0.0262 
G01 X-0.3751 Y0.0219 
G01 X-0.3994 Y0.0191 
G01 X-0.4095 Y0.0186 
G01 X-0.4100 Y0.0185 
G01 X-0.4120 Y0.0185 
G01 X-0.4140 Y0.0184 
G01 X-0.4145 Y0.0185 
G01 X-0.6157 Y0.0185 
G01 X-0.6163 Y0.0184 
G01 X-0.6181 Y0.0185 
G01 X-0.6200 Y0.0185 
G01 X-0.6206 Y0.0187 
G01 X-0.6293 Y0.0193 
G01 X-0.6503 Y0.0222 
G01 X-0.6709 Y0.0266 
G01 X-0.6912 Y0.0325 
G01 X-0.7111 Y0.0398 
G01 X-0.7303 Y0.0485 
G01 X-0.7489 Y0.0586 
G01 X-0.7667 Y0.0699 
G01 X-0.7837 Y0.0825 
G01 X-0.7997 Y0.0963 
G01 X-0.8147 Y0.1112 
G01 X-0.8286 Y0.1271 
G01 X-0.8413 Y0.1440 
G01 X-0.8528 Y0.1617 
G01 X-0.8630 Y0.1803 
G01 X-0.8653 Y0.1852 
G01 X-0.8659 Y0.1831 
G01 X-0.8721 Y0.1661 
G01 X-0.8797 Y0.1496 
G01 X-0.8887 Y0.1338 
G01 X-0.8989 Y0.1188 
G01 X-0.9104 Y0.1047 
G01 X-0.9229 Y0.0916 
G01 X-0.9365 Y0.0796 
G01 X-0.9511 Y0.0687 
G01 X-0.9664 Y0.0591 
G01 X-0.9826 Y0.0508 
G01 X-0.9993 Y0.0439 
G01 X-1.0166 Y0.0383 
G01 X-1.0343 Y0.0342 
G01 X-1.0523 Y0.0316 
G01 X-1.0594 Y0.0312 
G01 X-1.0600 Y0.0310 
G01 X-1.0619 Y0.0310 
G01 X-1.0638 Y0.0309 
G01 X-1.0644 Y0.0310 
G01 X-1.5029 Y0.0310 
G01 X-1.5034 Y0.0309 
G01 X-1.5054 Y0.0310 
G01 X-1.5075 Y0.0310 
G01 X-1.5079 Y0.0311 
G01 X-1.5162 Y0.0315 
G01 X-1.5367 Y0.0339 
G01 X-1.5570 Y0.0378 
G01 X-1.5770 Y0.0431 
G01 X-1.5965 Y0.0499 
G01 X-1.6155 Y0.0580 
G01 X-1.6339 Y0.0674 
G01 X-1.6516 Y0.0781 
G01 X-1.6684 Y0.0901 
G01 X-1.6844 Y0.1032 
G01 X-1.6993 Y0.1175 
G01 X-1.7133 Y0.1328 
G01 X-1.7261 Y0.1490 
G01 X-1.7377 Y0.1661 
G01 X-1.7480 Y0.1840 
G01 X-1.7571 Y0.2025 
G01 X-1.7613 Y0.2130 
G01 X-1.7671 Y0.1984 
G01 X-1.7759 Y0.1803 
G01 X-1.7860 Y0.1629 
G01 X-1.7973 Y0.1462 
G01 X-1.8097 Y0.1304 
G01 X-1.8233 Y0.1155 
G01 X-1.8378 Y0.1016 
G01 X-1.8533 Y0.0888 
G01 X-1.8697 Y0.0771 
G01 X-1.8869 Y0.0666 
G01 X-1.9048 Y0.0574 
G01 X-1.9233 Y0.0495 
G01 X-1.9423 Y0.0429 
G01 X-1.9618 Y0.0377 
G01 X-1.9816 Y0.0339 
G01 X-2.0015 Y0.0315 
G01 X-2.0096 Y0.0311 
G01 X-2.0100 Y0.0310 
G01 X-2.0120 Y0.0310 
G01 X-2.0141 Y0.0309 
G01 X-2.0145 Y0.0310 
G01 X-2.3529 Y0.0310 
G01 X-2.3534 Y0.0309 
G01 X-2.3554 Y0.0310 
G01 X-2.3575 Y0.0310 
G01 X-2.3579 Y0.0311 
G01 X-2.3662 Y0.0315 
G01 X-2.3867 Y0.0339 
G01 X-2.4070 Y0.0378 
G01 X-2.4270 Y0.0431 
G01 X-2.4465 Y0.0499 
G01 X-2.4655 Y0.0580 
G01 X-2.4839 Y0.0674 
G01 X-2.5016 Y0.0781 
G01 X-2.5184 Y0.0901 
G01 X-2.5344 Y0.1032 
G01 X-2.5493 Y0.1175 
G01 X-2.5633 Y0.1328 
G01 X-2.5761 Y0.1490 
G01 X-2.5877 Y0.1661 
G01 X-2.5980 Y0.1840 
G01 X-2.6071 Y0.2025 
G01 X-2.6148 Y0.2217 
G01 X-2.6211 Y0.2414 
G01 X-2.6260 Y0.2615 
G01 X-2.6294 Y0.2818 
G01 X-2.6301 Y0.2885 
G01 X-2.6307 Y0.2885 
G01 X-2.6565 Y0.3143 
G01 X-2.6565 Y0.3218 
G01 X-2.6581 Y0.3224 
G01 X-2.6702 Y0.3282 
G01 X-2.6815 Y0.3353 
G01 X-2.6919 Y0.3436 
G01 X-2.7014 Y0.3531 
G01 X-2.7097 Y0.3635 
G01 X-2.7168 Y0.3748 
G01 X-2.7226 Y0.3869 
G01 X-2.7270 Y0.3995 
G01 X-2.7300 Y0.4125 
G01 X-2.7315 Y0.4258 
G01 X-2.7315 Y0.5859 
G01 X-2.7300 Y0.6076 
G01 X-2.7270 Y0.6292 
G01 X-2.7226 Y0.6506 
G01 X-2.7167 Y0.6716 
G01 X-2.7094 Y0.6921 
G01 X-2.7007 Y0.7121 
G01 X-2.6907 Y0.7314 
G01 X-2.6794 Y0.7501 
G01 X-2.6668 Y0.7679 
G01 X-2.6531 Y0.7848 
G01 X-2.6382 Y0.8007 
G01 X-2.6223 Y0.8156 
G01 X-2.6054 Y0.8293 
G01 X-2.5876 Y0.8419 
G01 X-2.5689 Y0.8532 
G01 X-2.5496 Y0.8632 
G01 X-2.5296 Y0.8719 
G01 X-2.5091 Y0.8792 
G01 X-2.4881 Y0.8851 
G01 X-2.4667 Y0.8895 
G01 X-2.4534 Y0.8914 
G01 X-2.4533 Y0.8919 
G00 Z0.1000 
G00 X-2.4565 Y0.9715 
G01 Z-0.0020 F20.00 
G01 X-2.4565 Y0.9785 F20.00 
G01 X-2.4554 Y0.9853 
G01 X-2.4533 Y0.9919 
G01 X-2.4501 Y0.9981 
G01 X-2.4461 Y1.0037 
G01 X-2.4412 Y1.0086 
G01 X-2.4356 Y1.0126 
G01 X-2.4294 Y1.0158 
G01 X-2.4228 Y1.0179 
G01 X-2.4160 Y1.0190 
G01 X-2.4090 Y1.0190 
G01 X-2.4022 Y1.0179 
G01 X-2.3956 Y1.0158 
G01 X-2.3894 Y1.0126 
G01 X-2.3838 Y1.0086 
G01 X-2.3789 Y1.0037 
G01 X-2.3749 Y0.9981 
G01 X-2.3717 Y0.9919 
G01 X-2.3699 Y0.9862 
G01 X-2.3669 Y0.9851 
G01 X-2.3548 Y0.9793 
G01 X-2.3435 Y0.9722 
G01 X-2.3331 Y0.9639 
G01 X-2.3236 Y0.9544 
G01 X-2.3153 Y0.9440 
G01 X-2.3082 Y0.9327 
G01 X-2.3024 Y0.9206 
G01 X-2.2980 Y0.9080 
G01 X-2.2950 Y0.8950 
G01 X-2.2935 Y0.8817 
G01 X-2.2935 Y0.8683 
G01 X-2.2950 Y0.8550 
G01 X-2.2980 Y0.8420 
G01 X-2.3024 Y0.8294 
G01 X-2.3082 Y0.8173 
G01 X-2.3153 Y0.8060 
G01 X-2.3236 Y0.7956 
G01 X-2.3331 Y0.7861 
G01 X-2.3435 Y0.7778 
G01 X-2.3548 Y0.7707 
G01 X-2.3669 Y0.7649 
G01 X-2.3795 Y0.7605 
G01 X-2.3925 Y0.7575 
G01 X-2.4058 Y0.7560 
G01 X-2.4125 Y0.7560 
G01 X-2.4207 Y0.7558 
G01 X-2.4371 Y0.7545 
G01 X-2.4533 Y0.7520 
G01 X-2.4692 Y0.7481 
G01 X-2.4848 Y0.7430 
G01 X-2.5000 Y0.7366 
G01 X-2.5146 Y0.7291 
G01 X-2.5285 Y0.7205 
G01 X-2.5418 Y0.7108 
G01 X-2.5542 Y0.7000 
G01 X-2.5657 Y0.6884 
G01 X-2.5763 Y0.6758 
G01 X-2.5859 Y0.6625 
G01 X-2.5943 Y0.6484 
G01 X-2.6016 Y0.6337 
G01 X-2.6078 Y0.6185 
G01 X-2.6127 Y0.6028 
G01 X-2.6164 Y0.5868 
G01 X-2.6187 Y0.5706 
G01 X-2.6198 Y0.5542 
G01 X-2.6196 Y0.5378 
G01 X-2.6181 Y0.5214 
G01 X-2.6153 Y0.5052 
G01 X-2.6113 Y0.4893 
G01 X-2.6103 Y0.4865 
G01 X-2.5943 Y0.4865 
G01 X-2.5685 Y0.4607 
G01 X-2.5685 Y0.4243 
G01 X-2.5943 Y0.3985 
G01 X-2.6307 Y0.3985 
G01 X-2.6565 Y0.4243 
G01 X-2.6565 Y0.4607 
G01 X-2.6455 Y0.4717 
G01 X-2.6479 Y0.4784 
G01 X-2.6527 Y0.4973 
G01 X-2.6560 Y0.5164 
G01 X-2.6578 Y0.5358 
G01 X-2.6580 Y0.5552 
G01 X-2.6567 Y0.5746 
G01 X-2.6539 Y0.5938 
G01 X-2.6496 Y0.6128 
G01 X-2.6437 Y0.6313 
G01 X-2.6365 Y0.6494 
G01 X-2.6278 Y0.6668 
G01 X-2.6178 Y0.6834 
G01 X-2.6065 Y0.6992 
G01 X-2.5940 Y0.7141 
G01 X-2.5803 Y0.7279 
G01 X-2.5656 Y0.7406 
G01 X-2.5499 Y0.7522 
G01 X-2.5334 Y0.7624 
G01 X-2.5161 Y0.7713 
G01 X-2.4982 Y0.7788 
G01 X-2.4797 Y0.7848 
G01 X-2.4608 Y0.7894 
G01 X-2.4416 Y0.7925 
G01 X-2.4222 Y0.7940 
G01 X-2.4125 Y0.7940 
G01 X-2.4080 Y0.7941 
G01 X-2.3989 Y0.7951 
G01 X-2.3901 Y0.7972 
G01 X-2.3815 Y0.8002 
G01 X-2.3733 Y0.8041 
G01 X-2.3656 Y0.8089 
G01 X-2.3585 Y0.8146 
G01 X-2.3521 Y0.8210 
G01 X-2.3464 Y0.8281 
G01 X-2.3416 Y0.8358 
G01 X-2.3377 Y0.8440 
G01 X-2.3347 Y0.8526 
G01 X-2.3326 Y0.8614 
G01 X-2.3316 Y0.8705 
G01 X-2.3315 Y0.8750 
G01 X-2.3316 Y0.8795 
G01 X-2.3326 Y0.8886 
G01 X-2.3347 Y0.8974 
G01 X-2.3377 Y0.9060 
G01 X-2.3416 Y0.9142 
G01 X-2.3464 Y0.9219 
G01 X-2.3521 Y0.9290 
G01 X-2.3585 Y0.9354 
G01 X-2.3656 Y0.9411 
G01 X-2.3733 Y0.9459 
G01 X-2.3777 Y0.9480 
G01 X-2.3789 Y0.9463 
G01 X-2.3838 Y0.9414 
G01 X-2.3894 Y0.9374 
G01 X-2.3956 Y0.9342 
G01 X-2.4022 Y0.9321 
G01 X-2.4090 Y0.9310 
G01 X-2.4160 Y0.9310 
G01 X-2.4228 Y0.9321 
G01 X-2.4294 Y0.9342 
G01 X-2.4356 Y0.9374 
G01 X-2.4412 Y0.9414 
G01 X-2.4461 Y0.9463 
G01 X-2.4501 Y0.9519 
G01 X-2.4533 Y0.9581 
G01 X-2.4554 Y0.9647 
G01 X-2.4565 Y0.9715 
G00 Z0.1000 
G00 X-2.4565 Y1.0366 
G01 Z-0.0020 F20.00 
G01 X-2.4565 Y1.1134 F20.00 
G01 X-2.4554 Y1.1160 
G01 X-2.4535 Y1.1179 
G01 X-2.4509 Y1.1190 
G01 X-2.3741 Y1.1190 
G01 X-2.3715 Y1.1179 
G01 X-2.3696 Y1.1160 
G01 X-2.3685 Y1.1134 
G01 X-2.3685 Y1.0366 
G01 X-2.3696 Y1.0340 
G01 X-2.3715 Y1.0321 
G01 X-2.3741 Y1.0310 
G01 X-2.4509 Y1.0310 
G01 X-2.4535 Y1.0321 
G01 X-2.4554 Y1.0340 
G01 X-2.4565 Y1.0366 
G00 Z0.1000 
G00 X-2.1565 Y1.0715 
G01 Z-0.0020 F20.00 
G01 X-2.1565 Y1.0785 F20.00 
G01 X-2.1554 Y1.0853 
G01 X-2.1533 Y1.0919 
G01 X-2.1501 Y1.0981 
G01 X-2.1461 Y1.1037 
G01 X-2.1412 Y1.1086 
G01 X-2.1356 Y1.1126 
G01 X-2.1294 Y1.1158 
G01 X-2.1228 Y1.1179 
G01 X-2.1160 Y1.1190 
G01 X-2.1090 Y1.1190 
G01 X-2.1022 Y1.1179 
G01 X-2.0956 Y1.1158 
G01 X-2.0894 Y1.1126 
G01 X-2.0838 Y1.1086 
G01 X-2.0789 Y1.1037 
G01 X-2.0749 Y1.0981 
G01 X-2.0717 Y1.0919 
G01 X-2.0696 Y1.0853 
G01 X-2.0685 Y1.0785 
G01 X-2.0685 Y1.0715 
G01 X-2.0696 Y1.0647 
G01 X-2.0717 Y1.0581 
G01 X-2.0749 Y1.0519 
G01 X-2.0789 Y1.0463 
G01 X-2.0838 Y1.0414 
G01 X-2.0894 Y1.0374 
G01 X-2.0956 Y1.0342 
G01 X-2.1022 Y1.0321 
G01 X-2.1090 Y1.0310 
G01 X-2.1160 Y1.0310 
G01 X-2.1228 Y1.0321 
G01 X-2.1294 Y1.0342 
G01 X-2.1356 Y1.0374 
G01 X-2.1412 Y1.0414 
G01 X-2.1461 Y1.0463 
G01 X-2.1501 Y1.0519 
G01 X-2.1533 Y1.0581 
G01 X-2.1554 Y1.0647 
G01 X-2.1565 Y1.0715 
G00 Z0.1000 
G00 X-2.0565 Y1.0715 
G01 Z-0.0020 F20.00 
G01 X-2.0565 Y1.0785 F20.00 
G01 X-2.0554 Y1.0853 
G01 X-2.0533 Y1.0919 
G01 X-2.0501 Y1.0981 
G01 X-2.0461 Y1.1037 
G01 X-2.0412 Y1.1086 
G01 X-2.0356 Y1.1126 
G01 X-2.0294 Y1.1158 
G01 X-2.0228 Y1.1179 
G01 X-2.0160 Y1.1190 
G01 X-2.0090 Y1.1190 
G01 X-2.0022 Y1.1179 
G01 X-1.9956 Y1.1158 
G01 X-1.9894 Y1.1126 
G01 X-1.9838 Y1.1086 
G01 X-1.9789 Y1.1037 
G01 X-1.9749 Y1.0981 
G01 X-1.9717 Y1.0919 
G01 X-1.9696 Y1.0853 
G01 X-1.9685 Y1.0785 
G01 X-1.9685 Y1.0715 
G01 X-1.9696 Y1.0647 
G01 X-1.9717 Y1.0581 
G01 X-1.9749 Y1.0519 
G01 X-1.9789 Y1.0463 
G01 X-1.9838 Y1.0414 
G01 X-1.9894 Y1.0374 
G01 X-1.9956 Y1.0342 
G01 X-2.0022 Y1.0321 
G01 X-2.0090 Y1.0310 
G01 X-2.0160 Y1.0310 
G01 X-2.0228 Y1.0321 
G01 X-2.0294 Y1.0342 
G01 X-2.0356 Y1.0374 
G01 X-2.0412 Y1.0414 
G01 X-2.0461 Y1.0463 
G01 X-2.0501 Y1.0519 
G01 X-2.0533 Y1.0581 
G01 X-2.0554 Y1.0647 
G01 X-2.0565 Y1.0715 
G00 Z0.1000 
G00 X-1.9565 Y1.0715 
G01 Z-0.0020 F20.00 
G01 X-1.9565 Y1.0785 F20.00 
G01 X-1.9554 Y1.0853 
G01 X-1.9533 Y1.0919 
G01 X-1.9501 Y1.0981 
G01 X-1.9461 Y1.1037 
G01 X-1.9412 Y1.1086 
G01 X-1.9356 Y1.1126 
G01 X-1.9294 Y1.1158 
G01 X-1.9228 Y1.1179 
G01 X-1.9160 Y1.1190 
G01 X-1.9090 Y1.1190 
G01 X-1.9022 Y1.1179 
G01 X-1.8956 Y1.1158 
G01 X-1.8894 Y1.1126 
G01 X-1.8838 Y1.1086 
G01 X-1.8789 Y1.1037 
G01 X-1.8749 Y1.0981 
G01 X-1.8717 Y1.0919 
G01 X-1.8696 Y1.0853 
G01 X-1.8685 Y1.0785 
G01 X-1.8685 Y1.0715 
G01 X-1.8696 Y1.0647 
G01 X-1.8717 Y1.0581 
G01 X-1.8749 Y1.0519 
G01 X-1.8789 Y1.0463 
G01 X-1.8838 Y1.0414 
G01 X-1.8894 Y1.0374 
G01 X-1.8956 Y1.0342 
G01 X-1.9022 Y1.0321 
G01 X-1.9090 Y1.0310 
G01 X-1.9160 Y1.0310 
G01 X-1.9228 Y1.0321 
G01 X-1.9294 Y1.0342 
G01 X-1.9356 Y1.0374 
G01 X-1.9412 Y1.0414 
G01 X-1.9461 Y1.0463 
G01 X-1.9501 Y1.0519 
G01 X-1.9533 Y1.0581 
G01 X-1.9554 Y1.0647 
G01 X-1.9565 Y1.0715 
G00 Z0.1000 
G00 X-0.5565 Y1.2715 
G01 Z-0.0020 F20.00 
G01 X-0.5565 Y1.2785 F20.00 
G01 X-0.5554 Y1.2853 
G01 X-0.5533 Y1.2919 
G01 X-0.5501 Y1.2981 
G01 X-0.5461 Y1.3037 
G01 X-0.5412 Y1.3086 
G01 X-0.5356 Y1.3126 
G01 X-0.5294 Y1.3158 
G01 X-0.5228 Y1.3179 
G01 X-0.5160 Y1.3190 
G01 X-0.5090 Y1.3190 
G01 X-0.5022 Y1.3179 
G01 X-0.4956 Y1.3158 
G01 X-0.4894 Y1.3126 
G01 X-0.4838 Y1.3086 
G01 X-0.4789 Y1.3037 
G01 X-0.4749 Y1.2981 
G01 X-0.4717 Y1.2919 
G01 X-0.4696 Y1.2853 
G01 X-0.4685 Y1.2785 
G01 X-0.4685 Y1.2715 
G01 X-0.4696 Y1.2647 
G01 X-0.4717 Y1.2581 
G01 X-0.4749 Y1.2519 
G01 X-0.4789 Y1.2463 
G01 X-0.4838 Y1.2414 
G01 X-0.4894 Y1.2374 
G01 X-0.4956 Y1.2342 
G01 X-0.5022 Y1.2321 
G01 X-0.5090 Y1.2310 
G01 X-0.5160 Y1.2310 
G01 X-0.5228 Y1.2321 
G01 X-0.5294 Y1.2342 
G01 X-0.5356 Y1.2374 
G01 X-0.5412 Y1.2414 
G01 X-0.5461 Y1.2463 
G01 X-0.5501 Y1.2519 
G01 X-0.5533 Y1.2581 
G01 X-0.5554 Y1.2647 
G01 X-0.5565 Y1.2715 
G00 Z0.1000 
G00 X-0.7565 Y1.2715 
G01 Z-0.0020 F20.00 
G01 X-0.7565 Y1.2785 F20.00 
G01 X-0.7554 Y1.2853 
G01 X-0.7533 Y1.2919 
G01 X-0.7501 Y1.2981 
G01 X-0.7461 Y1.3037 
G01 X-0.7412 Y1.3086 
G01 X-0.7356 Y1.3126 
G01 X-0.7315 Y1.3147 
G01 X-0.7315 Y1.4768 
G01 X-0.7565 Y1.5018 
G01 X-0.7565 Y1.5382 
G01 X-0.7307 Y1.5640 
G01 X-0.6943 Y1.5640 
G01 X-0.6685 Y1.5382 
G01 X-0.6685 Y1.5018 
G01 X-0.6935 Y1.4768 
G01 X-0.6935 Y1.3147 
G01 X-0.6894 Y1.3126 
G01 X-0.6838 Y1.3086 
G01 X-0.6789 Y1.3037 
G01 X-0.6749 Y1.2981 
G01 X-0.6717 Y1.2919 
G01 X-0.6696 Y1.2853 
G01 X-0.6685 Y1.2785 
G01 X-0.6685 Y1.2715 
G01 X-0.6696 Y1.2647 
G01 X-0.6717 Y1.2581 
G01 X-0.6749 Y1.2519 
G01 X-0.6789 Y1.2463 
G01 X-0.6838 Y1.2414 
G01 X-0.6894 Y1.2374 
G01 X-0.6956 Y1.2342 
G01 X-0.7022 Y1.2321 
G01 X-0.7090 Y1.2310 
G01 X-0.7160 Y1.2310 
G01 X-0.7228 Y1.2321 
G01 X-0.7294 Y1.2342 
G01 X-0.7356 Y1.2374 
G01 X-0.7412 Y1.2414 
G01 X-0.7461 Y1.2463 
G01 X-0.7501 Y1.2519 
G01 X-0.7533 Y1.2581 
G01 X-0.7554 Y1.2647 
G01 X-0.7565 Y1.2715 
G00 Z0.1000 
G00 X-0.9565 Y1.2715 
G01 Z-0.0020 F20.00 
G01 X-0.9565 Y1.2785 F20.00 
G01 X-0.9554 Y1.2853 
G01 X-0.9533 Y1.2919 
G01 X-0.9501 Y1.2981 
G01 X-0.9461 Y1.3037 
G01 X-0.9412 Y1.3086 
G01 X-0.9356 Y1.3126 
G01 X-0.9315 Y1.3147 
G01 X-0.9315 Y1.4768 
G01 X-0.9565 Y1.5018 
G01 X-0.9565 Y1.5382 
G01 X-0.9307 Y1.5640 
G01 X-0.8943 Y1.5640 
G01 X-0.8685 Y1.5382 
G01 X-0.8685 Y1.5018 
G01 X-0.8935 Y1.4768 
G01 X-0.8935 Y1.3147 
G01 X-0.8894 Y1.3126 
G01 X-0.8838 Y1.3086 
G01 X-0.8789 Y1.3037 
G01 X-0.8749 Y1.2981 
G01 X-0.8717 Y1.2919 
G01 X-0.8696 Y1.2853 
G01 X-0.8685 Y1.2785 
G01 X-0.8685 Y1.2715 
G01 X-0.8696 Y1.2647 
G01 X-0.8717 Y1.2581 
G01 X-0.8749 Y1.2519 
G01 X-0.8789 Y1.2463 
G01 X-0.8838 Y1.2414 
G01 X-0.8894 Y1.2374 
G01 X-0.8956 Y1.2342 
G01 X-0.9022 Y1.2321 
G01 X-0.9090 Y1.2310 
G01 X-0.9160 Y1.2310 
G01 X-0.9228 Y1.2321 
G01 X-0.9294 Y1.2342 
G01 X-0.9356 Y1.2374 
G01 X-0.9412 Y1.2414 
G01 X-0.9461 Y1.2463 
G01 X-0.9501 Y1.2519 
G01 X-0.9533 Y1.2581 
G01 X-0.9554 Y1.2647 
G01 X-0.9565 Y1.2715 
G00 Z0.1000 
G00 X-1.1565 Y1.2715 
G01 Z-0.0020 F20.00 
G01 X-1.1565 Y1.2785 F20.00 
G01 X-1.1554 Y1.2853 
G01 X-1.1533 Y1.2919 
G01 X-1.1501 Y1.2981 
G01 X-1.1461 Y1.3037 
G01 X-1.1412 Y1.3086 
G01 X-1.1356 Y1.3126 
G01 X-1.1315 Y1.3147 
G01 X-1.1315 Y1.5341 
G01 X-1.1301 Y1.5522 
G01 X-1.1272 Y1.5702 
G01 X-1.1230 Y1.5879 
G01 X-1.1174 Y1.6052 
G01 X-1.1104 Y1.6220 
G01 X-1.1021 Y1.6382 
G01 X-1.0926 Y1.6537 
G01 X-1.0819 Y1.6684 
G01 X-1.0701 Y1.6823 
G01 X-1.0573 Y1.6951 
G01 X-1.0434 Y1.7069 
G01 X-1.0287 Y1.7176 
G01 X-1.0132 Y1.7271 
G01 X-0.9970 Y1.7354 
G01 X-0.9802 Y1.7424 
G01 X-0.9629 Y1.7480 
G01 X-0.9452 Y1.7522 
G01 X-0.9272 Y1.7551 
G01 X-0.9091 Y1.7565 
G01 X-0.8936 Y1.7565 
G01 X-0.8808 Y1.7550 
G01 X-0.8683 Y1.7520 
G01 X-0.8563 Y1.7475 
G01 X-0.8449 Y1.7417 
G01 X-0.8342 Y1.7345 
G01 X-0.8245 Y1.7261 
G01 X-0.8158 Y1.7167 
G01 X-0.8083 Y1.7062 
G01 X-0.8021 Y1.6950 
G01 X-0.7972 Y1.6831 
G01 X-0.7947 Y1.6740 
G01 X-0.7943 Y1.6740 
G01 X-0.7685 Y1.6482 
G01 X-0.7685 Y1.6118 
G01 X-0.7943 Y1.5860 
G01 X-0.8307 Y1.5860 
G01 X-0.8565 Y1.6118 
G01 X-0.8565 Y1.6482 
G01 X-0.8335 Y1.6712 
G01 X-0.8365 Y1.6785 
G01 X-0.8406 Y1.6858 
G01 X-0.8454 Y1.6926 
G01 X-0.8511 Y1.6987 
G01 X-0.8574 Y1.7041 
G01 X-0.8643 Y1.7088 
G01 X-0.8717 Y1.7125 
G01 X-0.8795 Y1.7154 
G01 X-0.8876 Y1.7174 
G01 X-0.8958 Y1.7184 
G01 X-0.9000 Y1.7185 
G01 X-0.9076 Y1.7184 
G01 X-0.9227 Y1.7172 
G01 X-0.9377 Y1.7148 
G01 X-0.9525 Y1.7112 
G01 X-0.9670 Y1.7065 
G01 X-0.9810 Y1.7007 
G01 X-0.9945 Y1.6938 
G01 X-1.0075 Y1.6859 
G01 X-1.0198 Y1.6770 
G01 X-1.0313 Y1.6671 
G01 X-1.0421 Y1.6563 
G01 X-1.0520 Y1.6448 
G01 X-1.0609 Y1.6325 
G01 X-1.0688 Y1.6195 
G01 X-1.0757 Y1.6060 
G01 X-1.0815 Y1.5920 
G01 X-1.0862 Y1.5775 
G01 X-1.0898 Y1.5627 
G01 X-1.0922 Y1.5477 
G01 X-1.0934 Y1.5326 
G01 X-1.0935 Y1.5250 
G01 X-1.0935 Y1.3147 
G01 X-1.0894 Y1.3126 
G01 X-1.0838 Y1.3086 
G01 X-1.0789 Y1.3037 
G01 X-1.0749 Y1.2981 
G01 X-1.0717 Y1.2919 
G01 X-1.0696 Y1.2853 
G01 X-1.0685 Y1.2785 
G01 X-1.0685 Y1.2715 
G01 X-1.0696 Y1.2647 
G01 X-1.0717 Y1.2581 
G01 X-1.0749 Y1.2519 
G01 X-1.0789 Y1.2463 
G01 X-1.0838 Y1.2414 
G01 X-1.0894 Y1.2374 
G01 X-1.0956 Y1.2342 
G01 X-1.1022 Y1.2321 
G01 X-1.1090 Y1.2310 
G01 X-1.1160 Y1.2310 
G01 X-1.1228 Y1.2321 
G01 X-1.1294 Y1.2342 
G01 X-1.1356 Y1.2374 
G01 X-1.1412 Y1.2414 
G01 X-1.1461 Y1.2463 
G01 X-1.1501 Y1.2519 
G01 X-1.1533 Y1.2581 
G01 X-1.1554 Y1.2647 
G01 X-1.1565 Y1.2715 
G00 Z0.1000 
G00 X-1.4565 Y1.2715 
G01 Z-0.0020 F20.00 
G01 X-1.4565 Y1.2785 F20.00 
G01 X-1.4554 Y1.2853 
G01 X-1.4533 Y1.2919 
G01 X-1.4501 Y1.2981 
G01 X-1.4461 Y1.3037 
G01 X-1.4412 Y1.3086 
G01 X-1.4356 Y1.3126 
G01 X-1.4294 Y1.3158 
G01 X-1.4228 Y1.3179 
G01 X-1.4160 Y1.3190 
G01 X-1.4090 Y1.3190 
G01 X-1.4022 Y1.3179 
G01 X-1.3956 Y1.3158 
G01 X-1.3894 Y1.3126 
G01 X-1.3838 Y1.3086 
G01 X-1.3789 Y1.3037 
G01 X-1.3749 Y1.2981 
G01 X-1.3717 Y1.2919 
G01 X-1.3696 Y1.2853 
G01 X-1.3685 Y1.2785 
G01 X-1.3685 Y1.2715 
G01 X-1.3696 Y1.2647 
G01 X-1.3717 Y1.2581 
G01 X-1.3749 Y1.2519 
G01 X-1.3789 Y1.2463 
G01 X-1.3838 Y1.2414 
G01 X-1.3894 Y1.2374 
G01 X-1.3956 Y1.2342 
G01 X-1.4022 Y1.2321 
G01 X-1.4090 Y1.2310 
G01 X-1.4160 Y1.2310 
G01 X-1.4228 Y1.2321 
G01 X-1.4294 Y1.2342 
G01 X-1.4356 Y1.2374 
G01 X-1.4412 Y1.2414 
G01 X-1.4461 Y1.2463 
G01 X-1.4501 Y1.2519 
G01 X-1.4533 Y1.2581 
G01 X-1.4554 Y1.2647 
G01 X-1.4565 Y1.2715 
G00 Z0.1000 
G00 X-1.5565 Y1.2715 
G01 Z-0.0020 F20.00 
G01 X-1.5565 Y1.2785 F20.00 
G01 X-1.5554 Y1.2853 
G01 X-1.5533 Y1.2919 
G01 X-1.5501 Y1.2981 
G01 X-1.5461 Y1.3037 
G01 X-1.5412 Y1.3086 
G01 X-1.5356 Y1.3126 
G01 X-1.5315 Y1.3147 
G01 X-1.5315 Y1.4200 
G01 X-1.5316 Y1.4245 
G01 X-1.5326 Y1.4336 
G01 X-1.5347 Y1.4424 
G01 X-1.5377 Y1.4510 
G01 X-1.5416 Y1.4592 
G01 X-1.5464 Y1.4669 
G01 X-1.5521 Y1.4740 
G01 X-1.5585 Y1.4804 
G01 X-1.5656 Y1.4861 
G01 X-1.5733 Y1.4909 
G01 X-1.5774 Y1.4929 
G01 X-1.5943 Y1.4760 
G01 X-1.6307 Y1.4760 
G01 X-1.6565 Y1.5018 
G01 X-1.6565 Y1.5382 
G01 X-1.6307 Y1.5640 
G01 X-1.5943 Y1.5640 
G01 X-1.5685 Y1.5382 
G01 X-1.5685 Y1.5307 
G01 X-1.5669 Y1.5301 
G01 X-1.5548 Y1.5243 
G01 X-1.5435 Y1.5172 
G01 X-1.5331 Y1.5089 
G01 X-1.5236 Y1.4994 
G01 X-1.5153 Y1.4890 
G01 X-1.5082 Y1.4777 
G01 X-1.5024 Y1.4656 
G01 X-1.4980 Y1.4530 
G01 X-1.4950 Y1.4400 
G01 X-1.4935 Y1.4267 
G01 X-1.4935 Y1.3147 
G01 X-1.4894 Y1.3126 
G01 X-1.4838 Y1.3086 
G01 X-1.4789 Y1.3037 
G01 X-1.4749 Y1.2981 
G01 X-1.4717 Y1.2919 
G01 X-1.4696 Y1.2853 
G01 X-1.4685 Y1.2785 
G01 X-1.4685 Y1.2715 
G01 X-1.4696 Y1.2647 
G01 X-1.4717 Y1.2581 
G01 X-1.4749 Y1.2519 
G01 X-1.4789 Y1.2463 
G01 X-1.4838 Y1.2414 
G01 X-1.4844 Y1.2410 
G01 X-1.4809 Y1.2354 
G01 X-1.4761 Y1.2294 
G01 X-1.4706 Y1.2239 
G01 X-1.4646 Y1.2191 
G01 X-1.4581 Y1.2150 
G01 X-1.4512 Y1.2117 
G01 X-1.4440 Y1.2092 
G01 X-1.4365 Y1.2075 
G01 X-1.4288 Y1.2066 
G01 X-1.4250 Y1.2065 
G01 X-0.4875 Y1.2065 
G01 X-0.4809 Y1.2066 
G01 X-0.4678 Y1.2078 
G01 X-0.4548 Y1.2101 
G01 X-0.4421 Y1.2136 
G01 X-0.4297 Y1.2182 
G01 X-0.4178 Y1.2239 
G01 X-0.4065 Y1.2306 
G01 X-0.3958 Y1.2383 
G01 X-0.3858 Y1.2469 
G01 X-0.3766 Y1.2563 
G01 X-0.3683 Y1.2666 
G01 X-0.3610 Y1.2775 
G01 X-0.3546 Y1.2891 
G01 X-0.3493 Y1.3011 
G01 X-0.3451 Y1.3136 
G01 X-0.3420 Y1.3264 
G01 X-0.3401 Y1.3395 
G01 X-0.3393 Y1.3526 
G01 X-0.3397 Y1.3658 
G01 X-0.3413 Y1.3789 
G01 X-0.3440 Y1.3918 
G01 X-0.3479 Y1.4044 
G01 X-0.3529 Y1.4166 
G01 X-0.3589 Y1.4283 
G01 X-0.3659 Y1.4394 
G01 X-0.3739 Y1.4499 
G01 X-0.3829 Y1.4596 
G01 X-0.3926 Y1.4685 
G01 X-0.4031 Y1.4765 
G01 X-0.4142 Y1.4835 
G01 X-0.4260 Y1.4895 
G01 X-0.4382 Y1.4944 
G01 X-0.4508 Y1.4983 
G01 X-0.4637 Y1.5010 
G01 X-0.4687 Y1.5015 
G01 X-0.4943 Y1.4760 
G01 X-0.5307 Y1.4760 
G01 X-0.5565 Y1.5018 
G01 X-0.5565 Y1.5382 
G01 X-0.5307 Y1.5640 
G01 X-0.4943 Y1.5640 
G01 X-0.4704 Y1.5402 
G01 X-0.4576 Y1.5386 
G01 X-0.4413 Y1.5353 
G01 X-0.4255 Y1.5304 
G01 X-0.4101 Y1.5242 
G01 X-0.3954 Y1.5167 
G01 X-0.3813 Y1.5079 
G01 X-0.3681 Y1.4978 
G01 X-0.3559 Y1.4867 
G01 X-0.3447 Y1.4744 
G01 X-0.3346 Y1.4613 
G01 X-0.3257 Y1.4473 
G01 X-0.3182 Y1.4325 
G01 X-0.3119 Y1.4172 
G01 X-0.3071 Y1.4013 
G01 X-0.3036 Y1.3851 
G01 X-0.3017 Y1.3687 
G01 X-0.3011 Y1.3521 
G01 X-0.3021 Y1.3355 
G01 X-0.3045 Y1.3192 
G01 X-0.3084 Y1.3030 
G01 X-0.3137 Y1.2873 
G01 X-0.3204 Y1.2722 
G01 X-0.3284 Y1.2576 
G01 X-0.3376 Y1.2439 
G01 X-0.3481 Y1.2310 
G01 X-0.3596 Y1.2191 
G01 X-0.3722 Y1.2083 
G01 X-0.3856 Y1.1986 
G01 X-0.3999 Y1.1902 
G01 X-0.4149 Y1.1831 
G01 X-0.4304 Y1.1773 
G01 X-0.4464 Y1.1729 
G01 X-0.4627 Y1.1700 
G01 X-0.4792 Y1.1685 
G01 X-1.4310 Y1.1685 
G01 X-1.4429 Y1.1698 
G01 X-1.4545 Y1.1725 
G01 X-1.4658 Y1.1765 
G01 X-1.4766 Y1.1816 
G01 X-1.4867 Y1.1880 
G01 X-1.4961 Y1.1955 
G01 X-1.5045 Y1.2039 
G01 X-1.5120 Y1.2133 
G01 X-1.5184 Y1.2234 
G01 X-1.5225 Y1.2320 
G01 X-1.5228 Y1.2321 
G01 X-1.5294 Y1.2342 
G01 X-1.5356 Y1.2374 
G01 X-1.5412 Y1.2414 
G01 X-1.5461 Y1.2463 
G01 X-1.5501 Y1.2519 
G01 X-1.5533 Y1.2581 
G01 X-1.5554 Y1.2647 
G01 X-1.5565 Y1.2715 
G00 Z0.1000 
G00 X-1.6565 Y1.2715 
G01 Z-0.0020 F20.00 
G01 X-1.6565 Y1.2785 F20.00 
G01 X-1.6554 Y1.2853 
G01 X-1.6533 Y1.2919 
G01 X-1.6501 Y1.2981 
G01 X-1.6461 Y1.3037 
G01 X-1.6412 Y1.3086 
G01 X-1.6356 Y1.3126 
G01 X-1.6294 Y1.3158 
G01 X-1.6228 Y1.3179 
G01 X-1.6160 Y1.3190 
G01 X-1.6090 Y1.3190 
G01 X-1.6022 Y1.3179 
G01 X-1.5956 Y1.3158 
G01 X-1.5894 Y1.3126 
G01 X-1.5838 Y1.3086 
G01 X-1.5789 Y1.3037 
G01 X-1.5749 Y1.2981 
G01 X-1.5717 Y1.2919 
G01 X-1.5696 Y1.2853 
G01 X-1.5685 Y1.2785 
G01 X-1.5685 Y1.2715 
G01 X-1.5696 Y1.2647 
G01 X-1.5717 Y1.2581 
G01 X-1.5749 Y1.2519 
G01 X-1.5789 Y1.2463 
G01 X-1.5838 Y1.2414 
G01 X-1.5894 Y1.2374 
G01 X-1.5956 Y1.2342 
G01 X-1.6022 Y1.2321 
G01 X-1.6090 Y1.2310 
G01 X-1.6160 Y1.2310 
G01 X-1.6228 Y1.2321 
G01 X-1.6294 Y1.2342 
G01 X-1.6356 Y1.2374 
G01 X-1.6412 Y1.2414 
G01 X-1.6461 Y1.2463 
G01 X-1.6501 Y1.2519 
G01 X-1.6533 Y1.2581 
G01 X-1.6554 Y1.2647 
G01 X-1.6565 Y1.2715 
G00 Z0.1000 
G00 X-1.8565 Y1.2715 
G01 Z-0.0020 F20.00 
G01 X-1.8565 Y1.2785 F20.00 
G01 X-1.8554 Y1.2853 
G01 X-1.8533 Y1.2919 
G01 X-1.8501 Y1.2981 
G01 X-1.8461 Y1.3037 
G01 X-1.8412 Y1.3086 
G01 X-1.8356 Y1.3126 
G01 X-1.8315 Y1.3147 
G01 X-1.8315 Y1.4768 
G01 X-1.8565 Y1.5018 
G01 X-1.8565 Y1.5382 
G01 X-1.8307 Y1.5640 
G01 X-1.7943 Y1.5640 
G01 X-1.7685 Y1.5382 
G01 X-1.7685 Y1.5018 
G01 X-1.7935 Y1.4768 
G01 X-1.7935 Y1.3147 
G01 X-1.7894 Y1.3126 
G01 X-1.7838 Y1.3086 
G01 X-1.7789 Y1.3037 
G01 X-1.7749 Y1.2981 
G01 X-1.7717 Y1.2919 
G01 X-1.7696 Y1.2853 
G01 X-1.7685 Y1.2785 
G01 X-1.7685 Y1.2715 
G01 X-1.7696 Y1.2647 
G01 X-1.7717 Y1.2581 
G01 X-1.7749 Y1.2519 
G01 X-1.7789 Y1.2463 
G01 X-1.7838 Y1.2414 
G01 X-1.7894 Y1.2374 
G01 X-1.7956 Y1.2342 
G01 X-1.8022 Y1.2321 
G01 X-1.8090 Y1.2310 
G01 X-1.8160 Y1.2310 
G01 X-1.8228 Y1.2321 
G01 X-1.8294 Y1.2342 
G01 X-1.8356 Y1.2374 
G01 X-1.8412 Y1.2414 
G01 X-1.8461 Y1.2463 
G01 X-1.8501 Y1.2519 
G01 X-1.8533 Y1.2581 
G01 X-1.8554 Y1.2647 
G01 X-1.8565 Y1.2715 
G00 Z0.1000 
G00 X-2.0565 Y1.2715 
G01 Z-0.0020 F20.00 
G01 X-2.0565 Y1.2785 F20.00 
G01 X-2.0554 Y1.2853 
G01 X-2.0533 Y1.2919 
G01 X-2.0501 Y1.2981 
G01 X-2.0461 Y1.3037 
G01 X-2.0412 Y1.3086 
G01 X-2.0356 Y1.3126 
G01 X-2.0315 Y1.3147 
G01 X-2.0315 Y1.4768 
G01 X-2.0565 Y1.5018 
G01 X-2.0565 Y1.5382 
G01 X-2.0307 Y1.5640 
G01 X-1.9943 Y1.5640 
G01 X-1.9685 Y1.5382 
G01 X-1.9685 Y1.5018 
G01 X-1.9935 Y1.4768 
G01 X-1.9935 Y1.3147 
G01 X-1.9894 Y1.3126 
G01 X-1.9838 Y1.3086 
G01 X-1.9789 Y1.3037 
G01 X-1.9749 Y1.2981 
G01 X-1.9717 Y1.2919 
G01 X-1.9696 Y1.2853 
G01 X-1.9685 Y1.2785 
G01 X-1.9685 Y1.2715 
G01 X-1.9696 Y1.2647 
G01 X-1.9717 Y1.2581 
G01 X-1.9749 Y1.2519 
G01 X-1.9789 Y1.2463 
G01 X-1.9838 Y1.2414 
G01 X-1.9894 Y1.2374 
G01 X-1.9956 Y1.2342 
G01 X-2.0022 Y1.2321 
G01 X-2.0090 Y1.2310 
G01 X-2.0160 Y1.2310 
G01 X-2.0228 Y1.2321 
G01 X-2.0294 Y1.2342 
G01 X-2.0356 Y1.2374 
G01 X-2.0412 Y1.2414 
G01 X-2.0461 Y1.2463 
G01 X-2.0501 Y1.2519 
G01 X-2.0533 Y1.2581 
G01 X-2.0554 Y1.2647 
G01 X-2.0565 Y1.2715 
G00 Z0.1000 
G00 X-2.4565 Y1.2715 
G01 Z-0.0020 F20.00 
G01 X-2.4565 Y1.2785 F20.00 
G01 X-2.4554 Y1.2853 
G01 X-2.4533 Y1.2919 
G01 X-2.4501 Y1.2981 
G01 X-2.4461 Y1.3037 
G01 X-2.4412 Y1.3086 
G01 X-2.4356 Y1.3126 
G01 X-2.4315 Y1.3147 
G01 X-2.4315 Y1.4877 
G01 X-2.4300 Y1.5129 
G01 X-2.4269 Y1.5381 
G01 X-2.4224 Y1.5630 
G01 X-2.4163 Y1.5876 
G01 X-2.4088 Y1.6117 
G01 X-2.3998 Y1.6354 
G01 X-2.3894 Y1.6585 
G01 X-2.3776 Y1.6809 
G01 X-2.3645 Y1.7026 
G01 X-2.3501 Y1.7234 
G01 X-2.3345 Y1.7434 
G01 X-2.3177 Y1.7623 
G01 X-2.2998 Y1.7802 
G01 X-2.2809 Y1.7970 
G01 X-2.2609 Y1.8126 
G01 X-2.2401 Y1.8270 
G01 X-2.2184 Y1.8401 
G01 X-2.1960 Y1.8519 
G01 X-2.1729 Y1.8623 
G01 X-2.1492 Y1.8713 
G01 X-2.1251 Y1.8788 
G01 X-2.1005 Y1.8849 
G01 X-2.0756 Y1.8894 
G01 X-2.0504 Y1.8925 
G01 X-2.0252 Y1.8940 
G01 X-1.9476 Y1.8940 
G01 X-1.9279 Y1.8925 
G01 X-1.9084 Y1.8896 
G01 X-1.8891 Y1.8852 
G01 X-1.8702 Y1.8794 
G01 X-1.8519 Y1.8721 
G01 X-1.8341 Y1.8636 
G01 X-1.8169 Y1.8537 
G01 X-1.8006 Y1.8426 
G01 X-1.7852 Y1.8302 
G01 X-1.7707 Y1.8168 
G01 X-1.7573 Y1.8023 
G01 X-1.7449 Y1.7869 
G01 X-1.7338 Y1.7706 
G01 X-1.7239 Y1.7534 
G01 X-1.7154 Y1.7356 
G01 X-1.7081 Y1.7173 
G01 X-1.7023 Y1.6984 
G01 X-1.6979 Y1.6791 
G01 X-1.6971 Y1.6740 
G01 X-1.6943 Y1.6740 
G01 X-1.6685 Y1.6482 
G01 X-1.6685 Y1.6118 
G01 X-1.6943 Y1.5860 
G01 X-1.7307 Y1.5860 
G01 X-1.7565 Y1.6118 
G01 X-1.7565 Y1.6482 
G01 X-1.7351 Y1.6696 
G01 X-1.7354 Y1.6720 
G01 X-1.7392 Y1.6885 
G01 X-1.7442 Y1.7046 
G01 X-1.7504 Y1.7204 
G01 X-1.7577 Y1.7356 
G01 X-1.7661 Y1.7502 
G01 X-1.7757 Y1.7642 
G01 X-1.7862 Y1.7774 
G01 X-1.7977 Y1.7898 
G01 X-1.8101 Y1.8013 
G01 X-1.8233 Y1.8118 
G01 X-1.8373 Y1.8214 
G01 X-1.8519 Y1.8298 
G01 X-1.8671 Y1.8371 
G01 X-1.8829 Y1.8433 
G01 X-1.8990 Y1.8483 
G01 X-1.9155 Y1.8521 
G01 X-1.9322 Y1.8546 
G01 X-1.9490 Y1.8558 
G01 X-1.9575 Y1.8560 
G01 X-2.0125 Y1.8560 
G01 X-2.0240 Y1.8558 
G01 X-2.0470 Y1.8544 
G01 X-2.0698 Y1.8517 
G01 X-2.0925 Y1.8475 
G01 X-2.1148 Y1.8420 
G01 X-2.1368 Y1.8352 
G01 X-2.1583 Y1.8270 
G01 X-2.1793 Y1.8176 
G01 X-2.1997 Y1.8069 
G01 X-2.2194 Y1.7950 
G01 X-2.2383 Y1.7819 
G01 X-2.2564 Y1.7677 
G01 X-2.2736 Y1.7524 
G01 X-2.2899 Y1.7361 
G01 X-2.3052 Y1.7189 
G01 X-2.3194 Y1.7008 
G01 X-2.3325 Y1.6819 
G01 X-2.3444 Y1.6622 
G01 X-2.3551 Y1.6418 
G01 X-2.3645 Y1.6208 
G01 X-2.3727 Y1.5993 
G01 X-2.3795 Y1.5773 
G01 X-2.3850 Y1.5550 
G01 X-2.3892 Y1.5323 
G01 X-2.3919 Y1.5095 
G01 X-2.3933 Y1.4865 
G01 X-2.3935 Y1.4750 
G01 X-2.3935 Y1.3147 
G01 X-2.3894 Y1.3126 
G01 X-2.3838 Y1.3086 
G01 X-2.3789 Y1.3037 
G01 X-2.3749 Y1.2981 
G01 X-2.3717 Y1.2919 
G01 X-2.3696 Y1.2853 
G01 X-2.3685 Y1.2785 
G01 X-2.3685 Y1.2715 
G01 X-2.3696 Y1.2647 
G01 X-2.3717 Y1.2581 
G01 X-2.3749 Y1.2519 
G01 X-2.3789 Y1.2463 
G01 X-2.3838 Y1.2414 
G01 X-2.3894 Y1.2374 
G01 X-2.3956 Y1.2342 
G01 X-2.4022 Y1.2321 
G01 X-2.4090 Y1.2310 
G01 X-2.4160 Y1.2310 
G01 X-2.4228 Y1.2321 
G01 X-2.4294 Y1.2342 
G01 X-2.4356 Y1.2374 
G01 X-2.4412 Y1.2414 
G01 X-2.4461 Y1.2463 
G01 X-2.4501 Y1.2519 
G01 X-2.4533 Y1.2581 
G01 X-2.4554 Y1.2647 
G01 X-2.4565 Y1.2715 
G00 Z0.1000 
G00 X-2.4565 Y0.6715 
G01 Z-0.0020 F20.00 
G01 X-2.4565 Y0.6785 F20.00 
G01 X-2.4554 Y0.6853 
G01 X-2.4533 Y0.6919 
G01 X-2.4501 Y0.6981 
G01 X-2.4461 Y0.7037 
G01 X-2.4412 Y0.7086 
G01 X-2.4356 Y0.7126 
G01 X-2.4294 Y0.7158 
G01 X-2.4228 Y0.7179 
G01 X-2.4160 Y0.7190 
G01 X-2.4090 Y0.7190 
G01 X-2.4022 Y0.7179 
G01 X-2.3956 Y0.7158 
G01 X-2.3894 Y0.7126 
G01 X-2.3838 Y0.7086 
G01 X-2.3789 Y0.7037 
G01 X-2.3749 Y0.6981 
G01 X-2.3717 Y0.6919 
G01 X-2.3696 Y0.6853 
G01 X-2.3685 Y0.6785 
G01 X-2.3685 Y0.6715 
G01 X-2.3696 Y0.6647 
G01 X-2.3717 Y0.6581 
G01 X-2.3749 Y0.6519 
G01 X-2.3789 Y0.6463 
G01 X-2.3838 Y0.6414 
G01 X-2.3894 Y0.6374 
G01 X-2.3956 Y0.6342 
G01 X-2.4022 Y0.6321 
G01 X-2.4090 Y0.6310 
G01 X-2.4107 Y0.6310 
G01 X-2.4793 Y0.4715 
G01 X-2.4685 Y0.4607 
G01 X-2.4685 Y0.4243 
G01 X-2.4943 Y0.3985 
G01 X-2.5307 Y0.3985 
G01 X-2.5565 Y0.4243 
G01 X-2.5565 Y0.4607 
G01 X-2.5307 Y0.4865 
G01 X-2.5143 Y0.4865 
G01 X-2.4457 Y0.6460 
G01 X-2.4461 Y0.6463 
G01 X-2.4501 Y0.6519 
G01 X-2.4533 Y0.6581 
G01 X-2.4554 Y0.6647 
G01 X-2.4565 Y0.6715 
G00 Z0.1000 
G00 X-2.2565 Y0.6715 
G01 Z-0.0020 F20.00 
G01 X-2.2565 Y0.6785 F20.00 
G01 X-2.2554 Y0.6853 
G01 X-2.2533 Y0.6919 
G01 X-2.2501 Y0.6981 
G01 X-2.2461 Y0.7037 
G01 X-2.2412 Y0.7086 
G01 X-2.2356 Y0.7126 
G01 X-2.2294 Y0.7158 
G01 X-2.2228 Y0.7179 
G01 X-2.2160 Y0.7190 
G01 X-2.2090 Y0.7190 
G01 X-2.2022 Y0.7179 
G01 X-2.1956 Y0.7158 
G01 X-2.1894 Y0.7126 
G01 X-2.1838 Y0.7086 
G01 X-2.1789 Y0.7037 
G01 X-2.1749 Y0.6981 
G01 X-2.1717 Y0.6919 
G01 X-2.1696 Y0.6853 
G01 X-2.1685 Y0.6785 
G01 X-2.1685 Y0.6715 
G01 X-2.1696 Y0.6647 
G01 X-2.1717 Y0.6581 
G01 X-2.1749 Y0.6519 
G01 X-2.1789 Y0.6463 
G01 X-2.1838 Y0.6414 
G01 X-2.1894 Y0.6374 
G01 X-2.1956 Y0.6342 
G01 X-2.2022 Y0.6321 
G01 X-2.2090 Y0.6310 
G01 X-2.2107 Y0.6310 
G01 X-2.2793 Y0.4715 
G01 X-2.2685 Y0.4607 
G01 X-2.2685 Y0.4243 
G01 X-2.2943 Y0.3985 
G01 X-2.3307 Y0.3985 
G01 X-2.3565 Y0.4243 
G01 X-2.3565 Y0.4607 
G01 X-2.3307 Y0.4865 
G01 X-2.3143 Y0.4865 
G01 X-2.2457 Y0.6460 
G01 X-2.2461 Y0.6463 
G01 X-2.2501 Y0.6519 
G01 X-2.2533 Y0.6581 
G01 X-2.2554 Y0.6647 
G01 X-2.2565 Y0.6715 
G00 Z0.1000 
G00 X-2.0565 Y0.6715 
G01 Z-0.0020 F20.00 
G01 X-2.0565 Y0.6785 F20.00 
G01 X-2.0554 Y0.6853 
G01 X-2.0533 Y0.6919 
G01 X-2.0501 Y0.6981 
G01 X-2.0461 Y0.7037 
G01 X-2.0412 Y0.7086 
G01 X-2.0356 Y0.7126 
G01 X-2.0294 Y0.7158 
G01 X-2.0228 Y0.7179 
G01 X-2.0160 Y0.7190 
G01 X-2.0090 Y0.7190 
G01 X-2.0022 Y0.7179 
G01 X-1.9956 Y0.7158 
G01 X-1.9894 Y0.7126 
G01 X-1.9838 Y0.7086 
G01 X-1.9789 Y0.7037 
G01 X-1.9749 Y0.6981 
G01 X-1.9717 Y0.6919 
G01 X-1.9696 Y0.6853 
G01 X-1.9685 Y0.6785 
G01 X-1.9685 Y0.6715 
G01 X-1.9696 Y0.6647 
G01 X-1.9717 Y0.6581 
G01 X-1.9749 Y0.6519 
G01 X-1.9789 Y0.6463 
G01 X-1.9838 Y0.6414 
G01 X-1.9894 Y0.6374 
G01 X-1.9956 Y0.6342 
G01 X-2.0022 Y0.6321 
G01 X-2.0090 Y0.6310 
G01 X-2.0116 Y0.6310 
G01 X-2.1446 Y0.3384 
G01 X-2.1449 Y0.3374 
G01 X-2.1457 Y0.3362 
G01 X-2.1462 Y0.3349 
G01 X-2.1469 Y0.3340 
G01 X-2.1485 Y0.3315 
G01 X-2.1541 Y0.3248 
G01 X-2.1606 Y0.3191 
G01 X-2.1680 Y0.3144 
G01 X-2.1686 Y0.3142 
G01 X-2.1943 Y0.2885 
G01 X-2.2307 Y0.2885 
G01 X-2.2565 Y0.3143 
G01 X-2.2565 Y0.3507 
G01 X-2.2307 Y0.3765 
G01 X-2.1943 Y0.3765 
G01 X-2.1769 Y0.3592 
G01 X-2.0463 Y0.6466 
G01 X-2.0501 Y0.6519 
G01 X-2.0533 Y0.6581 
G01 X-2.0554 Y0.6647 
G01 X-2.0565 Y0.6715 
G00 Z0.1000 
G00 X-1.9565 Y0.6715 
G01 Z-0.0020 F20.00 
G01 X-1.9565 Y0.6785 F20.00 
G01 X-1.9554 Y0.6853 
G01 X-1.9533 Y0.6919 
G01 X-1.9501 Y0.6981 
G01 X-1.9461 Y0.7037 
G01 X-1.9412 Y0.7086 
G01 X-1.9356 Y0.7126 
G01 X-1.9294 Y0.7158 
G01 X-1.9228 Y0.7179 
G01 X-1.9160 Y0.7190 
G01 X-1.9090 Y0.7190 
G01 X-1.9022 Y0.7179 
G01 X-1.8956 Y0.7158 
G01 X-1.8894 Y0.7126 
G01 X-1.8838 Y0.7086 
G01 X-1.8789 Y0.7037 
G01 X-1.8749 Y0.6981 
G01 X-1.8717 Y0.6919 
G01 X-1.8696 Y0.6853 
G01 X-1.8685 Y0.6785 
G01 X-1.8685 Y0.6715 
G01 X-1.8696 Y0.6647 
G01 X-1.8717 Y0.6581 
G01 X-1.8749 Y0.6519 
G01 X-1.8789 Y0.6463 
G01 X-1.8838 Y0.6414 
G01 X-1.8894 Y0.6374 
G01 X-1.8956 Y0.6342 
G01 X-1.9022 Y0.6321 
G01 X-1.9090 Y0.6310 
G01 X-1.9144 Y0.6310 
G01 X-2.0943 Y0.2938 
G01 X-2.0947 Y0.2912 
G01 X-2.0979 Y0.2802 
G01 X-2.1025 Y0.2696 
G01 X-2.1083 Y0.2597 
G01 X-2.1152 Y0.2505 
G01 X-2.1232 Y0.2423 
G01 X-2.1322 Y0.2350 
G01 X-2.1419 Y0.2289 
G01 X-2.1523 Y0.2240 
G01 X-2.1632 Y0.2204 
G01 X-2.1745 Y0.2182 
G01 X-2.1860 Y0.2173 
G01 X-2.1975 Y0.2178 
G01 X-2.2004 Y0.2183 
G01 X-2.2042 Y0.2179 
G01 X-2.2173 Y0.2177 
G01 X-2.2304 Y0.2190 
G01 X-2.2432 Y0.2217 
G01 X-2.2557 Y0.2258 
G01 X-2.2676 Y0.2312 
G01 X-2.2788 Y0.2380 
G01 X-2.2893 Y0.2458 
G01 X-2.2988 Y0.2548 
G01 X-2.3073 Y0.2648 
G01 X-2.3147 Y0.2757 
G01 X-2.3208 Y0.2873 
G01 X-2.3213 Y0.2885 
G01 X-2.3307 Y0.2885 
G01 X-2.3565 Y0.3143 
G01 X-2.3565 Y0.3507 
G01 X-2.3307 Y0.3765 
G01 X-2.2943 Y0.3765 
G01 X-2.2685 Y0.3507 
G01 X-2.2685 Y0.3143 
G01 X-2.2839 Y0.2989 
G01 X-2.2820 Y0.2953 
G01 X-2.2770 Y0.2879 
G01 X-2.2712 Y0.2811 
G01 X-2.2647 Y0.2750 
G01 X-2.2576 Y0.2696 
G01 X-2.2499 Y0.2651 
G01 X-2.2418 Y0.2614 
G01 X-2.2333 Y0.2586 
G01 X-2.2245 Y0.2567 
G01 X-2.2157 Y0.2559 
G01 X-2.2067 Y0.2559 
G01 X-2.2037 Y0.2562 
G01 X-2.2021 Y0.2564 
G01 X-2.1998 Y0.2567 
G01 X-2.1996 Y0.2566 
G01 X-2.1993 Y0.2567 
G01 X-2.1971 Y0.2563 
G01 X-2.1961 Y0.2561 
G01 X-2.1935 Y0.2558 
G01 X-2.1866 Y0.2555 
G01 X-2.1797 Y0.2560 
G01 X-2.1730 Y0.2573 
G01 X-2.1664 Y0.2595 
G01 X-2.1602 Y0.2624 
G01 X-2.1543 Y0.2661 
G01 X-2.1490 Y0.2704 
G01 X-2.1442 Y0.2754 
G01 X-2.1400 Y0.2809 
G01 X-2.1366 Y0.2868 
G01 X-2.1339 Y0.2931 
G01 X-2.1319 Y0.2997 
G01 X-2.1316 Y0.3015 
G01 X-2.1316 Y0.3019 
G01 X-2.1311 Y0.3037 
G01 X-2.1308 Y0.3056 
G01 X-2.1306 Y0.3061 
G01 X-2.1304 Y0.3067 
G01 X-2.1295 Y0.3084 
G01 X-2.1288 Y0.3101 
G01 X-2.1284 Y0.3106 
G01 X-1.9479 Y0.6489 
G01 X-1.9501 Y0.6519 
G01 X-1.9533 Y0.6581 
G01 X-1.9554 Y0.6647 
G01 X-1.9565 Y0.6715 
G00 Z0.1000 
G00 X-1.8565 Y0.6715 
G01 Z-0.0020 F20.00 
G01 X-1.8565 Y0.6785 F20.00 
G01 X-1.8554 Y0.6853 
G01 X-1.8533 Y0.6919 
G01 X-1.8501 Y0.6981 
G01 X-1.8461 Y0.7037 
G01 X-1.8412 Y0.7086 
G01 X-1.8356 Y0.7126 
G01 X-1.8294 Y0.7158 
G01 X-1.8228 Y0.7179 
G01 X-1.8160 Y0.7190 
G01 X-1.8090 Y0.7190 
G01 X-1.8022 Y0.7179 
G01 X-1.7956 Y0.7158 
G01 X-1.7894 Y0.7126 
G01 X-1.7838 Y0.7086 
G01 X-1.7789 Y0.7037 
G01 X-1.7749 Y0.6981 
G01 X-1.7717 Y0.6919 
G01 X-1.7696 Y0.6853 
G01 X-1.7685 Y0.6785 
G01 X-1.7685 Y0.6715 
G01 X-1.7696 Y0.6647 
G01 X-1.7717 Y0.6581 
G01 X-1.7749 Y0.6519 
G01 X-1.7789 Y0.6463 
G01 X-1.7838 Y0.6414 
G01 X-1.7894 Y0.6374 
G01 X-1.7956 Y0.6342 
G01 X-1.8022 Y0.6321 
G01 X-1.8090 Y0.6310 
G01 X-1.8150 Y0.6310 
G01 X-2.0073 Y0.2803 
G01 X-2.0073 Y0.2801 
G01 X-2.0085 Y0.2781 
G01 X-2.0095 Y0.2762 
G01 X-2.0097 Y0.2760 
G01 X-2.0145 Y0.2678 
G01 X-2.0276 Y0.2484 
G01 X-2.0418 Y0.2299 
G01 X-2.0572 Y0.2123 
G01 X-2.0737 Y0.1958 
G01 X-2.0912 Y0.1803 
G01 X-2.1096 Y0.1659 
G01 X-2.1177 Y0.1604 
G01 X-2.1181 Y0.1600 
G01 X-2.1198 Y0.1590 
G01 X-2.1214 Y0.1579 
G01 X-2.1219 Y0.1577 
G01 X-2.1224 Y0.1574 
G01 X-2.1243 Y0.1569 
G01 X-2.1261 Y0.1562 
G01 X-2.1267 Y0.1562 
G01 X-2.1342 Y0.1541 
G01 X-2.1533 Y0.1502 
G01 X-2.1726 Y0.1479 
G01 X-2.1920 Y0.1471 
G01 X-2.2115 Y0.1478 
G01 X-2.2308 Y0.1501 
G01 X-2.2499 Y0.1538 
G01 X-2.2687 Y0.1591 
G01 X-2.2869 Y0.1658 
G01 X-2.3046 Y0.1739 
G01 X-2.3216 Y0.1834 
G01 X-2.3378 Y0.1942 
G01 X-2.3531 Y0.2062 
G01 X-2.3675 Y0.2194 
G01 X-2.3807 Y0.2336 
G01 X-2.3928 Y0.2489 
G01 X-2.4036 Y0.2651 
G01 X-2.4132 Y0.2820 
G01 X-2.4162 Y0.2885 
G01 X-2.4307 Y0.2885 
G01 X-2.4565 Y0.3143 
G01 X-2.4565 Y0.3507 
G01 X-2.4307 Y0.3765 
G01 X-2.3943 Y0.3765 
G01 X-2.3685 Y0.3507 
G01 X-2.3685 Y0.3143 
G01 X-2.3805 Y0.3023 
G01 X-2.3792 Y0.2994 
G01 X-2.3711 Y0.2851 
G01 X-2.3619 Y0.2714 
G01 X-2.3517 Y0.2585 
G01 X-2.3405 Y0.2464 
G01 X-2.3284 Y0.2353 
G01 X-2.3154 Y0.2251 
G01 X-2.3017 Y0.2160 
G01 X-2.2873 Y0.2080 
G01 X-2.2724 Y0.2011 
G01 X-2.2569 Y0.1954 
G01 X-2.2411 Y0.1910 
G01 X-2.2249 Y0.1878 
G01 X-2.2086 Y0.1859 
G01 X-2.1921 Y0.1853 
G01 X-2.1756 Y0.1860 
G01 X-2.1593 Y0.1879 
G01 X-2.1432 Y0.1912 
G01 X-2.1382 Y0.1925 
G01 X-2.1321 Y0.1967 
G01 X-2.1156 Y0.2096 
G01 X-2.0999 Y0.2235 
G01 X-2.0852 Y0.2384 
G01 X-2.0713 Y0.2542 
G01 X-2.0586 Y0.2708 
G01 X-2.0468 Y0.2881 
G01 X-2.0415 Y0.2970 
G01 X-1.8482 Y0.6493 
G01 X-1.8501 Y0.6519 
G01 X-1.8533 Y0.6581 
G01 X-1.8554 Y0.6647 
G01 X-1.8565 Y0.6715 
G00 Z0.1000 
G00 X-1.7565 Y0.6715 
G01 Z-0.0020 F20.00 
G01 X-1.7565 Y0.6785 F20.00 
G01 X-1.7554 Y0.6853 
G01 X-1.7533 Y0.6919 
G01 X-1.7501 Y0.6981 
G01 X-1.7461 Y0.7037 
G01 X-1.7412 Y0.7086 
G01 X-1.7356 Y0.7126 
G01 X-1.7294 Y0.7158 
G01 X-1.7228 Y0.7179 
G01 X-1.7160 Y0.7190 
G01 X-1.7090 Y0.7190 
G01 X-1.7022 Y0.7179 
G01 X-1.6956 Y0.7158 
G01 X-1.6894 Y0.7126 
G01 X-1.6838 Y0.7086 
G01 X-1.6789 Y0.7037 
G01 X-1.6749 Y0.6981 
G01 X-1.6717 Y0.6919 
G01 X-1.6696 Y0.6853 
G01 X-1.6685 Y0.6785 
G01 X-1.6685 Y0.6715 
G01 X-1.6696 Y0.6647 
G01 X-1.6717 Y0.6581 
G01 X-1.6749 Y0.6519 
G01 X-1.6789 Y0.6463 
G01 X-1.6838 Y0.6414 
G01 X-1.6894 Y0.6374 
G01 X-1.6956 Y0.6342 
G01 X-1.7022 Y0.6321 
G01 X-1.7090 Y0.6310 
G01 X-1.7151 Y0.6310 
G01 X-1.8952 Y0.3046 
G01 X-1.8985 Y0.2953 
G01 X-1.9078 Y0.2746 
G01 X-1.9184 Y0.2545 
G01 X-1.9303 Y0.2351 
G01 X-1.9435 Y0.2167 
G01 X-1.9579 Y0.1991 
G01 X-1.9735 Y0.1826 
G01 X-1.9902 Y0.1672 
G01 X-2.0079 Y0.1530 
G01 X-2.0265 Y0.1399 
G01 X-2.0459 Y0.1282 
G01 X-2.0661 Y0.1178 
G01 X-2.0870 Y0.1088 
G01 X-2.1084 Y0.1012 
G01 X-2.1303 Y0.0951 
G01 X-2.1525 Y0.0905 
G01 X-2.1750 Y0.0875 
G01 X-2.1977 Y0.0859 
G01 X-2.2204 Y0.0859 
G01 X-2.2430 Y0.0874 
G01 X-2.2656 Y0.0905 
G01 X-2.2878 Y0.0951 
G01 X-2.3097 Y0.1011 
G01 X-2.3311 Y0.1087 
G01 X-2.3520 Y0.1176 
G01 X-2.3722 Y0.1280 
G01 X-2.3916 Y0.1397 
G01 X-2.4103 Y0.1527 
G01 X-2.4280 Y0.1670 
G01 X-2.4446 Y0.1824 
G01 X-2.4603 Y0.1989 
G01 X-2.4747 Y0.2164 
G01 X-2.4879 Y0.2348 
G01 X-2.4999 Y0.2541 
G01 X-2.5105 Y0.2742 
G01 X-2.5169 Y0.2885 
G01 X-2.5307 Y0.2885 
G01 X-2.5565 Y0.3143 
G01 X-2.5565 Y0.3507 
G01 X-2.5307 Y0.3765 
G01 X-2.4943 Y0.3765 
G01 X-2.4685 Y0.3507 
G01 X-2.4685 Y0.3143 
G01 X-2.4810 Y0.3018 
G01 X-2.4762 Y0.2909 
G01 X-2.4668 Y0.2731 
G01 X-2.4562 Y0.2560 
G01 X-2.4444 Y0.2397 
G01 X-2.4316 Y0.2241 
G01 X-2.4178 Y0.2095 
G01 X-2.4030 Y0.1959 
G01 X-2.3873 Y0.1833 
G01 X-2.3708 Y0.1718 
G01 X-2.3536 Y0.1614 
G01 X-2.3357 Y0.1522 
G01 X-2.3172 Y0.1442 
G01 X-2.2982 Y0.1376 
G01 X-2.2788 Y0.1322 
G01 X-2.2591 Y0.1281 
G01 X-2.2392 Y0.1254 
G01 X-2.2191 Y0.1241 
G01 X-2.1990 Y0.1241 
G01 X-2.1789 Y0.1255 
G01 X-2.1590 Y0.1282 
G01 X-2.1393 Y0.1323 
G01 X-2.1199 Y0.1377 
G01 X-2.1009 Y0.1444 
G01 X-2.0824 Y0.1523 
G01 X-2.0645 Y0.1615 
G01 X-2.0473 Y0.1719 
G01 X-2.0308 Y0.1835 
G01 X-2.0152 Y0.1961 
G01 X-2.0004 Y0.2098 
G01 X-1.9866 Y0.2244 
G01 X-1.9738 Y0.2399 
G01 X-1.9621 Y0.2563 
G01 X-1.9515 Y0.2734 
G01 X-1.9421 Y0.2912 
G01 X-1.9340 Y0.3096 
G01 X-1.9307 Y0.3182 
G01 X-1.9303 Y0.3195 
G01 X-1.9298 Y0.3204 
G01 X-1.9295 Y0.3214 
G01 X-1.9286 Y0.3226 
G01 X-1.7483 Y0.6494 
G01 X-1.7501 Y0.6519 
G01 X-1.7533 Y0.6581 
G01 X-1.7554 Y0.6647 
G01 X-1.7565 Y0.6715 
G00 Z0.1000 
G00 X-1.6565 Y0.6715 
G01 Z-0.0020 F20.00 
G01 X-1.6565 Y0.6785 F20.00 
G01 X-1.6554 Y0.6853 
G01 X-1.6533 Y0.6919 
G01 X-1.6501 Y0.6981 
G01 X-1.6461 Y0.7037 
G01 X-1.6412 Y0.7086 
G01 X-1.6356 Y0.7126 
G01 X-1.6294 Y0.7158 
G01 X-1.6228 Y0.7179 
G01 X-1.6160 Y0.7190 
G01 X-1.6090 Y0.7190 
G01 X-1.6022 Y0.7179 
G01 X-1.5956 Y0.7158 
G01 X-1.5894 Y0.7126 
G01 X-1.5838 Y0.7086 
G01 X-1.5789 Y0.7037 
G01 X-1.5749 Y0.6981 
G01 X-1.5717 Y0.6919 
G01 X-1.5696 Y0.6853 
G01 X-1.5685 Y0.6785 
G01 X-1.5685 Y0.6715 
G01 X-1.5696 Y0.6647 
G01 X-1.5717 Y0.6581 
G01 X-1.5749 Y0.6519 
G01 X-1.5789 Y0.6463 
G01 X-1.5838 Y0.6414 
G01 X-1.5894 Y0.6374 
G01 X-1.5956 Y0.6342 
G01 X-1.6022 Y0.6321 
G01 X-1.6023 Y0.6321 
G01 X-1.6355 Y0.4777 
G01 X-1.6185 Y0.4607 
G01 X-1.6185 Y0.4243 
G01 X-1.6443 Y0.3985 
G01 X-1.6807 Y0.3985 
G01 X-1.7065 Y0.4243 
G01 X-1.7065 Y0.4607 
G01 X-1.6807 Y0.4865 
G01 X-1.6725 Y0.4865 
G01 X-1.6394 Y0.6402 
G01 X-1.6412 Y0.6414 
G01 X-1.6461 Y0.6463 
G01 X-1.6501 Y0.6519 
G01 X-1.6533 Y0.6581 
G01 X-1.6554 Y0.6647 
G01 X-1.6565 Y0.6715 
G00 Z0.1000 
G00 X-1.4565 Y0.6715 
G01 Z-0.0020 F20.00 
G01 X-1.4565 Y0.6785 F20.00 
G01 X-1.4554 Y0.6853 
G01 X-1.4533 Y0.6919 
G01 X-1.4501 Y0.6981 
G01 X-1.4461 Y0.7037 
G01 X-1.4412 Y0.7086 
G01 X-1.4356 Y0.7126 
G01 X-1.4294 Y0.7158 
G01 X-1.4228 Y0.7179 
G01 X-1.4160 Y0.7190 
G01 X-1.4090 Y0.7190 
G01 X-1.4022 Y0.7179 
G01 X-1.3956 Y0.7158 
G01 X-1.3894 Y0.7126 
G01 X-1.3838 Y0.7086 
G01 X-1.3789 Y0.7037 
G01 X-1.3749 Y0.6981 
G01 X-1.3717 Y0.6919 
G01 X-1.3696 Y0.6853 
G01 X-1.3685 Y0.6785 
G01 X-1.3685 Y0.6715 
G01 X-1.3696 Y0.6647 
G01 X-1.3717 Y0.6581 
G01 X-1.3749 Y0.6519 
G01 X-1.3789 Y0.6463 
G01 X-1.3838 Y0.6414 
G01 X-1.3894 Y0.6374 
G01 X-1.3956 Y0.6342 
G01 X-1.4022 Y0.6321 
G01 X-1.4023 Y0.6321 
G01 X-1.4355 Y0.4777 
G01 X-1.4185 Y0.4607 
G01 X-1.4185 Y0.4243 
G01 X-1.4443 Y0.3985 
G01 X-1.4807 Y0.3985 
G01 X-1.5065 Y0.4243 
G01 X-1.5065 Y0.4607 
G01 X-1.4807 Y0.4865 
G01 X-1.4725 Y0.4865 
G01 X-1.4394 Y0.6402 
G01 X-1.4412 Y0.6414 
G01 X-1.4461 Y0.6463 
G01 X-1.4501 Y0.6519 
G01 X-1.4533 Y0.6581 
G01 X-1.4554 Y0.6647 
G01 X-1.4565 Y0.6715 
G00 Z0.1000 
G00 X-1.2565 Y0.6715 
G01 Z-0.0020 F20.00 
G01 X-1.2565 Y0.6785 F20.00 
G01 X-1.2554 Y0.6853 
G01 X-1.2533 Y0.6919 
G01 X-1.2501 Y0.6981 
G01 X-1.2461 Y0.7037 
G01 X-1.2412 Y0.7086 
G01 X-1.2356 Y0.7126 
G01 X-1.2294 Y0.7158 
G01 X-1.2228 Y0.7179 
G01 X-1.2160 Y0.7190 
G01 X-1.2090 Y0.7190 
G01 X-1.2022 Y0.7179 
G01 X-1.1956 Y0.7158 
G01 X-1.1894 Y0.7126 
G01 X-1.1838 Y0.7086 
G01 X-1.1789 Y0.7037 
G01 X-1.1749 Y0.6981 
G01 X-1.1717 Y0.6919 
G01 X-1.1696 Y0.6853 
G01 X-1.1685 Y0.6785 
G01 X-1.1685 Y0.6715 
G01 X-1.1696 Y0.6647 
G01 X-1.1717 Y0.6581 
G01 X-1.1749 Y0.6519 
G01 X-1.1789 Y0.6463 
G01 X-1.1838 Y0.6414 
G01 X-1.1894 Y0.6374 
G01 X-1.1919 Y0.6361 
G01 X-1.1925 Y0.6148 
G01 X-1.1948 Y0.5901 
G01 X-1.1985 Y0.5656 
G01 X-1.2036 Y0.5413 
G01 X-1.2102 Y0.5174 
G01 X-1.2181 Y0.4939 
G01 X-1.2275 Y0.4710 
G01 X-1.2382 Y0.4486 
G01 X-1.2502 Y0.4269 
G01 X-1.2635 Y0.4060 
G01 X-1.2780 Y0.3859 
G01 X-1.2936 Y0.3666 
G01 X-1.3104 Y0.3484 
G01 X-1.3185 Y0.3405 
G01 X-1.3185 Y0.3143 
G01 X-1.3443 Y0.2885 
G01 X-1.3807 Y0.2885 
G01 X-1.4065 Y0.3143 
G01 X-1.4065 Y0.3507 
G01 X-1.3807 Y0.3765 
G01 X-1.3443 Y0.3765 
G01 X-1.3403 Y0.3725 
G01 X-1.3377 Y0.3750 
G01 X-1.3225 Y0.3916 
G01 X-1.3083 Y0.4091 
G01 X-1.2951 Y0.4274 
G01 X-1.2830 Y0.4464 
G01 X-1.2721 Y0.4661 
G01 X-1.2624 Y0.4864 
G01 X-1.2539 Y0.5073 
G01 X-1.2467 Y0.5286 
G01 X-1.2407 Y0.5503 
G01 X-1.2360 Y0.5724 
G01 X-1.2327 Y0.5946 
G01 X-1.2307 Y0.6171 
G01 X-1.2301 Y0.6346 
G01 X-1.2356 Y0.6374 
G01 X-1.2412 Y0.6414 
G01 X-1.2461 Y0.6463 
G01 X-1.2501 Y0.6519 
G01 X-1.2533 Y0.6581 
G01 X-1.2554 Y0.6647 
G01 X-1.2565 Y0.6715 
G00 Z0.1000 
G00 X-1.1565 Y0.6715 
G01 Z-0.0020 F20.00 
G01 X-1.1565 Y0.6785 F20.00 
G01 X-1.1554 Y0.6853 
G01 X-1.1533 Y0.6919 
G01 X-1.1501 Y0.6981 
G01 X-1.1461 Y0.7037 
G01 X-1.1412 Y0.7086 
G01 X-1.1356 Y0.7126 
G01 X-1.1294 Y0.7158 
G01 X-1.1228 Y0.7179 
G01 X-1.1160 Y0.7190 
G01 X-1.1090 Y0.7190 
G01 X-1.1022 Y0.7179 
G01 X-1.0956 Y0.7158 
G01 X-1.0894 Y0.7126 
G01 X-1.0838 Y0.7086 
G01 X-1.0789 Y0.7037 
G01 X-1.0749 Y0.6981 
G01 X-1.0717 Y0.6919 
G01 X-1.0696 Y0.6853 
G01 X-1.0685 Y0.6785 
G01 X-1.0685 Y0.6715 
G01 X-1.0696 Y0.6647 
G01 X-1.0717 Y0.6581 
G01 X-1.0749 Y0.6519 
G01 X-1.0789 Y0.6463 
G01 X-1.0838 Y0.6414 
G01 X-1.0894 Y0.6374 
G01 X-1.0956 Y0.6342 
G01 X-1.1022 Y0.6321 
G01 X-1.1075 Y0.6312 
G01 X-1.2187 Y0.3087 
G01 X-1.2195 Y0.3063 
G01 X-1.2219 Y0.2995 
G01 X-1.2280 Y0.2865 
G01 X-1.2354 Y0.2742 
G01 X-1.2442 Y0.2627 
G01 X-1.2540 Y0.2523 
G01 X-1.2650 Y0.2429 
G01 X-1.2768 Y0.2348 
G01 X-1.2895 Y0.2279 
G01 X-1.3028 Y0.2225 
G01 X-1.3166 Y0.2184 
G01 X-1.3308 Y0.2159 
G01 X-1.3451 Y0.2149 
G01 X-1.3595 Y0.2154 
G01 X-1.3738 Y0.2174 
G01 X-1.3877 Y0.2210 
G01 X-1.4012 Y0.2260 
G01 X-1.4141 Y0.2324 
G01 X-1.4262 Y0.2401 
G01 X-1.4375 Y0.2490 
G01 X-1.4477 Y0.2591 
G01 X-1.4568 Y0.2703 
G01 X-1.4647 Y0.2823 
G01 X-1.4679 Y0.2885 
G01 X-1.4807 Y0.2885 
G01 X-1.5065 Y0.3143 
G01 X-1.5065 Y0.3507 
G01 X-1.4807 Y0.3765 
G01 X-1.4443 Y0.3765 
G01 X-1.4185 Y0.3507 
G01 X-1.4185 Y0.3143 
G01 X-1.4315 Y0.3012 
G01 X-1.4260 Y0.2929 
G01 X-1.4195 Y0.2849 
G01 X-1.4121 Y0.2776 
G01 X-1.4041 Y0.2712 
G01 X-1.3953 Y0.2656 
G01 X-1.3861 Y0.2610 
G01 X-1.3764 Y0.2574 
G01 X-1.3664 Y0.2549 
G01 X-1.3561 Y0.2534 
G01 X-1.3458 Y0.2531 
G01 X-1.3355 Y0.2538 
G01 X-1.3253 Y0.2556 
G01 X-1.3154 Y0.2585 
G01 X-1.3058 Y0.2624 
G01 X-1.2967 Y0.2673 
G01 X-1.2882 Y0.2732 
G01 X-1.2804 Y0.2799 
G01 X-1.2733 Y0.2874 
G01 X-1.2670 Y0.2957 
G01 X-1.2617 Y0.3045 
G01 X-1.2573 Y0.3139 
G01 X-1.2555 Y0.3187 
G01 X-1.1434 Y0.6437 
G01 X-1.1461 Y0.6463 
G01 X-1.1501 Y0.6519 
G01 X-1.1533 Y0.6581 
G01 X-1.1554 Y0.6647 
G01 X-1.1565 Y0.6715 
G00 Z0.1000 
G00 X-0.8565 Y0.6715 
G01 Z-0.0020 F20.00 
G01 X-0.8565 Y0.6785 F20.00 
G01 X-0.8554 Y0.6853 
G01 X-0.8533 Y0.6919 
G01 X-0.8501 Y0.6981 
G01 X-0.8461 Y0.7037 
G01 X-0.8412 Y0.7086 
G01 X-0.8356 Y0.7126 
G01 X-0.8294 Y0.7158 
G01 X-0.8228 Y0.7179 
G01 X-0.8160 Y0.7190 
G01 X-0.8090 Y0.7190 
G01 X-0.8022 Y0.7179 
G01 X-0.7956 Y0.7158 
G01 X-0.7894 Y0.7126 
G01 X-0.7838 Y0.7086 
G01 X-0.7789 Y0.7037 
G01 X-0.7749 Y0.6981 
G01 X-0.7717 Y0.6919 
G01 X-0.7696 Y0.6853 
G01 X-0.7685 Y0.6785 
G01 X-0.7685 Y0.6715 
G01 X-0.7696 Y0.6647 
G01 X-0.7717 Y0.6581 
G01 X-0.7749 Y0.6519 
G01 X-0.7789 Y0.6463 
G01 X-0.7838 Y0.6414 
G01 X-0.7874 Y0.6388 
G01 X-0.7629 Y0.4865 
G01 X-0.7568 Y0.4865 
G01 X-0.7310 Y0.4607 
G01 X-0.7310 Y0.4243 
G01 X-0.7568 Y0.3985 
G01 X-0.7932 Y0.3985 
G01 X-0.8190 Y0.4243 
G01 X-0.8190 Y0.4607 
G01 X-0.8002 Y0.4795 
G01 X-0.8249 Y0.6328 
G01 X-0.8294 Y0.6342 
G01 X-0.8356 Y0.6374 
G01 X-0.8412 Y0.6414 
G01 X-0.8461 Y0.6463 
G01 X-0.8501 Y0.6519 
G01 X-0.8533 Y0.6581 
G01 X-0.8554 Y0.6647 
G01 X-0.8565 Y0.6715 
G00 Z0.1000 
G00 X-1.0565 Y0.6715 
G01 Z-0.0020 F20.00 
G01 X-1.0565 Y0.6785 F20.00 
G01 X-1.0554 Y0.6853 
G01 X-1.0533 Y0.6919 
G01 X-1.0501 Y0.6981 
G01 X-1.0461 Y0.7037 
G01 X-1.0412 Y0.7086 
G01 X-1.0356 Y0.7126 
G01 X-1.0294 Y0.7158 
G01 X-1.0228 Y0.7179 
G01 X-1.0160 Y0.7190 
G01 X-1.0090 Y0.7190 
G01 X-1.0022 Y0.7179 
G01 X-0.9956 Y0.7158 
G01 X-0.9894 Y0.7126 
G01 X-0.9838 Y0.7086 
G01 X-0.9789 Y0.7037 
G01 X-0.9749 Y0.6981 
G01 X-0.9717 Y0.6919 
G01 X-0.9696 Y0.6853 
G01 X-0.9685 Y0.6785 
G01 X-0.9685 Y0.6715 
G01 X-0.9696 Y0.6647 
G01 X-0.9717 Y0.6581 
G01 X-0.9749 Y0.6519 
G01 X-0.9789 Y0.6463 
G01 X-0.9838 Y0.6414 
G01 X-0.9894 Y0.6374 
G01 X-0.9956 Y0.6342 
G01 X-1.0022 Y0.6321 
G01 X-1.0085 Y0.6311 
G01 X-1.1192 Y0.3322 
G01 X-1.1208 Y0.3244 
G01 X-1.1261 Y0.3063 
G01 X-1.1328 Y0.2887 
G01 X-1.1409 Y0.2717 
G01 X-1.1504 Y0.2553 
G01 X-1.1610 Y0.2398 
G01 X-1.1729 Y0.2252 
G01 X-1.1860 Y0.2115 
G01 X-1.2000 Y0.1990 
G01 X-1.2151 Y0.1876 
G01 X-1.2309 Y0.1774 
G01 X-1.2476 Y0.1685 
G01 X-1.2649 Y0.1610 
G01 X-1.2827 Y0.1549 
G01 X-1.3010 Y0.1502 
G01 X-1.3196 Y0.1470 
G01 X-1.3383 Y0.1453 
G01 X-1.3572 Y0.1451 
G01 X-1.3760 Y0.1464 
G01 X-1.3947 Y0.1491 
G01 X-1.4130 Y0.1534 
G01 X-1.4310 Y0.1591 
G01 X-1.4485 Y0.1662 
G01 X-1.4653 Y0.1747 
G01 X-1.4814 Y0.1844 
G01 X-1.4967 Y0.1955 
G01 X-1.5111 Y0.2077 
G01 X-1.5244 Y0.2210 
G01 X-1.5367 Y0.2354 
G01 X-1.5477 Y0.2507 
G01 X-1.5575 Y0.2668 
G01 X-1.5660 Y0.2836 
G01 X-1.5680 Y0.2885 
G01 X-1.5807 Y0.2885 
G01 X-1.6065 Y0.3143 
G01 X-1.6065 Y0.3507 
G01 X-1.5807 Y0.3765 
G01 X-1.5443 Y0.3765 
G01 X-1.5185 Y0.3507 
G01 X-1.5185 Y0.3143 
G01 X-1.5319 Y0.3009 
G01 X-1.5313 Y0.2994 
G01 X-1.5241 Y0.2853 
G01 X-1.5159 Y0.2718 
G01 X-1.5066 Y0.2590 
G01 X-1.4964 Y0.2470 
G01 X-1.4852 Y0.2358 
G01 X-1.4731 Y0.2255 
G01 X-1.4603 Y0.2163 
G01 X-1.4468 Y0.2081 
G01 X-1.4327 Y0.2010 
G01 X-1.4180 Y0.1950 
G01 X-1.4030 Y0.1902 
G01 X-1.3875 Y0.1867 
G01 X-1.3719 Y0.1843 
G01 X-1.3561 Y0.1833 
G01 X-1.3403 Y0.1834 
G01 X-1.3246 Y0.1849 
G01 X-1.3090 Y0.1876 
G01 X-1.2937 Y0.1915 
G01 X-1.2787 Y0.1966 
G01 X-1.2642 Y0.2029 
G01 X-1.2502 Y0.2104 
G01 X-1.2369 Y0.2189 
G01 X-1.2243 Y0.2285 
G01 X-1.2125 Y0.2390 
G01 X-1.2016 Y0.2504 
G01 X-1.1916 Y0.2627 
G01 X-1.1826 Y0.2757 
G01 X-1.1747 Y0.2894 
G01 X-1.1679 Y0.3037 
G01 X-1.1623 Y0.3185 
G01 X-1.1579 Y0.3337 
G01 X-1.1563 Y0.3405 
G01 X-1.1562 Y0.3418 
G01 X-1.1558 Y0.3428 
G01 X-1.1556 Y0.3438 
G01 X-1.1549 Y0.3451 
G01 X-1.0441 Y0.6444 
G01 X-1.0461 Y0.6463 
G01 X-1.0501 Y0.6519 
G01 X-1.0533 Y0.6581 
G01 X-1.0554 Y0.6647 
G01 X-1.0565 Y0.6715 
G00 Z0.1000 
G00 X-0.9565 Y0.6715 
G01 Z-0.0020 F20.00 
G01 X-0.9565 Y0.6785 F20.00 
G01 X-0.9554 Y0.6853 
G01 X-0.9533 Y0.6919 
G01 X-0.9501 Y0.6981 
G01 X-0.9461 Y0.7037 
G01 X-0.9412 Y0.7086 
G01 X-0.9356 Y0.7126 
G01 X-0.9294 Y0.7158 
G01 X-0.9228 Y0.7179 
G01 X-0.9160 Y0.7190 
G01 X-0.9090 Y0.7190 
G01 X-0.9022 Y0.7179 
G01 X-0.8956 Y0.7158 
G01 X-0.8894 Y0.7126 
G01 X-0.8838 Y0.7086 
G01 X-0.8789 Y0.7037 
G01 X-0.8749 Y0.6981 
G01 X-0.8717 Y0.6919 
G01 X-0.8696 Y0.6853 
G01 X-0.8685 Y0.6785 
G01 X-0.8685 Y0.6715 
G01 X-0.8696 Y0.6647 
G01 X-0.8717 Y0.6581 
G01 X-0.8749 Y0.6519 
G01 X-0.8789 Y0.6463 
G01 X-0.8838 Y0.6414 
G01 X-0.8894 Y0.6374 
G01 X-0.8956 Y0.6342 
G01 X-0.9022 Y0.6321 
G01 X-0.9066 Y0.6314 
G01 X-1.0063 Y0.3210 
G01 X-1.0064 Y0.3204 
G01 X-1.0071 Y0.3186 
G01 X-1.0077 Y0.3168 
G01 X-1.0080 Y0.3163 
G01 X-1.0116 Y0.3071 
G01 X-1.0215 Y0.2858 
G01 X-1.0329 Y0.2652 
G01 X-1.0455 Y0.2453 
G01 X-1.0595 Y0.2263 
G01 X-1.0746 Y0.2083 
G01 X-1.0909 Y0.1913 
G01 X-1.1083 Y0.1754 
G01 X-1.1266 Y0.1606 
G01 X-1.1459 Y0.1471 
G01 X-1.1661 Y0.1349 
G01 X-1.1870 Y0.1241 
G01 X-1.2085 Y0.1146 
G01 X-1.2307 Y0.1066 
G01 X-1.2533 Y0.1000 
G01 X-1.2763 Y0.0949 
G01 X-1.2996 Y0.0914 
G01 X-1.3230 Y0.0893 
G01 X-1.3466 Y0.0888 
G01 X-1.3701 Y0.0899 
G01 X-1.3935 Y0.0925 
G01 X-1.4167 Y0.0966 
G01 X-1.4396 Y0.1022 
G01 X-1.4620 Y0.1093 
G01 X-1.4840 Y0.1179 
G01 X-1.5053 Y0.1278 
G01 X-1.5259 Y0.1392 
G01 X-1.5458 Y0.1519 
G01 X-1.5647 Y0.1658 
G01 X-1.5828 Y0.1810 
G01 X-1.5998 Y0.1973 
G01 X-1.6157 Y0.2146 
G01 X-1.6304 Y0.2330 
G01 X-1.6439 Y0.2523 
G01 X-1.6560 Y0.2725 
G01 X-1.6644 Y0.2885 
G01 X-1.6807 Y0.2885 
G01 X-1.7065 Y0.3143 
G01 X-1.7065 Y0.3507 
G01 X-1.6807 Y0.3765 
G01 X-1.6443 Y0.3765 
G01 X-1.6185 Y0.3507 
G01 X-1.6185 Y0.3143 
G01 X-1.6292 Y0.3036 
G01 X-1.6227 Y0.2912 
G01 X-1.6118 Y0.2732 
G01 X-1.5998 Y0.2559 
G01 X-1.5866 Y0.2395 
G01 X-1.5724 Y0.2239 
G01 X-1.5572 Y0.2094 
G01 X-1.5411 Y0.1958 
G01 X-1.5242 Y0.1834 
G01 X-1.5064 Y0.1720 
G01 X-1.4880 Y0.1619 
G01 X-1.4689 Y0.1530 
G01 X-1.4493 Y0.1453 
G01 X-1.4292 Y0.1390 
G01 X-1.4088 Y0.1339 
G01 X-1.3881 Y0.1303 
G01 X-1.3672 Y0.1280 
G01 X-1.3461 Y0.1270 
G01 X-1.3251 Y0.1275 
G01 X-1.3041 Y0.1293 
G01 X-1.2833 Y0.1325 
G01 X-1.2627 Y0.1370 
G01 X-1.2425 Y0.1429 
G01 X-1.2227 Y0.1501 
G01 X-1.2035 Y0.1585 
G01 X-1.1848 Y0.1682 
G01 X-1.1668 Y0.1791 
G01 X-1.1495 Y0.1912 
G01 X-1.1331 Y0.2044 
G01 X-1.1176 Y0.2186 
G01 X-1.1030 Y0.2338 
G01 X-1.0895 Y0.2499 
G01 X-1.0770 Y0.2669 
G01 X-1.0657 Y0.2846 
G01 X-1.0556 Y0.3031 
G01 X-1.0467 Y0.3221 
G01 X-1.0429 Y0.3315 
G01 X-0.9427 Y0.6430 
G01 X-0.9461 Y0.6463 
G01 X-0.9501 Y0.6519 
G01 X-0.9533 Y0.6581 
G01 X-0.9554 Y0.6647 
G01 X-0.9565 Y0.6715 
G00 Z0.1000 
G00 X-0.6565 Y0.6715 
G01 Z-0.0020 F20.00 
G01 X-0.6565 Y0.6785 F20.00 
G01 X-0.6554 Y0.6853 
G01 X-0.6533 Y0.6919 
G01 X-0.6501 Y0.6981 
G01 X-0.6461 Y0.7037 
G01 X-0.6412 Y0.7086 
G01 X-0.6356 Y0.7126 
G01 X-0.6294 Y0.7158 
G01 X-0.6228 Y0.7179 
G01 X-0.6160 Y0.7190 
G01 X-0.6090 Y0.7190 
G01 X-0.6022 Y0.7179 
G01 X-0.5956 Y0.7158 
G01 X-0.5894 Y0.7126 
G01 X-0.5838 Y0.7086 
G01 X-0.5789 Y0.7037 
G01 X-0.5749 Y0.6981 
G01 X-0.5717 Y0.6919 
G01 X-0.5696 Y0.6853 
G01 X-0.5685 Y0.6785 
G01 X-0.5685 Y0.6715 
G01 X-0.5696 Y0.6647 
G01 X-0.5717 Y0.6581 
G01 X-0.5749 Y0.6519 
G01 X-0.5789 Y0.6463 
G01 X-0.5838 Y0.6414 
G01 X-0.5874 Y0.6388 
G01 X-0.5629 Y0.4865 
G01 X-0.5568 Y0.4865 
G01 X-0.5310 Y0.4607 
G01 X-0.5310 Y0.4243 
G01 X-0.5568 Y0.3985 
G01 X-0.5932 Y0.3985 
G01 X-0.6190 Y0.4243 
G01 X-0.6190 Y0.4607 
G01 X-0.6002 Y0.4795 
G01 X-0.6249 Y0.6328 
G01 X-0.6294 Y0.6342 
G01 X-0.6356 Y0.6374 
G01 X-0.6412 Y0.6414 
G01 X-0.6461 Y0.6463 
G01 X-0.6501 Y0.6519 
G01 X-0.6533 Y0.6581 
G01 X-0.6554 Y0.6647 
G01 X-0.6565 Y0.6715 
G00 Z0.1000 
G00 X-0.5509 Y0.7190 
G01 Z-0.0020 F20.00 
G01 X-0.4741 Y0.7190 F20.00 
G01 X-0.4715 Y0.7179 
G01 X-0.4696 Y0.7160 
G01 X-0.4685 Y0.7134 
G01 X-0.4685 Y0.6366 
G01 X-0.4696 Y0.6340 
G01 X-0.4715 Y0.6321 
G01 X-0.4741 Y0.6310 
G01 X-0.5509 Y0.6310 
G01 X-0.5535 Y0.6321 
G01 X-0.5554 Y0.6340 
G01 X-0.5565 Y0.6366 
G01 X-0.5565 Y0.7134 
G01 X-0.5554 Y0.7160 
G01 X-0.5535 Y0.7179 
G01 X-0.5509 Y0.7190 
G00 Z0.1000 
G00 X-0.9565 Y1.6482 
G01 Z-0.0020 F20.00 
G01 X-0.9307 Y1.6740 F20.00 
G01 X-0.8943 Y1.6740 
G01 X-0.8685 Y1.6482 
G01 X-0.8685 Y1.6118 
G01 X-0.8943 Y1.5860 
G01 X-0.9307 Y1.5860 
G01 X-0.9476 Y1.6029 
G01 X-0.9517 Y1.6009 
G01 X-0.9594 Y1.5961 
G01 X-0.9665 Y1.5904 
G01 X-0.9729 Y1.5840 
G01 X-0.9786 Y1.5769 
G01 X-0.9834 Y1.5692 
G01 X-0.9873 Y1.5610 
G01 X-0.9903 Y1.5524 
G01 X-0.9924 Y1.5436 
G01 X-0.9934 Y1.5345 
G01 X-0.9935 Y1.5300 
G01 X-0.9935 Y1.3147 
G01 X-0.9894 Y1.3126 
G01 X-0.9838 Y1.3086 
G01 X-0.9789 Y1.3037 
G01 X-0.9749 Y1.2981 
G01 X-0.9717 Y1.2919 
G01 X-0.9696 Y1.2853 
G01 X-0.9685 Y1.2785 
G01 X-0.9685 Y1.2715 
G01 X-0.9696 Y1.2647 
G01 X-0.9717 Y1.2581 
G01 X-0.9749 Y1.2519 
G01 X-0.9789 Y1.2463 
G01 X-0.9838 Y1.2414 
G01 X-0.9894 Y1.2374 
G01 X-0.9956 Y1.2342 
G01 X-1.0022 Y1.2321 
G01 X-1.0090 Y1.2310 
G01 X-1.0160 Y1.2310 
G01 X-1.0228 Y1.2321 
G01 X-1.0294 Y1.2342 
G01 X-1.0356 Y1.2374 
G01 X-1.0412 Y1.2414 
G01 X-1.0461 Y1.2463 
G01 X-1.0501 Y1.2519 
G01 X-1.0533 Y1.2581 
G01 X-1.0554 Y1.2647 
G01 X-1.0565 Y1.2715 
G01 X-1.0565 Y1.2785 
G01 X-1.0554 Y1.2853 
G01 X-1.0533 Y1.2919 
G01 X-1.0501 Y1.2981 
G01 X-1.0461 Y1.3037 
G01 X-1.0412 Y1.3086 
G01 X-1.0356 Y1.3126 
G01 X-1.0315 Y1.3147 
G01 X-1.0315 Y1.5367 
G01 X-1.0300 Y1.5500 
G01 X-1.0270 Y1.5630 
G01 X-1.0226 Y1.5756 
G01 X-1.0168 Y1.5877 
G01 X-1.0097 Y1.5990 
G01 X-1.0014 Y1.6094 
G01 X-0.9919 Y1.6189 
G01 X-0.9815 Y1.6272 
G01 X-0.9702 Y1.6343 
G01 X-0.9581 Y1.6401 
G01 X-0.9565 Y1.6407 
G01 X-0.9565 Y1.6482 
G00 Z0.1000 
G00 X-0.8565 Y1.5018 
G01 Z-0.0020 F20.00 
G01 X-0.8565 Y1.5382 F20.00 
G01 X-0.8307 Y1.5640 
G01 X-0.7943 Y1.5640 
G01 X-0.7685 Y1.5382 
G01 X-0.7685 Y1.5018 
G01 X-0.7935 Y1.4768 
G01 X-0.7935 Y1.3147 
G01 X-0.7894 Y1.3126 
G01 X-0.7838 Y1.3086 
G01 X-0.7789 Y1.3037 
G01 X-0.7749 Y1.2981 
G01 X-0.7717 Y1.2919 
G01 X-0.7696 Y1.2853 
G01 X-0.7685 Y1.2785 
G01 X-0.7685 Y1.2715 
G01 X-0.7696 Y1.2647 
G01 X-0.7717 Y1.2581 
G01 X-0.7749 Y1.2519 
G01 X-0.7789 Y1.2463 
G01 X-0.7838 Y1.2414 
G01 X-0.7894 Y1.2374 
G01 X-0.7956 Y1.2342 
G01 X-0.8022 Y1.2321 
G01 X-0.8090 Y1.2310 
G01 X-0.8160 Y1.2310 
G01 X-0.8228 Y1.2321 
G01 X-0.8294 Y1.2342 
G01 X-0.8356 Y1.2374 
G01 X-0.8412 Y1.2414 
G01 X-0.8461 Y1.2463 
G01 X-0.8501 Y1.2519 
G01 X-0.8533 Y1.2581 
G01 X-0.8554 Y1.2647 
G01 X-0.8565 Y1.2715 
G01 X-0.8565 Y1.2785 
G01 X-0.8554 Y1.2853 
G01 X-0.8533 Y1.2919 
G01 X-0.8501 Y1.2981 
G01 X-0.8461 Y1.3037 
G01 X-0.8412 Y1.3086 
G01 X-0.8356 Y1.3126 
G01 X-0.8315 Y1.3147 
G01 X-0.8315 Y1.4768 
G01 X-0.8565 Y1.5018 
G00 Z0.1000 
G00 X-0.7565 Y1.6118 
G01 Z-0.0020 F20.00 
G01 X-0.7565 Y1.6482 F20.00 
G01 X-0.7349 Y1.6698 
G01 X-0.7371 Y1.6792 
G01 X-0.7414 Y1.6925 
G01 X-0.7469 Y1.7054 
G01 X-0.7536 Y1.7177 
G01 X-0.7613 Y1.7293 
G01 X-0.7701 Y1.7403 
G01 X-0.7797 Y1.7504 
G01 X-0.7903 Y1.7596 
G01 X-0.8016 Y1.7678 
G01 X-0.8136 Y1.7749 
G01 X-0.8262 Y1.7810 
G01 X-0.8393 Y1.7859 
G01 X-0.8528 Y1.7896 
G01 X-0.8666 Y1.7921 
G01 X-0.8805 Y1.7933 
G01 X-0.8875 Y1.7935 
G01 X-0.8975 Y1.7933 
G01 X-0.9175 Y1.7920 
G01 X-0.9373 Y1.7894 
G01 X-0.9570 Y1.7855 
G01 X-0.9763 Y1.7803 
G01 X-0.9953 Y1.7739 
G01 X-1.0138 Y1.7662 
G01 X-1.0317 Y1.7574 
G01 X-1.0491 Y1.7474 
G01 X-1.0657 Y1.7362 
G01 X-1.0816 Y1.7240 
G01 X-1.0967 Y1.7108 
G01 X-1.1108 Y1.6967 
G01 X-1.1240 Y1.6816 
G01 X-1.1362 Y1.6657 
G01 X-1.1474 Y1.6491 
G01 X-1.1574 Y1.6317 
G01 X-1.1662 Y1.6138 
G01 X-1.1739 Y1.5953 
G01 X-1.1803 Y1.5763 
G01 X-1.1855 Y1.5570 
G01 X-1.1894 Y1.5373 
G01 X-1.1920 Y1.5175 
G01 X-1.1933 Y1.4975 
G01 X-1.1935 Y1.4875 
G01 X-1.1935 Y1.3147 
G01 X-1.1894 Y1.3126 
G01 X-1.1838 Y1.3086 
G01 X-1.1789 Y1.3037 
G01 X-1.1749 Y1.2981 
G01 X-1.1717 Y1.2919 
G01 X-1.1696 Y1.2853 
G01 X-1.1685 Y1.2785 
G01 X-1.1685 Y1.2715 
G01 X-1.1696 Y1.2647 
G01 X-1.1717 Y1.2581 
G01 X-1.1749 Y1.2519 
G01 X-1.1789 Y1.2463 
G01 X-1.1838 Y1.2414 
G01 X-1.1894 Y1.2374 
G01 X-1.1956 Y1.2342 
G01 X-1.2022 Y1.2321 
G01 X-1.2090 Y1.2310 
G01 X-1.2160 Y1.2310 
G01 X-1.2228 Y1.2321 
G01 X-1.2294 Y1.2342 
G01 X-1.2356 Y1.2374 
G01 X-1.2412 Y1.2414 
G01 X-1.2461 Y1.2463 
G01 X-1.2501 Y1.2519 
G01 X-1.2533 Y1.2581 
G01 X-1.2554 Y1.2647 
G01 X-1.2565 Y1.2715 
G01 X-1.2565 Y1.2785 
G01 X-1.2554 Y1.2853 
G01 X-1.2533 Y1.2919 
G01 X-1.2501 Y1.2981 
G01 X-1.2461 Y1.3037 
G01 X-1.2412 Y1.3086 
G01 X-1.2356 Y1.3126 
G01 X-1.2315 Y1.3147 
G01 X-1.2315 Y1.4988 
G01 X-1.2300 Y1.5212 
G01 X-1.2271 Y1.5436 
G01 X-1.2227 Y1.5657 
G01 X-1.2169 Y1.5874 
G01 X-1.2096 Y1.6087 
G01 X-1.2010 Y1.6295 
G01 X-1.1910 Y1.6497 
G01 X-1.1798 Y1.6693 
G01 X-1.1673 Y1.6880 
G01 X-1.1536 Y1.7058 
G01 X-1.1387 Y1.7228 
G01 X-1.1228 Y1.7387 
G01 X-1.1058 Y1.7536 
G01 X-1.0880 Y1.7673 
G01 X-1.0693 Y1.7798 
G01 X-1.0497 Y1.7910 
G01 X-1.0295 Y1.8010 
G01 X-1.0087 Y1.8096 
G01 X-0.9874 Y1.8169 
G01 X-0.9657 Y1.8227 
G01 X-0.9436 Y1.8271 
G01 X-0.9212 Y1.8300 
G01 X-0.8988 Y1.8315 
G01 X-0.8788 Y1.8315 
G01 X-0.8615 Y1.8299 
G01 X-0.8443 Y1.8268 
G01 X-0.8275 Y1.8222 
G01 X-0.8112 Y1.8161 
G01 X-0.7956 Y1.8086 
G01 X-0.7806 Y1.7997 
G01 X-0.7665 Y1.7894 
G01 X-0.7534 Y1.7780 
G01 X-0.7413 Y1.7654 
G01 X-0.7305 Y1.7518 
G01 X-0.7208 Y1.7373 
G01 X-0.7126 Y1.7220 
G01 X-0.7057 Y1.7060 
G01 X-0.7003 Y1.6895 
G01 X-0.6967 Y1.6740 
G01 X-0.6943 Y1.6740 
G01 X-0.6685 Y1.6482 
G01 X-0.6685 Y1.6118 
G01 X-0.6943 Y1.5860 
G01 X-0.7307 Y1.5860 
G01 X-0.7565 Y1.6118 
G00 Z0.1000 
G00 X-0.6565 Y1.6118 
G01 Z-0.0020 F20.00 
G01 X-0.6565 Y1.6482 F20.00 
G01 X-0.6351 Y1.6696 
G01 X-0.6354 Y1.6720 
G01 X-0.6392 Y1.6885 
G01 X-0.6442 Y1.7046 
G01 X-0.6504 Y1.7204 
G01 X-0.6577 Y1.7356 
G01 X-0.6661 Y1.7502 
G01 X-0.6757 Y1.7642 
G01 X-0.6862 Y1.7774 
G01 X-0.6977 Y1.7898 
G01 X-0.7101 Y1.8013 
G01 X-0.7233 Y1.8118 
G01 X-0.7373 Y1.8214 
G01 X-0.7519 Y1.8298 
G01 X-0.7671 Y1.8371 
G01 X-0.7829 Y1.8433 
G01 X-0.7990 Y1.8483 
G01 X-0.8155 Y1.8521 
G01 X-0.8322 Y1.8546 
G01 X-0.8490 Y1.8558 
G01 X-0.8575 Y1.8560 
G01 X-0.8981 Y1.8560 
G01 X-0.8987 Y1.8559 
G01 X-0.9006 Y1.8560 
G01 X-0.9025 Y1.8560 
G01 X-0.9030 Y1.8561 
G01 X-0.9124 Y1.8566 
G01 X-0.9347 Y1.8567 
G01 X-0.9569 Y1.8554 
G01 X-0.9791 Y1.8528 
G01 X-1.0011 Y1.8489 
G01 X-1.0227 Y1.8436 
G01 X-1.0441 Y1.8371 
G01 X-1.0650 Y1.8293 
G01 X-1.0853 Y1.8202 
G01 X-1.1051 Y1.8099 
G01 X-1.1243 Y1.7984 
G01 X-1.1427 Y1.7858 
G01 X-1.1603 Y1.7721 
G01 X-1.1771 Y1.7574 
G01 X-1.1929 Y1.7417 
G01 X-1.2077 Y1.7251 
G01 X-1.2216 Y1.7076 
G01 X-1.2343 Y1.6893 
G01 X-1.2459 Y1.6702 
G01 X-1.2564 Y1.6505 
G01 X-1.2656 Y1.6302 
G01 X-1.2736 Y1.6094 
G01 X-1.2803 Y1.5881 
G01 X-1.2858 Y1.5665 
G01 X-1.2899 Y1.5445 
G01 X-1.2927 Y1.5224 
G01 X-1.2935 Y1.5118 
G01 X-1.2935 Y1.3147 
G01 X-1.2894 Y1.3126 
G01 X-1.2838 Y1.3086 
G01 X-1.2789 Y1.3037 
G01 X-1.2749 Y1.2981 
G01 X-1.2717 Y1.2919 
G01 X-1.2696 Y1.2853 
G01 X-1.2685 Y1.2785 
G01 X-1.2685 Y1.2715 
G01 X-1.2696 Y1.2647 
G01 X-1.2717 Y1.2581 
G01 X-1.2749 Y1.2519 
G01 X-1.2789 Y1.2463 
G01 X-1.2838 Y1.2414 
G01 X-1.2894 Y1.2374 
G01 X-1.2956 Y1.2342 
G01 X-1.3022 Y1.2321 
G01 X-1.3090 Y1.2310 
G01 X-1.3160 Y1.2310 
G01 X-1.3228 Y1.2321 
G01 X-1.3294 Y1.2342 
G01 X-1.3356 Y1.2374 
G01 X-1.3412 Y1.2414 
G01 X-1.3461 Y1.2463 
G01 X-1.3501 Y1.2519 
G01 X-1.3533 Y1.2581 
G01 X-1.3554 Y1.2647 
G01 X-1.3565 Y1.2715 
G01 X-1.3565 Y1.2785 
G01 X-1.3554 Y1.2853 
G01 X-1.3533 Y1.2919 
G01 X-1.3501 Y1.2981 
G01 X-1.3461 Y1.3037 
G01 X-1.3412 Y1.3086 
G01 X-1.3356 Y1.3126 
G01 X-1.3315 Y1.3147 
G01 X-1.3315 Y1.5106 
G01 X-1.3316 Y1.5112 
G01 X-1.3315 Y1.5131 
G01 X-1.3315 Y1.5150 
G01 X-1.3313 Y1.5156 
G01 X-1.3307 Y1.5260 
G01 X-1.3276 Y1.5504 
G01 X-1.3231 Y1.5746 
G01 X-1.3171 Y1.5985 
G01 X-1.3097 Y1.6220 
G01 X-1.3008 Y1.6449 
G01 X-1.2907 Y1.6674 
G01 X-1.2791 Y1.6891 
G01 X-1.2663 Y1.7101 
G01 X-1.2522 Y1.7303 
G01 X-1.2370 Y1.7496 
G01 X-1.2206 Y1.7680 
G01 X-1.2031 Y1.7853 
G01 X-1.1846 Y1.8016 
G01 X-1.1652 Y1.8167 
G01 X-1.1449 Y1.8306 
G01 X-1.1238 Y1.8432 
G01 X-1.1019 Y1.8546 
G01 X-1.0794 Y1.8646 
G01 X-1.0564 Y1.8732 
G01 X-1.0328 Y1.8805 
G01 X-1.0089 Y1.8863 
G01 X-0.9847 Y1.8906 
G01 X-0.9602 Y1.8935 
G01 X-0.9357 Y1.8949 
G01 X-0.9111 Y1.8948 
G01 X-0.8994 Y1.8940 
G01 X-0.8476 Y1.8940 
G01 X-0.8279 Y1.8925 
G01 X-0.8084 Y1.8896 
G01 X-0.7891 Y1.8852 
G01 X-0.7702 Y1.8794 
G01 X-0.7519 Y1.8721 
G01 X-0.7341 Y1.8636 
G01 X-0.7169 Y1.8537 
G01 X-0.7006 Y1.8426 
G01 X-0.6852 Y1.8302 
G01 X-0.6707 Y1.8168 
G01 X-0.6573 Y1.8023 
G01 X-0.6449 Y1.7869 
G01 X-0.6338 Y1.7706 
G01 X-0.6239 Y1.7534 
G01 X-0.6154 Y1.7356 
G01 X-0.6081 Y1.7173 
G01 X-0.6023 Y1.6984 
G01 X-0.5979 Y1.6791 
G01 X-0.5971 Y1.6740 
G01 X-0.5943 Y1.6740 
G01 X-0.5685 Y1.6482 
G01 X-0.5685 Y1.6118 
G01 X-0.5943 Y1.5860 
G01 X-0.6307 Y1.5860 
G01 X-0.6565 Y1.6118 
G00 Z0.1000 
G00 X-0.6565 Y1.5018 
G01 Z-0.0020 F20.00 
G01 X-0.6565 Y1.5382 F20.00 
G01 X-0.6307 Y1.5640 
G01 X-0.5943 Y1.5640 
G01 X-0.5685 Y1.5382 
G01 X-0.5685 Y1.5018 
G01 X-0.5935 Y1.4768 
G01 X-0.5935 Y1.3147 
G01 X-0.5894 Y1.3126 
G01 X-0.5838 Y1.3086 
G01 X-0.5789 Y1.3037 
G01 X-0.5749 Y1.2981 
G01 X-0.5717 Y1.2919 
G01 X-0.5696 Y1.2853 
G01 X-0.5685 Y1.2785 
G01 X-0.5685 Y1.2715 
G01 X-0.5696 Y1.2647 
G01 X-0.5717 Y1.2581 
G01 X-0.5749 Y1.2519 
G01 X-0.5789 Y1.2463 
G01 X-0.5838 Y1.2414 
G01 X-0.5894 Y1.2374 
G01 X-0.5956 Y1.2342 
G01 X-0.6022 Y1.2321 
G01 X-0.6090 Y1.2310 
G01 X-0.6160 Y1.2310 
G01 X-0.6228 Y1.2321 
G01 X-0.6294 Y1.2342 
G01 X-0.6356 Y1.2374 
G01 X-0.6412 Y1.2414 
G01 X-0.6461 Y1.2463 
G01 X-0.6501 Y1.2519 
G01 X-0.6533 Y1.2581 
G01 X-0.6554 Y1.2647 
G01 X-0.6565 Y1.2715 
G01 X-0.6565 Y1.2785 
G01 X-0.6554 Y1.2853 
G01 X-0.6533 Y1.2919 
G01 X-0.6501 Y1.2981 
G01 X-0.6461 Y1.3037 
G01 X-0.6412 Y1.3086 
G01 X-0.6356 Y1.3126 
G01 X-0.6315 Y1.3147 
G01 X-0.6315 Y1.4768 
G01 X-0.6565 Y1.5018 
G00 Z0.1000 
G00 X-2.0565 Y1.6482 
G01 Z-0.0020 F20.00 
G01 X-2.0307 Y1.6740 F20.00 
G01 X-1.9943 Y1.6740 
G01 X-1.9685 Y1.6482 
G01 X-1.9685 Y1.6118 
G01 X-1.9943 Y1.5860 
G01 X-2.0307 Y1.5860 
G01 X-2.0476 Y1.6029 
G01 X-2.0517 Y1.6009 
G01 X-2.0594 Y1.5961 
G01 X-2.0665 Y1.5904 
G01 X-2.0729 Y1.5840 
G01 X-2.0786 Y1.5769 
G01 X-2.0834 Y1.5692 
G01 X-2.0873 Y1.5610 
G01 X-2.0903 Y1.5524 
G01 X-2.0924 Y1.5436 
G01 X-2.0934 Y1.5345 
G01 X-2.0935 Y1.5300 
G01 X-2.0935 Y1.3147 
G01 X-2.0894 Y1.3126 
G01 X-2.0838 Y1.3086 
G01 X-2.0789 Y1.3037 
G01 X-2.0749 Y1.2981 
G01 X-2.0717 Y1.2919 
G01 X-2.0696 Y1.2853 
G01 X-2.0685 Y1.2785 
G01 X-2.0685 Y1.2715 
G01 X-2.0696 Y1.2647 
G01 X-2.0717 Y1.2581 
G01 X-2.0749 Y1.2519 
G01 X-2.0789 Y1.2463 
G01 X-2.0838 Y1.2414 
G01 X-2.0894 Y1.2374 
G01 X-2.0956 Y1.2342 
G01 X-2.1022 Y1.2321 
G01 X-2.1090 Y1.2310 
G01 X-2.1160 Y1.2310 
G01 X-2.1228 Y1.2321 
G01 X-2.1294 Y1.2342 
G01 X-2.1356 Y1.2374 
G01 X-2.1412 Y1.2414 
G01 X-2.1461 Y1.2463 
G01 X-2.1501 Y1.2519 
G01 X-2.1533 Y1.2581 
G01 X-2.1554 Y1.2647 
G01 X-2.1565 Y1.2715 
G01 X-2.1565 Y1.2785 
G01 X-2.1554 Y1.2853 
G01 X-2.1533 Y1.2919 
G01 X-2.1501 Y1.2981 
G01 X-2.1461 Y1.3037 
G01 X-2.1412 Y1.3086 
G01 X-2.1356 Y1.3126 
G01 X-2.1315 Y1.3147 
G01 X-2.1315 Y1.5367 
G01 X-2.1300 Y1.5500 
G01 X-2.1270 Y1.5630 
G01 X-2.1226 Y1.5756 
G01 X-2.1168 Y1.5877 
G01 X-2.1097 Y1.5990 
G01 X-2.1014 Y1.6094 
G01 X-2.0919 Y1.6189 
G01 X-2.0815 Y1.6272 
G01 X-2.0702 Y1.6343 
G01 X-2.0581 Y1.6401 
G01 X-2.0565 Y1.6407 
G01 X-2.0565 Y1.6482 
G00 Z0.1000 
G00 X-1.9565 Y1.6118 
G01 Z-0.0020 F20.00 
G01 X-1.9565 Y1.6482 F20.00 
G01 X-1.9446 Y1.6601 
G01 X-1.9452 Y1.6611 
G01 X-1.9513 Y1.6701 
G01 X-1.9583 Y1.6784 
G01 X-1.9660 Y1.6861 
G01 X-1.9745 Y1.6929 
G01 X-1.9835 Y1.6989 
G01 X-1.9931 Y1.7040 
G01 X-2.0032 Y1.7081 
G01 X-2.0136 Y1.7113 
G01 X-2.0242 Y1.7134 
G01 X-2.0350 Y1.7145 
G01 X-2.0459 Y1.7146 
G01 X-2.0567 Y1.7136 
G01 X-2.0674 Y1.7115 
G01 X-2.0778 Y1.7085 
G01 X-2.0879 Y1.7044 
G01 X-2.0975 Y1.6994 
G01 X-2.1015 Y1.6970 
G01 X-2.1025 Y1.6962 
G01 X-2.1034 Y1.6957 
G01 X-2.1043 Y1.6952 
G01 X-2.1057 Y1.6947 
G01 X-2.1071 Y1.6941 
G01 X-2.1081 Y1.6940 
G01 X-2.1090 Y1.6937 
G01 X-2.1103 Y1.6936 
G01 X-2.1147 Y1.6928 
G01 X-2.1250 Y1.6900 
G01 X-2.1349 Y1.6862 
G01 X-2.1443 Y1.6814 
G01 X-2.1532 Y1.6757 
G01 X-2.1614 Y1.6690 
G01 X-2.1689 Y1.6615 
G01 X-2.1756 Y1.6533 
G01 X-2.1814 Y1.6444 
G01 X-2.1862 Y1.6350 
G01 X-2.1900 Y1.6251 
G01 X-2.1927 Y1.6148 
G01 X-2.1944 Y1.6044 
G01 X-2.1950 Y1.5938 
G01 X-2.1944 Y1.5832 
G01 X-2.1938 Y1.5788 
G01 X-2.1935 Y1.5775 
G01 X-2.1935 Y1.5765 
G01 X-2.1933 Y1.5755 
G01 X-2.1935 Y1.5740 
G01 X-2.1935 Y1.3147 
G01 X-2.1894 Y1.3126 
G01 X-2.1838 Y1.3086 
G01 X-2.1789 Y1.3037 
G01 X-2.1749 Y1.2981 
G01 X-2.1717 Y1.2919 
G01 X-2.1696 Y1.2853 
G01 X-2.1685 Y1.2785 
G01 X-2.1685 Y1.2715 
G01 X-2.1696 Y1.2647 
G01 X-2.1717 Y1.2581 
G01 X-2.1749 Y1.2519 
G01 X-2.1789 Y1.2463 
G01 X-2.1838 Y1.2414 
G01 X-2.1894 Y1.2374 
G01 X-2.1956 Y1.2342 
G01 X-2.2022 Y1.2321 
G01 X-2.2090 Y1.2310 
G01 X-2.2160 Y1.2310 
G01 X-2.2228 Y1.2321 
G01 X-2.2294 Y1.2342 
G01 X-2.2356 Y1.2374 
G01 X-2.2412 Y1.2414 
G01 X-2.2461 Y1.2463 
G01 X-2.2501 Y1.2519 
G01 X-2.2533 Y1.2581 
G01 X-2.2554 Y1.2647 
G01 X-2.2565 Y1.2715 
G01 X-2.2565 Y1.2785 
G01 X-2.2554 Y1.2853 
G01 X-2.2533 Y1.2919 
G01 X-2.2501 Y1.2981 
G01 X-2.2461 Y1.3037 
G01 X-2.2412 Y1.3086 
G01 X-2.2356 Y1.3126 
G01 X-2.2315 Y1.3147 
G01 X-2.2315 Y1.5735 
G01 X-2.2324 Y1.5792 
G01 X-2.2332 Y1.5938 
G01 X-2.2324 Y1.6084 
G01 X-2.2301 Y1.6228 
G01 X-2.2263 Y1.6369 
G01 X-2.2211 Y1.6505 
G01 X-2.2145 Y1.6635 
G01 X-2.2065 Y1.6757 
G01 X-2.1973 Y1.6871 
G01 X-2.1870 Y1.6974 
G01 X-2.1756 Y1.7066 
G01 X-2.1634 Y1.7145 
G01 X-2.1504 Y1.7211 
G01 X-2.1368 Y1.7264 
G01 X-2.1227 Y1.7301 
G01 X-2.1195 Y1.7306 
G01 X-2.1167 Y1.7324 
G01 X-2.1038 Y1.7391 
G01 X-2.0903 Y1.7445 
G01 X-2.0764 Y1.7486 
G01 X-2.0621 Y1.7514 
G01 X-2.0476 Y1.7527 
G01 X-2.0330 Y1.7527 
G01 X-2.0185 Y1.7512 
G01 X-2.0043 Y1.7483 
G01 X-1.9903 Y1.7441 
G01 X-1.9769 Y1.7385 
G01 X-1.9640 Y1.7317 
G01 X-1.9519 Y1.7237 
G01 X-1.9406 Y1.7145 
G01 X-1.9302 Y1.7043 
G01 X-1.9209 Y1.6931 
G01 X-1.9127 Y1.6811 
G01 X-1.9087 Y1.6740 
G01 X-1.8943 Y1.6740 
G01 X-1.8685 Y1.6482 
G01 X-1.8685 Y1.6118 
G01 X-1.8943 Y1.5860 
G01 X-1.9307 Y1.5860 
G01 X-1.9565 Y1.6118 
G00 Z0.1000 
G00 X-1.9565 Y1.5018 
G01 Z-0.0020 F20.00 
G01 X-1.9565 Y1.5382 F20.00 
G01 X-1.9307 Y1.5640 
G01 X-1.8943 Y1.5640 
G01 X-1.8685 Y1.5382 
G01 X-1.8685 Y1.5018 
G01 X-1.8935 Y1.4768 
G01 X-1.8935 Y1.3147 
G01 X-1.8894 Y1.3126 
G01 X-1.8838 Y1.3086 
G01 X-1.8789 Y1.3037 
G01 X-1.8749 Y1.2981 
G01 X-1.8717 Y1.2919 
G01 X-1.8696 Y1.2853 
G01 X-1.8685 Y1.2785 
G01 X-1.8685 Y1.2715 
G01 X-1.8696 Y1.2647 
G01 X-1.8717 Y1.2581 
G01 X-1.8749 Y1.2519 
G01 X-1.8789 Y1.2463 
G01 X-1.8838 Y1.2414 
G01 X-1.8894 Y1.2374 
G01 X-1.8956 Y1.2342 
G01 X-1.9022 Y1.2321 
G01 X-1.9090 Y1.2310 
G01 X-1.9160 Y1.2310 
G01 X-1.9228 Y1.2321 
G01 X-1.9294 Y1.2342 
G01 X-1.9356 Y1.2374 
G01 X-1.9412 Y1.2414 
G01 X-1.9461 Y1.2463 
G01 X-1.9501 Y1.2519 
G01 X-1.9533 Y1.2581 
G01 X-1.9554 Y1.2647 
G01 X-1.9565 Y1.2715 
G01 X-1.9565 Y1.2785 
G01 X-1.9554 Y1.2853 
G01 X-1.9533 Y1.2919 
G01 X-1.9501 Y1.2981 
G01 X-1.9461 Y1.3037 
G01 X-1.9412 Y1.3086 
G01 X-1.9356 Y1.3126 
G01 X-1.9315 Y1.3147 
G01 X-1.9315 Y1.4768 
G01 X-1.9565 Y1.5018 
G00 Z0.1000 
G00 X-1.8565 Y1.6118 
G01 Z-0.0020 F20.00 
G01 X-1.8565 Y1.6482 F20.00 
G01 X-1.8359 Y1.6688 
G01 X-1.8388 Y1.6802 
G01 X-1.8435 Y1.6940 
G01 X-1.8494 Y1.7073 
G01 X-1.8563 Y1.7201 
G01 X-1.8643 Y1.7323 
G01 X-1.8732 Y1.7437 
G01 X-1.8830 Y1.7545 
G01 X-1.8938 Y1.7643 
G01 X-1.9052 Y1.7732 
G01 X-1.9174 Y1.7812 
G01 X-1.9302 Y1.7881 
G01 X-1.9435 Y1.7940 
G01 X-1.9573 Y1.7987 
G01 X-1.9714 Y1.8023 
G01 X-1.9857 Y1.8046 
G01 X-2.0002 Y1.8058 
G01 X-2.0075 Y1.8060 
G01 X-2.0125 Y1.8060 
G01 X-2.0221 Y1.8058 
G01 X-2.0412 Y1.8045 
G01 X-2.0602 Y1.8019 
G01 X-2.0790 Y1.7980 
G01 X-2.0975 Y1.7928 
G01 X-2.1156 Y1.7864 
G01 X-2.1332 Y1.7788 
G01 X-2.1502 Y1.7699 
G01 X-2.1666 Y1.7600 
G01 X-2.1823 Y1.7489 
G01 X-2.1972 Y1.7368 
G01 X-2.2112 Y1.7237 
G01 X-2.2243 Y1.7097 
G01 X-2.2364 Y1.6948 
G01 X-2.2475 Y1.6791 
G01 X-2.2574 Y1.6627 
G01 X-2.2663 Y1.6457 
G01 X-2.2739 Y1.6281 
G01 X-2.2803 Y1.6100 
G01 X-2.2855 Y1.5915 
G01 X-2.2894 Y1.5727 
G01 X-2.2920 Y1.5537 
G01 X-2.2933 Y1.5346 
G01 X-2.2935 Y1.5250 
G01 X-2.2935 Y1.3147 
G01 X-2.2894 Y1.3126 
G01 X-2.2838 Y1.3086 
G01 X-2.2789 Y1.3037 
G01 X-2.2749 Y1.2981 
G01 X-2.2717 Y1.2919 
G01 X-2.2696 Y1.2853 
G01 X-2.2685 Y1.2785 
G01 X-2.2685 Y1.2715 
G01 X-2.2696 Y1.2647 
G01 X-2.2717 Y1.2581 
G01 X-2.2749 Y1.2519 
G01 X-2.2789 Y1.2463 
G01 X-2.2838 Y1.2414 
G01 X-2.2894 Y1.2374 
G01 X-2.2956 Y1.2342 
G01 X-2.3022 Y1.2321 
G01 X-2.3090 Y1.2310 
G01 X-2.3160 Y1.2310 
G01 X-2.3228 Y1.2321 
G01 X-2.3294 Y1.2342 
G01 X-2.3356 Y1.2374 
G01 X-2.3412 Y1.2414 
G01 X-2.3461 Y1.2463 
G01 X-2.3501 Y1.2519 
G01 X-2.3533 Y1.2581 
G01 X-2.3554 Y1.2647 
G01 X-2.3565 Y1.2715 
G01 X-2.3565 Y1.2785 
G01 X-2.3554 Y1.2853 
G01 X-2.3533 Y1.2919 
G01 X-2.3501 Y1.2981 
G01 X-2.3461 Y1.3037 
G01 X-2.3412 Y1.3086 
G01 X-2.3356 Y1.3126 
G01 X-2.3315 Y1.3147 
G01 X-2.3315 Y1.5359 
G01 X-2.3300 Y1.5576 
G01 X-2.3270 Y1.5792 
G01 X-2.3226 Y1.6006 
G01 X-2.3167 Y1.6216 
G01 X-2.3094 Y1.6421 
G01 X-2.3007 Y1.6621 
G01 X-2.2907 Y1.6814 
G01 X-2.2794 Y1.7001 
G01 X-2.2668 Y1.7179 
G01 X-2.2531 Y1.7348 
G01 X-2.2382 Y1.7507 
G01 X-2.2223 Y1.7656 
G01 X-2.2054 Y1.7793 
G01 X-2.1876 Y1.7919 
G01 X-2.1689 Y1.8032 
G01 X-2.1496 Y1.8132 
G01 X-2.1296 Y1.8219 
G01 X-2.1091 Y1.8292 
G01 X-2.0881 Y1.8351 
G01 X-2.0667 Y1.8395 
G01 X-2.0451 Y1.8425 
G01 X-2.0234 Y1.8440 
G01 X-1.9986 Y1.8440 
G01 X-1.9810 Y1.8425 
G01 X-1.9635 Y1.8396 
G01 X-1.9464 Y1.8353 
G01 X-1.9296 Y1.8295 
G01 X-1.9134 Y1.8224 
G01 X-1.8979 Y1.8140 
G01 X-1.8830 Y1.8043 
G01 X-1.8691 Y1.7934 
G01 X-1.8560 Y1.7815 
G01 X-1.8441 Y1.7684 
G01 X-1.8332 Y1.7545 
G01 X-1.8235 Y1.7396 
G01 X-1.8151 Y1.7241 
G01 X-1.8080 Y1.7079 
G01 X-1.8022 Y1.6911 
G01 X-1.7979 Y1.6740 
G01 X-1.7943 Y1.6740 
G01 X-1.7685 Y1.6482 
G01 X-1.7685 Y1.6118 
G01 X-1.7943 Y1.5860 
G01 X-1.8307 Y1.5860 
G01 X-1.8565 Y1.6118 
G00 Z0.1000 
G00 X-1.7565 Y1.5018 
G01 Z-0.0020 F20.00 
G01 X-1.7565 Y1.5382 F20.00 
G01 X-1.7307 Y1.5640 
G01 X-1.6943 Y1.5640 
G01 X-1.6685 Y1.5382 
G01 X-1.6685 Y1.5018 
G01 X-1.6935 Y1.4768 
G01 X-1.6935 Y1.3147 
G01 X-1.6894 Y1.3126 
G01 X-1.6838 Y1.3086 
G01 X-1.6789 Y1.3037 
G01 X-1.6749 Y1.2981 
G01 X-1.6717 Y1.2919 
G01 X-1.6696 Y1.2853 
G01 X-1.6685 Y1.2785 
G01 X-1.6685 Y1.2715 
G01 X-1.6696 Y1.2647 
G01 X-1.6717 Y1.2581 
G01 X-1.6749 Y1.2519 
G01 X-1.6789 Y1.2463 
G01 X-1.6838 Y1.2414 
G01 X-1.6894 Y1.2374 
G01 X-1.6956 Y1.2342 
G01 X-1.7022 Y1.2321 
G01 X-1.7090 Y1.2310 
G01 X-1.7160 Y1.2310 
G01 X-1.7228 Y1.2321 
G01 X-1.7294 Y1.2342 
G01 X-1.7356 Y1.2374 
G01 X-1.7412 Y1.2414 
G01 X-1.7461 Y1.2463 
G01 X-1.7501 Y1.2519 
G01 X-1.7533 Y1.2581 
G01 X-1.7554 Y1.2647 
G01 X-1.7565 Y1.2715 
G01 X-1.7565 Y1.2785 
G01 X-1.7554 Y1.2853 
G01 X-1.7533 Y1.2919 
G01 X-1.7501 Y1.2981 
G01 X-1.7461 Y1.3037 
G01 X-1.7412 Y1.3086 
G01 X-1.7356 Y1.3126 
G01 X-1.7315 Y1.3147 
G01 X-1.7315 Y1.4768 
G01 X-1.7565 Y1.5018 
G00 Z0.1000 
G00 X-1.4065 Y0.4243 
G01 Z-0.0020 F20.00 
G01 X-1.4065 Y0.4607 F20.00 
G01 X-1.3807 Y0.4865 
G01 X-1.3725 Y0.4865 
G01 X-1.3394 Y0.6402 
G01 X-1.3412 Y0.6414 
G01 X-1.3461 Y0.6463 
G01 X-1.3501 Y0.6519 
G01 X-1.3533 Y0.6581 
G01 X-1.3554 Y0.6647 
G01 X-1.3565 Y0.6715 
G01 X-1.3565 Y0.6785 
G01 X-1.3554 Y0.6853 
G01 X-1.3533 Y0.6919 
G01 X-1.3501 Y0.6981 
G01 X-1.3461 Y0.7037 
G01 X-1.3412 Y0.7086 
G01 X-1.3356 Y0.7126 
G01 X-1.3294 Y0.7158 
G01 X-1.3228 Y0.7179 
G01 X-1.3160 Y0.7190 
G01 X-1.3090 Y0.7190 
G01 X-1.3022 Y0.7179 
G01 X-1.2956 Y0.7158 
G01 X-1.2894 Y0.7126 
G01 X-1.2838 Y0.7086 
G01 X-1.2789 Y0.7037 
G01 X-1.2749 Y0.6981 
G01 X-1.2717 Y0.6919 
G01 X-1.2696 Y0.6853 
G01 X-1.2685 Y0.6785 
G01 X-1.2685 Y0.6715 
G01 X-1.2696 Y0.6647 
G01 X-1.2717 Y0.6581 
G01 X-1.2749 Y0.6519 
G01 X-1.2789 Y0.6463 
G01 X-1.2838 Y0.6414 
G01 X-1.2894 Y0.6374 
G01 X-1.2956 Y0.6342 
G01 X-1.3022 Y0.6321 
G01 X-1.3023 Y0.6321 
G01 X-1.3355 Y0.4777 
G01 X-1.3185 Y0.4607 
G01 X-1.3185 Y0.4243 
G01 X-1.3443 Y0.3985 
G01 X-1.3807 Y0.3985 
G01 X-1.4065 Y0.4243 
G00 Z0.1000 
G00 X-1.6065 Y0.4243 
G01 Z-0.0020 F20.00 
G01 X-1.6065 Y0.4607 F20.00 
G01 X-1.5807 Y0.4865 
G01 X-1.5725 Y0.4865 
G01 X-1.5394 Y0.6402 
G01 X-1.5412 Y0.6414 
G01 X-1.5461 Y0.6463 
G01 X-1.5501 Y0.6519 
G01 X-1.5533 Y0.6581 
G01 X-1.5554 Y0.6647 
G01 X-1.5565 Y0.6715 
G01 X-1.5565 Y0.6785 
G01 X-1.5554 Y0.6853 
G01 X-1.5533 Y0.6919 
G01 X-1.5501 Y0.6981 
G01 X-1.5461 Y0.7037 
G01 X-1.5412 Y0.7086 
G01 X-1.5356 Y0.7126 
G01 X-1.5294 Y0.7158 
G01 X-1.5228 Y0.7179 
G01 X-1.5160 Y0.7190 
G01 X-1.5090 Y0.7190 
G01 X-1.5022 Y0.7179 
G01 X-1.4956 Y0.7158 
G01 X-1.4894 Y0.7126 
G01 X-1.4838 Y0.7086 
G01 X-1.4789 Y0.7037 
G01 X-1.4749 Y0.6981 
G01 X-1.4717 Y0.6919 
G01 X-1.4696 Y0.6853 
G01 X-1.4685 Y0.6785 
G01 X-1.4685 Y0.6715 
G01 X-1.4696 Y0.6647 
G01 X-1.4717 Y0.6581 
G01 X-1.4749 Y0.6519 
G01 X-1.4789 Y0.6463 
G01 X-1.4838 Y0.6414 
G01 X-1.4894 Y0.6374 
G01 X-1.4956 Y0.6342 
G01 X-1.5022 Y0.6321 
G01 X-1.5023 Y0.6321 
G01 X-1.5355 Y0.4777 
G01 X-1.5185 Y0.4607 
G01 X-1.5185 Y0.4243 
G01 X-1.5443 Y0.3985 
G01 X-1.5807 Y0.3985 
G01 X-1.6065 Y0.4243 
G00 Z0.1000 
G00 X-1.8065 Y0.4243 
G01 Z-0.0020 F20.00 
G01 X-1.8065 Y0.4607 F20.00 
G01 X-1.7807 Y0.4865 
G01 X-1.7443 Y0.4865 
G01 X-1.7185 Y0.4607 
G01 X-1.7185 Y0.4243 
G01 X-1.7443 Y0.3985 
G01 X-1.7807 Y0.3985 
G01 X-1.8065 Y0.4243 
G00 Z0.1000 
G00 X-2.2565 Y0.4243 
G01 Z-0.0020 F20.00 
G01 X-2.2565 Y0.4607 F20.00 
G01 X-2.2307 Y0.4865 
G01 X-2.2143 Y0.4865 
G01 X-2.1457 Y0.6460 
G01 X-2.1461 Y0.6463 
G01 X-2.1501 Y0.6519 
G01 X-2.1533 Y0.6581 
G01 X-2.1554 Y0.6647 
G01 X-2.1565 Y0.6715 
G01 X-2.1565 Y0.6785 
G01 X-2.1554 Y0.6853 
G01 X-2.1533 Y0.6919 
G01 X-2.1501 Y0.6981 
G01 X-2.1461 Y0.7037 
G01 X-2.1412 Y0.7086 
G01 X-2.1356 Y0.7126 
G01 X-2.1294 Y0.7158 
G01 X-2.1228 Y0.7179 
G01 X-2.1160 Y0.7190 
G01 X-2.1090 Y0.7190 
G01 X-2.1022 Y0.7179 
G01 X-2.0956 Y0.7158 
G01 X-2.0894 Y0.7126 
G01 X-2.0838 Y0.7086 
G01 X-2.0789 Y0.7037 
G01 X-2.0749 Y0.6981 
G01 X-2.0717 Y0.6919 
G01 X-2.0696 Y0.6853 
G01 X-2.0685 Y0.6785 
G01 X-2.0685 Y0.6715 
G01 X-2.0696 Y0.6647 
G01 X-2.0717 Y0.6581 
G01 X-2.0749 Y0.6519 
G01 X-2.0789 Y0.6463 
G01 X-2.0838 Y0.6414 
G01 X-2.0894 Y0.6374 
G01 X-2.0956 Y0.6342 
G01 X-2.1022 Y0.6321 
G01 X-2.1090 Y0.6310 
G01 X-2.1107 Y0.6310 
G01 X-2.1793 Y0.4715 
G01 X-2.1685 Y0.4607 
G01 X-2.1685 Y0.4243 
G01 X-2.1943 Y0.3985 
G01 X-2.2307 Y0.3985 
G01 X-2.2565 Y0.4243 
G00 Z0.1000 
G00 X-2.4565 Y0.4243 
G01 Z-0.0020 F20.00 
G01 X-2.4565 Y0.4607 F20.00 
G01 X-2.4307 Y0.4865 
G01 X-2.4143 Y0.4865 
G01 X-2.3457 Y0.6460 
G01 X-2.3461 Y0.6463 
G01 X-2.3501 Y0.6519 
G01 X-2.3533 Y0.6581 
G01 X-2.3554 Y0.6647 
G01 X-2.3565 Y0.6715 
G01 X-2.3565 Y0.6785 
G01 X-2.3554 Y0.6853 
G01 X-2.3533 Y0.6919 
G01 X-2.3501 Y0.6981 
G01 X-2.3461 Y0.7037 
G01 X-2.3412 Y0.7086 
G01 X-2.3356 Y0.7126 
G01 X-2.3294 Y0.7158 
G01 X-2.3228 Y0.7179 
G01 X-2.3160 Y0.7190 
G01 X-2.3090 Y0.7190 
G01 X-2.3022 Y0.7179 
G01 X-2.2956 Y0.7158 
G01 X-2.2894 Y0.7126 
G01 X-2.2838 Y0.7086 
G01 X-2.2789 Y0.7037 
G01 X-2.2749 Y0.6981 
G01 X-2.2717 Y0.6919 
G01 X-2.2696 Y0.6853 
G01 X-2.2685 Y0.6785 
G01 X-2.2685 Y0.6715 
G01 X-2.2696 Y0.6647 
G01 X-2.2717 Y0.6581 
G01 X-2.2749 Y0.6519 
G01 X-2.2789 Y0.6463 
G01 X-2.2838 Y0.6414 
G01 X-2.2894 Y0.6374 
G01 X-2.2956 Y0.6342 
G01 X-2.3022 Y0.6321 
G01 X-2.3090 Y0.6310 
G01 X-2.3107 Y0.6310 
G01 X-2.3793 Y0.4715 
G01 X-2.3685 Y0.4607 
G01 X-2.3685 Y0.4243 
G01 X-2.3943 Y0.3985 
G01 X-2.4307 Y0.3985 
G01 X-2.4565 Y0.4243 
G00 Z0.1000 
G00 X-0.7190 Y0.4243 
G01 Z-0.0020 F20.00 
G01 X-0.7190 Y0.4607 F20.00 
G01 X-0.7002 Y0.4795 
G01 X-0.7249 Y0.6328 
G01 X-0.7294 Y0.6342 
G01 X-0.7356 Y0.6374 
G01 X-0.7412 Y0.6414 
G01 X-0.7461 Y0.6463 
G01 X-0.7501 Y0.6519 
G01 X-0.7533 Y0.6581 
G01 X-0.7554 Y0.6647 
G01 X-0.7565 Y0.6715 
G01 X-0.7565 Y0.6785 
G01 X-0.7554 Y0.6853 
G01 X-0.7533 Y0.6919 
G01 X-0.7501 Y0.6981 
G01 X-0.7461 Y0.7037 
G01 X-0.7412 Y0.7086 
G01 X-0.7356 Y0.7126 
G01 X-0.7294 Y0.7158 
G01 X-0.7228 Y0.7179 
G01 X-0.7160 Y0.7190 
G01 X-0.7090 Y0.7190 
G01 X-0.7022 Y0.7179 
G01 X-0.6956 Y0.7158 
G01 X-0.6894 Y0.7126 
G01 X-0.6838 Y0.7086 
G01 X-0.6789 Y0.7037 
G01 X-0.6749 Y0.6981 
G01 X-0.6717 Y0.6919 
G01 X-0.6696 Y0.6853 
G01 X-0.6685 Y0.6785 
G01 X-0.6685 Y0.6715 
G01 X-0.6696 Y0.6647 
G01 X-0.6717 Y0.6581 
G01 X-0.6749 Y0.6519 
G01 X-0.6789 Y0.6463 
G01 X-0.6838 Y0.6414 
G01 X-0.6874 Y0.6388 
G01 X-0.6629 Y0.4865 
G01 X-0.6568 Y0.4865 
G01 X-0.6310 Y0.4607 
G01 X-0.6310 Y0.4243 
G01 X-0.6568 Y0.3985 
G01 X-0.6932 Y0.3985 
G01 X-0.7190 Y0.4243 
G00 Z0.1000 
G00 X-0.9190 Y0.4243 
G01 Z-0.0020 F20.00 
G01 X-0.9190 Y0.4607 F20.00 
G01 X-0.8932 Y0.4865 
G01 X-0.8568 Y0.4865 
G01 X-0.8310 Y0.4607 
G01 X-0.8310 Y0.4243 
G01 X-0.8568 Y0.3985 
G01 X-0.8932 Y0.3985 
G01 X-0.9190 Y0.4243 
G00 Z0.1000 
G00 X-1.9216 Y0.7560 
G01 Z-0.0020 F20.00 
G01 X-1.9396 Y0.7575 F20.00 
G01 X-1.9575 Y0.7605 
G01 X-1.9750 Y0.7649 
G01 X-1.9922 Y0.7708 
G01 X-2.0088 Y0.7781 
G01 X-2.0247 Y0.7867 
G01 X-2.0399 Y0.7966 
G01 X-2.0542 Y0.8077 
G01 X-2.0675 Y0.8200 
G01 X-2.0798 Y0.8333 
G01 X-2.0909 Y0.8476 
G01 X-2.1008 Y0.8628 
G01 X-2.1094 Y0.8787 
G01 X-2.1167 Y0.8953 
G01 X-2.1226 Y0.9125 
G01 X-2.1270 Y0.9300 
G01 X-2.1276 Y0.9337 
G01 X-2.1294 Y0.9342 
G01 X-2.1356 Y0.9374 
G01 X-2.1412 Y0.9414 
G01 X-2.1461 Y0.9463 
G01 X-2.1501 Y0.9519 
G01 X-2.1533 Y0.9581 
G01 X-2.1554 Y0.9647 
G01 X-2.1565 Y0.9715 
G01 X-2.1565 Y0.9785 
G01 X-2.1554 Y0.9853 
G01 X-2.1533 Y0.9919 
G01 X-2.1501 Y0.9981 
G01 X-2.1461 Y1.0037 
G01 X-2.1412 Y1.0086 
G01 X-2.1356 Y1.0126 
G01 X-2.1294 Y1.0158 
G01 X-2.1228 Y1.0179 
G01 X-2.1160 Y1.0190 
G01 X-2.1090 Y1.0190 
G01 X-2.1022 Y1.0179 
G01 X-2.0956 Y1.0158 
G01 X-2.0894 Y1.0126 
G01 X-2.0838 Y1.0086 
G01 X-2.0789 Y1.0037 
G01 X-2.0749 Y0.9981 
G01 X-2.0717 Y0.9919 
G01 X-2.0696 Y0.9853 
G01 X-2.0685 Y0.9785 
G01 X-2.0685 Y0.9715 
G01 X-2.0696 Y0.9647 
G01 X-2.0717 Y0.9581 
G01 X-2.0749 Y0.9519 
G01 X-2.0789 Y0.9463 
G01 X-2.0838 Y0.9414 
G01 X-2.0894 Y0.9374 
G01 X-2.0860 Y0.9234 
G01 X-2.0811 Y0.9092 
G01 X-2.0751 Y0.8955 
G01 X-2.0680 Y0.8823 
G01 X-2.0598 Y0.8698 
G01 X-2.0506 Y0.8580 
G01 X-2.0405 Y0.8470 
G01 X-2.0295 Y0.8369 
G01 X-2.0177 Y0.8277 
G01 X-2.0052 Y0.8195 
G01 X-1.9920 Y0.8124 
G01 X-1.9783 Y0.8064 
G01 X-1.9641 Y0.8015 
G01 X-1.9496 Y0.7979 
G01 X-1.9349 Y0.7954 
G01 X-1.9200 Y0.7942 
G01 X-1.9125 Y0.7940 
G01 X-0.5058 Y0.7940 
G01 X-0.4925 Y0.7925 
G01 X-0.4795 Y0.7895 
G01 X-0.4669 Y0.7851 
G01 X-0.4548 Y0.7793 
G01 X-0.4435 Y0.7722 
G01 X-0.4331 Y0.7639 
G01 X-0.4236 Y0.7544 
G01 X-0.4153 Y0.7440 
G01 X-0.4082 Y0.7327 
G01 X-0.4024 Y0.7206 
G01 X-0.3980 Y0.7080 
G01 X-0.3950 Y0.6950 
G01 X-0.3935 Y0.6817 
G01 X-0.3935 Y0.4997 
G01 X-0.3949 Y0.4891 
G01 X-0.3977 Y0.4787 
G01 X-0.4017 Y0.4689 
G01 X-0.4071 Y0.4596 
G01 X-0.4136 Y0.4511 
G01 X-0.4211 Y0.4436 
G01 X-0.4296 Y0.4371 
G01 X-0.4310 Y0.4363 
G01 X-0.4310 Y0.4243 
G01 X-0.4568 Y0.3985 
G01 X-0.4932 Y0.3985 
G01 X-0.5190 Y0.4243 
G01 X-0.5190 Y0.4607 
G01 X-0.4932 Y0.4865 
G01 X-0.4568 Y0.4865 
G01 X-0.4444 Y0.4742 
G01 X-0.4423 Y0.4763 
G01 X-0.4388 Y0.4808 
G01 X-0.4360 Y0.4858 
G01 X-0.4338 Y0.4910 
G01 X-0.4323 Y0.4965 
G01 X-0.4316 Y0.5022 
G01 X-0.4315 Y0.5050 
G01 X-0.4315 Y0.6750 
G01 X-0.4316 Y0.6795 
G01 X-0.4326 Y0.6886 
G01 X-0.4347 Y0.6974 
G01 X-0.4377 Y0.7060 
G01 X-0.4416 Y0.7142 
G01 X-0.4464 Y0.7219 
G01 X-0.4521 Y0.7290 
G01 X-0.4585 Y0.7354 
G01 X-0.4656 Y0.7411 
G01 X-0.4733 Y0.7459 
G01 X-0.4815 Y0.7498 
G01 X-0.4901 Y0.7528 
G01 X-0.4989 Y0.7549 
G01 X-0.5080 Y0.7559 
G01 X-0.5125 Y0.7560 
G01 X-1.9150 Y0.7560 
G01 X-1.9216 Y0.7560 
G00 Z0.1000 
G00 X-1.8432 Y0.8810 
G01 Z-0.0020 F20.00 
G01 X-1.8432 Y0.8810 F20.00 
G01 X-1.8545 Y0.8824 
G01 X-1.8655 Y0.8851 
G01 X-1.8761 Y0.8891 
G01 X-1.8862 Y0.8944 
G01 X-1.8956 Y0.9009 
G01 X-1.9041 Y0.9084 
G01 X-1.9116 Y0.9169 
G01 X-1.9181 Y0.9263 
G01 X-1.9210 Y0.9318 
