(.../pcb-gcode-3.6.0.4/pcb-gcode.ulp)
(Copyright 2005 - 2012 by John Johnson)
(See readme.txt for licensing terms.)
(This file generated from the board:)
(.../piezo-preamp-alex-rice-FETS v4 9V.brd)
(Current profile is .../pcb-gcode-3.6.0.4/profiles/imodela.pp  )
(This file generated 11/11/13 5:54 PM)
(Settings from pcb-machine.h)
(  Tool Size)
(0.02 )
(Z Axis Settings)
(  High     Up        Down     Drill)
(0.50 	0.10 	-0.01 	-0.08 )
(spindle on time = 3.0000)
(milling depth = -0.0100)
(text depth = -0.0050)
(tool change at 0.50 0.60 1.00 )
(feed rate xy = F10.00 )
(feed rate z  = F10.00 )
(Settings from pcb-defaults.h)
(isolate min = 0.0010)
(isolate max = 0.0200)
(isolate step = 0.0050)
(Generated bottom outlines, bottom drill, )
(Unit of measure: inch)
( Tool|       Size       |  Min Sub |  Max Sub |   Count )
( T01  0.813mm 0.0320in 0.0000in 0.0000in )
( T02  1.016mm 0.0400in 0.0000in 0.0000in )
(Inch Mode)
G20
(Absolute Coordinates)
G90
M05
G00 Z1.00 
G00 X0.50 Y0.60 
(M06 T01  ; 0.03 )
G01 Z0.00 F10.00 
(M06 T01  ; 0.03 )
G00 Z0.10 
M03
G04 P 3
G00 Z0.100000
G00 X-0.27 Y0.65 
G01 Z-0.08 F10.00 
G01 Z0.100000
(R0.10  P1.000000)
(G00 Z0.100000)
G00 X-0.27 Y0.12 
G01 Z-0.080000
G01 Z0.100000
(G00 Z0.100000)
G00 X-0.28 Y1.16 
G01 Z-0.080000
G01 Z0.100000
(G00 Z0.100000)
G00 X-0.28 Y1.03 
G01 Z-0.080000
G01 Z0.100000
(G00 Z0.100000)
G00 X-0.35 Y0.75 
G01 Z-0.080000
G01 Z0.100000
(G00 Z0.100000)
G00 X-0.35 Y0.95 
G01 Z-0.080000
G01 Z0.100000
(G00 Z0.100000)
G00 X-0.35 Y0.36 
G01 Z-0.080000
G01 Z0.100000
(G00 Z0.100000)
G00 X-0.35 Y0.56 
G01 Z-0.080000
G01 Z0.100000
(G00 Z0.100000)
G00 X-0.44 Y0.83 
G01 Z-0.080000
G01 Z0.100000
(G00 Z0.100000)
G00 X-0.47 Y0.65 
G01 Z-0.080000
G01 Z0.100000
(G00 Z0.100000)
G00 X-0.47 Y0.12 
G01 Z-0.080000
G01 Z0.100000
(G00 Z0.100000)
G00 X-0.48 Y0.26 
G01 Z-0.080000
G01 Z0.100000
(G00 Z0.100000)
G00 X-0.48 Y0.46 
G01 Z-0.080000
G01 Z0.100000
(G00 Z0.100000)
G00 X-0.48 Y1.16 
G01 Z-0.080000
G01 Z0.100000
(G00 Z0.100000)
G00 X-0.48 Y1.03 
G01 Z-0.080000
G01 Z0.100000
(G00 Z0.100000)
G00 X-0.52 Y0.57 
G01 Z-0.080000
G01 Z0.100000
(G00 Z0.100000)
G00 X-0.54 Y0.73 
G01 Z-0.080000
G01 Z0.100000
(G00 Z0.100000)
G00 X-0.54 Y0.93 
G01 Z-0.080000
G01 Z0.100000
(G00 Z0.100000)
G00 X-0.60 Y0.32 
G01 Z-0.080000
G01 Z0.100000
(G00 Z0.100000)
G00 X-0.60 Y0.12 
G01 Z-0.080000
G01 Z0.100000
(G00 Z0.100000)
G00 X-0.62 Y0.67 
G01 Z-0.080000
G01 Z0.100000
(G00 Z0.100000)
G00 X-0.65 Y1.06 
G01 Z-0.080000
G01 Z0.100000
(G00 Z0.100000)
G00 X-0.65 Y0.95 
G01 Z-0.080000
G01 Z0.100000
(G00 Z0.100000)
G00 X-0.66 Y0.82 
G01 Z-0.080000
G01 Z0.100000
(G00 Z0.100000)
G00 X-0.70 Y0.12 
G01 Z-0.080000
G01 Z0.100000
(G00 Z0.100000)
G00 X-0.72 Y0.57 
G01 Z-0.080000
G01 Z0.100000
(G00 Z0.100000)
G00 X-0.72 Y0.23 
G01 Z-0.080000
G01 Z0.100000
(G00 Z0.100000)
G00 X-0.72 Y0.42 
G01 Z-0.080000
G01 Z0.100000
(G00 Z0.100000)
G00 X-0.82 Y0.33 
G01 Z-0.080000
G01 Z0.100000
(G00 Z0.100000)
G00 X-0.85 Y1.06 
G01 Z-0.080000
G01 Z0.100000
(G00 Z0.100000)
G00 X-0.85 Y0.50 
G01 Z-0.080000
G01 Z0.100000
(G00 Z0.100000)
G00 X-0.85 Y0.70 
G01 Z-0.080000
G01 Z0.100000
(G00 Z0.100000)
G00 X-0.85 Y0.95 
G01 Z-0.080000
G01 Z0.100000
(G00 Z0.100000)
G00 X-0.85 Y0.82 
G01 Z-0.080000
G01 Z0.100000
(G00 Z0.100000)
G00 X-0.90 Y0.12 
G01 Z-0.080000
G01 Z0.100000
M05
G00 Z1.00 
(M06 T02  ; 0.04 )
G01 Z0.00 F10.00 
(M06 T02  ; 0.04 )
G00 Z0.10 
M03
G04 P 3
G00 Z0.100000
G00 X-0.15 Y0.93 
G01 Z-0.08 F10.00 
G01 Z0.100000
(R0.10  P1.000000)
(G00 Z0.100000)
G00 X-0.15 Y1.02 
G01 Z-0.080000
G01 Z0.100000
(G00 Z0.100000)
G00 X-0.15 Y1.12 
G01 Z-0.080000
G01 Z0.100000
(G00 Z0.100000)
G00 X-0.17 Y0.65 
G01 Z-0.080000
G01 Z0.100000
(G00 Z0.100000)
G00 X-0.17 Y0.75 
G01 Z-0.080000
G01 Z0.100000
(G00 Z0.100000)
G00 X-0.18 Y0.26 
G01 Z-0.080000
G01 Z0.100000
(G00 Z0.100000)
G00 X-0.18 Y0.36 
G01 Z-0.080000
G01 Z0.100000
(G00 Z0.100000)
G00 X-0.18 Y0.46 
G01 Z-0.080000
G01 Z0.100000
T01 
G00 Z0.50 
M05
M02
