(.../pcb-gcode-3.6.0.4/pcb-gcode.ulp)
(Copyright 2005 - 2012 by John Johnson)
(See readme.txt for licensing terms.)
(This file generated from the board:)
(.../piezo-preamp-alex-rice-FETS v4 9V.brd)
(Current profile is .../pcb-gcode-3.6.0.4/profiles/imodela.pp  )
(This file generated 11/11/13 5:54 PM)
(Settings from pcb-machine.h)
(  Tool Size)
(0.02 )
(Z Axis Settings)
(  High     Up        Down     Drill)
(0.50 	0.10 	-0.01 	-0.08 )
(spindle on time = 3.0000)
(milling depth = -0.0100)
(text depth = -0.0050)
(tool change at 0.50 0.60 1.00 )
(feed rate xy = F10.00 )
(feed rate z  = F10.00 )
(Settings from pcb-defaults.h)
(isolate min = 0.0010)
(isolate max = 0.0200)
(isolate step = 0.0050)
(Generated bottom outlines, bottom drill, )
(Unit of measure: inch)
(Inch Mode)
G20
(Absolute Coordinates)
G90
G00 X0.00 Y0.00 
M03
G04 P 3
G00 Z0.10 
G00 X-0.51 Y0.25 
G01 Z-0.01 F10.00 
G01 X-0.51 Y0.28 F10.00 
G01 X-0.49 Y0.30 
G01 X-0.47 Y0.30 
G01 X-0.46 Y0.29 
G01 X-0.22 Y0.29 
G01 X-0.21 Y0.29 
G01 X-0.21 Y0.30 
G01 X-0.20 Y0.30 
G01 X-0.20 Y0.31 
G01 X-0.19 Y0.31 
G01 X-0.18 Y0.31 
G01 X-0.17 Y0.31 
G01 X-0.17 Y0.31 
G01 X-0.16 Y0.31 
G01 X-0.15 Y0.30 
G01 X-0.15 Y0.30 
G01 X-0.14 Y0.29 
G01 X-0.14 Y0.29 
G01 X-0.13 Y0.28 
G01 X-0.13 Y0.28 
G01 X-0.13 Y0.27 
G01 X-0.13 Y0.26 
G01 X-0.13 Y0.25 
G01 X-0.13 Y0.25 
G01 X-0.14 Y0.24 
G01 X-0.14 Y0.23 
G01 X-0.15 Y0.23 
G01 X-0.15 Y0.22 
G01 X-0.16 Y0.22 
G01 X-0.17 Y0.22 
G01 X-0.17 Y0.22 
G01 X-0.18 Y0.22 
G01 X-0.19 Y0.22 
G01 X-0.20 Y0.22 
G01 X-0.20 Y0.22 
G01 X-0.21 Y0.23 
G01 X-0.21 Y0.23 
G01 X-0.22 Y0.24 
G01 X-0.46 Y0.24 
G01 X-0.47 Y0.23 
G01 X-0.49 Y0.23 
G01 X-0.51 Y0.25 
G00 Z0.10 
G00 X-0.38 Y0.73 
G01 Z-0.01 F10.00 
G01 X-0.39 Y0.73 F10.00 
G01 X-0.39 Y0.74 
G01 X-0.44 Y0.80 
G01 X-0.46 Y0.80 
G01 X-0.48 Y0.82 
G01 X-0.48 Y0.85 
G01 X-0.46 Y0.87 
G01 X-0.43 Y0.87 
G01 X-0.41 Y0.85 
G01 X-0.41 Y0.84 
G01 X-0.35 Y0.78 
G01 X-0.34 Y0.78 
G01 X-0.32 Y0.76 
G01 X-0.32 Y0.73 
G01 X-0.33 Y0.72 
G01 X-0.33 Y0.58 
G01 X-0.32 Y0.58 
G01 X-0.32 Y0.55 
G01 X-0.34 Y0.53 
G01 X-0.37 Y0.53 
G01 X-0.38 Y0.54 
G01 X-0.41 Y0.54 
G01 X-0.45 Y0.47 
G01 X-0.45 Y0.45 
G01 X-0.47 Y0.43 
G01 X-0.49 Y0.43 
G01 X-0.51 Y0.45 
G01 X-0.51 Y0.48 
G01 X-0.49 Y0.50 
G01 X-0.49 Y0.50 
G01 X-0.45 Y0.57 
G01 X-0.45 Y0.57 
G01 X-0.45 Y0.58 
G01 X-0.45 Y0.58 
G01 X-0.45 Y0.58 
G01 X-0.44 Y0.58 
G01 X-0.44 Y0.58 
G01 X-0.44 Y0.58 
G01 X-0.44 Y0.58 
G01 X-0.44 Y0.58 
G01 X-0.44 Y0.58 
G01 X-0.44 Y0.58 
G01 X-0.44 Y0.58 
G01 X-0.44 Y0.59 
G01 X-0.44 Y0.59 
G01 X-0.43 Y0.59 
G01 X-0.43 Y0.59 
G01 X-0.43 Y0.59 
G01 X-0.43 Y0.59 
G01 X-0.43 Y0.59 
G01 X-0.43 Y0.59 
G01 X-0.43 Y0.59 
G01 X-0.43 Y0.59 
G01 X-0.42 Y0.59 
G01 X-0.42 Y0.59 
G01 X-0.38 Y0.59 
G01 X-0.38 Y0.73 
G00 Z0.10 
G00 X-0.62 Y0.16 
G01 Z-0.01 F10.00 
G01 X-0.59 Y0.16 F10.00 
G01 X-0.58 Y0.15 
G01 X-0.50 Y0.15 
G01 X-0.49 Y0.15 
G01 X-0.46 Y0.15 
G01 X-0.44 Y0.14 
G01 X-0.44 Y0.11 
G01 X-0.46 Y0.09 
G01 X-0.49 Y0.09 
G01 X-0.50 Y0.10 
G01 X-0.58 Y0.10 
G01 X-0.59 Y0.09 
G01 X-0.62 Y0.09 
G01 X-0.63 Y0.10 
G01 X-0.67 Y0.10 
G01 X-0.68 Y0.09 
G01 X-0.71 Y0.09 
G01 X-0.72 Y0.10 
G01 X-0.77 Y0.10 
G01 X-0.77 Y0.10 
G01 X-0.77 Y0.10 
G01 X-0.77 Y0.10 
G01 X-0.77 Y0.10 
G01 X-0.78 Y0.10 
G01 X-0.78 Y0.10 
G01 X-0.78 Y0.10 
G01 X-0.78 Y0.10 
G01 X-0.78 Y0.10 
G01 X-0.78 Y0.10 
G01 X-0.78 Y0.10 
G01 X-0.78 Y0.10 
G01 X-0.79 Y0.10 
G01 X-0.79 Y0.10 
G01 X-0.79 Y0.10 
G01 X-0.79 Y0.10 
G01 X-0.84 Y0.15 
G01 X-0.84 Y0.15 
G01 X-0.84 Y0.16 
G01 X-0.84 Y0.16 
G01 X-0.84 Y0.16 
G01 X-0.85 Y0.16 
G01 X-0.85 Y0.16 
G01 X-0.85 Y0.16 
G01 X-0.85 Y0.16 
G01 X-0.85 Y0.16 
G01 X-0.85 Y0.16 
G01 X-0.85 Y0.17 
G01 X-0.85 Y0.17 
G01 X-0.85 Y0.17 
G01 X-0.85 Y0.17 
G01 X-0.85 Y0.17 
G01 X-0.85 Y0.17 
G01 X-0.85 Y0.17 
G01 X-0.85 Y0.17 
G01 X-0.85 Y0.18 
G01 X-0.85 Y0.18 
G01 X-0.85 Y0.30 
G01 X-0.86 Y0.31 
G01 X-0.86 Y0.34 
G01 X-0.84 Y0.36 
G01 X-0.81 Y0.36 
G01 X-0.79 Y0.34 
G01 X-0.79 Y0.31 
G01 X-0.80 Y0.30 
G01 X-0.80 Y0.19 
G01 X-0.76 Y0.15 
G01 X-0.72 Y0.15 
G01 X-0.71 Y0.16 
G01 X-0.68 Y0.16 
G01 X-0.67 Y0.15 
G01 X-0.63 Y0.15 
G01 X-0.62 Y0.16 
G00 Z0.10 
G00 X-0.51 Y0.66 
G01 Z-0.01 F10.00 
G01 X-0.49 Y0.68 F10.00 
G01 X-0.46 Y0.68 
G01 X-0.44 Y0.66 
G01 X-0.44 Y0.64 
G01 X-0.46 Y0.62 
G01 X-0.46 Y0.62 
G01 X-0.48 Y0.58 
G01 X-0.48 Y0.56 
G01 X-0.50 Y0.54 
G01 X-0.53 Y0.54 
G01 X-0.55 Y0.56 
G01 X-0.55 Y0.59 
G01 X-0.53 Y0.61 
G01 X-0.53 Y0.61 
G01 X-0.51 Y0.64 
G01 X-0.51 Y0.66 
G00 Z0.10 
G00 X-0.89 Y0.81 
G01 Z-0.01 F10.00 
G01 X-0.89 Y0.84 F10.00 
G01 X-0.87 Y0.86 
G01 X-0.84 Y0.86 
G01 X-0.82 Y0.84 
G01 X-0.82 Y0.81 
G01 X-0.83 Y0.80 
G01 X-0.82 Y0.72 
G01 X-0.82 Y0.71 
G01 X-0.82 Y0.69 
G01 X-0.84 Y0.67 
G01 X-0.86 Y0.67 
G01 X-0.88 Y0.69 
G01 X-0.88 Y0.71 
G01 X-0.88 Y0.72 
G01 X-0.88 Y0.80 
G01 X-0.89 Y0.81 
G00 Z0.10 
G00 X-0.93 Y0.11 
G01 Z-0.01 F10.00 
G01 X-0.93 Y0.12 F10.00 
G01 X-0.94 Y0.13 
G01 X-0.94 Y0.13 
G01 X-0.94 Y0.13 
G01 X-0.94 Y0.13 
G01 X-0.95 Y0.13 
G01 X-0.95 Y0.13 
G01 X-0.95 Y0.14 
G01 X-0.95 Y0.14 
G01 X-0.95 Y0.14 
G01 X-0.95 Y0.14 
G01 X-0.95 Y0.14 
G01 X-0.95 Y0.14 
G01 X-0.95 Y0.14 
G01 X-0.95 Y0.14 
G01 X-0.95 Y0.14 
G01 X-0.95 Y0.15 
G01 X-0.95 Y0.15 
G01 X-0.95 Y0.15 
G01 X-0.95 Y0.15 
G01 X-0.95 Y0.15 
G01 X-0.95 Y0.15 
G01 X-0.95 Y0.90 
G01 X-0.95 Y0.91 
G01 X-0.95 Y0.91 
G01 X-0.95 Y0.92 
G01 X-0.90 Y0.97 
G01 X-0.89 Y0.97 
G01 X-0.89 Y0.97 
G01 X-0.88 Y0.98 
G01 X-0.88 Y0.98 
G01 X-0.88 Y0.98 
G01 X-0.88 Y1.04 
G01 X-0.88 Y1.05 
G01 X-0.88 Y1.08 
G01 X-0.86 Y1.10 
G01 X-0.85 Y1.10 
G01 X-0.70 Y1.25 
G01 X-0.70 Y1.25 
G01 X-0.69 Y1.25 
G01 X-0.69 Y1.25 
G01 X-0.42 Y1.25 
G01 X-0.42 Y1.25 
G01 X-0.41 Y1.25 
G01 X-0.41 Y1.25 
G01 X-0.40 Y1.24 
G01 X-0.33 Y1.17 
G01 X-0.33 Y1.17 
G01 X-0.33 Y1.16 
G01 X-0.33 Y1.16 
G01 X-0.33 Y0.97 
G01 X-0.32 Y0.96 
G01 X-0.32 Y0.95 
G01 X-0.18 Y0.80 
G01 X-0.18 Y0.80 
G01 X-0.17 Y0.80 
G01 X-0.16 Y0.80 
G01 X-0.16 Y0.79 
G01 X-0.15 Y0.79 
G01 X-0.14 Y0.79 
G01 X-0.14 Y0.78 
G01 X-0.13 Y0.77 
G01 X-0.13 Y0.77 
G01 X-0.13 Y0.76 
G01 X-0.13 Y0.75 
G01 X-0.13 Y0.75 
G01 X-0.13 Y0.74 
G01 X-0.13 Y0.73 
G01 X-0.13 Y0.73 
G01 X-0.14 Y0.72 
G01 X-0.14 Y0.71 
G01 X-0.15 Y0.71 
G01 X-0.16 Y0.71 
G01 X-0.16 Y0.70 
G01 X-0.17 Y0.70 
G01 X-0.18 Y0.70 
G01 X-0.19 Y0.70 
G01 X-0.19 Y0.71 
G01 X-0.20 Y0.71 
G01 X-0.21 Y0.71 
G01 X-0.21 Y0.72 
G01 X-0.22 Y0.73 
G01 X-0.22 Y0.73 
G01 X-0.22 Y0.74 
G01 X-0.22 Y0.75 
G01 X-0.22 Y0.75 
G01 X-0.22 Y0.76 
G01 X-0.22 Y0.76 
G01 X-0.36 Y0.91 
G01 X-0.37 Y0.91 
G01 X-0.39 Y0.93 
G01 X-0.39 Y0.96 
G01 X-0.38 Y0.97 
G01 X-0.38 Y1.14 
G01 X-0.44 Y1.20 
G01 X-0.68 Y1.20 
G01 X-0.81 Y1.06 
G01 X-0.81 Y1.05 
G01 X-0.82 Y1.04 
G01 X-0.82 Y0.97 
G01 X-0.82 Y0.96 
G01 X-0.82 Y0.94 
G01 X-0.84 Y0.92 
G01 X-0.86 Y0.92 
G01 X-0.87 Y0.92 
G01 X-0.90 Y0.89 
G01 X-0.90 Y0.16 
G01 X-0.89 Y0.16 
G01 X-0.88 Y0.16 
G01 X-0.86 Y0.14 
G01 X-0.86 Y0.11 
G01 X-0.88 Y0.09 
G01 X-0.91 Y0.09 
G01 X-0.93 Y0.11 
G00 Z0.10 
G00 X-0.75 Y0.56 
G01 Z-0.01 F10.00 
G01 X-0.75 Y0.68 F10.00 
G01 X-0.75 Y0.68 
G01 X-0.75 Y0.69 
G01 X-0.75 Y0.69 
G01 X-0.74 Y0.70 
G01 X-0.68 Y0.75 
G01 X-0.68 Y0.76 
G01 X-0.67 Y0.76 
G01 X-0.67 Y0.76 
G01 X-0.56 Y0.76 
G01 X-0.56 Y0.77 
G01 X-0.53 Y0.77 
G01 X-0.51 Y0.75 
G01 X-0.51 Y0.72 
G01 X-0.53 Y0.70 
G01 X-0.56 Y0.70 
G01 X-0.56 Y0.71 
G01 X-0.66 Y0.71 
G01 X-0.70 Y0.66 
G01 X-0.70 Y0.60 
G01 X-0.68 Y0.59 
G01 X-0.68 Y0.56 
G01 X-0.69 Y0.55 
G01 X-0.70 Y0.45 
G01 X-0.69 Y0.44 
G01 X-0.69 Y0.41 
G01 X-0.71 Y0.39 
G01 X-0.74 Y0.39 
G01 X-0.76 Y0.41 
G01 X-0.76 Y0.44 
G01 X-0.75 Y0.45 
G01 X-0.74 Y0.55 
G01 X-0.75 Y0.56 
G00 Z0.10 
G00 X-0.65 Y0.66 
G01 Z-0.01 F10.00 
G01 X-0.65 Y0.69 F10.00 
G01 X-0.63 Y0.71 
G01 X-0.60 Y0.71 
G01 X-0.58 Y0.69 
G01 X-0.58 Y0.66 
G01 X-0.59 Y0.65 
G01 X-0.57 Y0.48 
G01 X-0.57 Y0.48 
G01 X-0.57 Y0.48 
G01 X-0.57 Y0.47 
G01 X-0.57 Y0.47 
G01 X-0.58 Y0.35 
G01 X-0.38 Y0.38 
G01 X-0.37 Y0.40 
G01 X-0.35 Y0.40 
G01 X-0.22 Y0.47 
G01 X-0.22 Y0.47 
G01 X-0.22 Y0.48 
G01 X-0.22 Y0.48 
G01 X-0.22 Y0.49 
G01 X-0.21 Y0.49 
G01 X-0.21 Y0.50 
G01 X-0.20 Y0.50 
G01 X-0.20 Y0.61 
G01 X-0.21 Y0.61 
G01 X-0.21 Y0.62 
G01 X-0.21 Y0.62 
G01 X-0.25 Y0.62 
G01 X-0.26 Y0.62 
G01 X-0.29 Y0.62 
G01 X-0.31 Y0.64 
G01 X-0.31 Y0.66 
G01 X-0.29 Y0.68 
G01 X-0.26 Y0.68 
G01 X-0.25 Y0.68 
G01 X-0.21 Y0.68 
G01 X-0.21 Y0.68 
G01 X-0.21 Y0.69 
G01 X-0.20 Y0.69 
G01 X-0.19 Y0.69 
G01 X-0.19 Y0.70 
G01 X-0.18 Y0.70 
G01 X-0.17 Y0.70 
G01 X-0.16 Y0.70 
G01 X-0.16 Y0.69 
G01 X-0.15 Y0.69 
G01 X-0.14 Y0.69 
G01 X-0.14 Y0.68 
G01 X-0.14 Y0.68 
G01 X-0.11 Y0.68 
G01 X-0.10 Y0.69 
G01 X-0.10 Y0.84 
G01 X-0.14 Y0.88 
G01 X-0.15 Y0.88 
G01 X-0.15 Y0.88 
G01 X-0.16 Y0.88 
G01 X-0.17 Y0.88 
G01 X-0.17 Y0.88 
G01 X-0.18 Y0.89 
G01 X-0.19 Y0.89 
G01 X-0.19 Y0.90 
G01 X-0.19 Y0.91 
G01 X-0.20 Y0.91 
G01 X-0.20 Y0.92 
G01 X-0.20 Y0.93 
G01 X-0.20 Y0.94 
G01 X-0.19 Y0.94 
G01 X-0.19 Y0.95 
G01 X-0.19 Y0.96 
G01 X-0.18 Y0.96 
G01 X-0.17 Y0.97 
G01 X-0.17 Y0.97 
G01 X-0.16 Y0.97 
G01 X-0.15 Y0.97 
G01 X-0.15 Y0.97 
G01 X-0.14 Y0.97 
G01 X-0.13 Y0.97 
G01 X-0.13 Y0.97 
G01 X-0.12 Y0.96 
G01 X-0.11 Y0.96 
G01 X-0.11 Y0.95 
G01 X-0.11 Y0.94 
G01 X-0.10 Y0.94 
G01 X-0.10 Y0.93 
G01 X-0.10 Y0.92 
G01 X-0.10 Y0.92 
G01 X-0.05 Y0.87 
G01 X-0.05 Y0.86 
G01 X-0.05 Y0.86 
G01 X-0.05 Y0.85 
G01 X-0.05 Y0.67 
G01 X-0.05 Y0.67 
G01 X-0.05 Y0.66 
G01 X-0.05 Y0.66 
G01 X-0.06 Y0.65 
G01 X-0.08 Y0.63 
G01 X-0.09 Y0.63 
G01 X-0.09 Y0.62 
G01 X-0.10 Y0.62 
G01 X-0.14 Y0.62 
G01 X-0.14 Y0.62 
G01 X-0.14 Y0.61 
G01 X-0.15 Y0.61 
G01 X-0.15 Y0.50 
G01 X-0.15 Y0.50 
G01 X-0.14 Y0.49 
G01 X-0.14 Y0.49 
G01 X-0.13 Y0.48 
G01 X-0.13 Y0.48 
G01 X-0.13 Y0.47 
G01 X-0.13 Y0.46 
G01 X-0.13 Y0.45 
G01 X-0.13 Y0.45 
G01 X-0.14 Y0.44 
G01 X-0.14 Y0.43 
G01 X-0.15 Y0.43 
G01 X-0.15 Y0.42 
G01 X-0.16 Y0.42 
G01 X-0.17 Y0.42 
G01 X-0.17 Y0.42 
G01 X-0.18 Y0.42 
G01 X-0.19 Y0.42 
G01 X-0.20 Y0.42 
G01 X-0.20 Y0.42 
G01 X-0.32 Y0.35 
G01 X-0.32 Y0.35 
G01 X-0.34 Y0.33 
G01 X-0.37 Y0.33 
G01 X-0.37 Y0.33 
G01 X-0.58 Y0.30 
G01 X-0.59 Y0.29 
G01 X-0.62 Y0.29 
G01 X-0.64 Y0.31 
G01 X-0.64 Y0.34 
G01 X-0.63 Y0.34 
G01 X-0.63 Y0.47 
G01 X-0.64 Y0.65 
G01 X-0.65 Y0.66 
G00 Z0.10 
G00 X-0.22 Y0.36 
G01 Z-0.01 F10.00 
G01 X-0.22 Y0.37 F10.00 
G01 X-0.22 Y0.38 
G01 X-0.22 Y0.38 
G01 X-0.22 Y0.39 
G01 X-0.21 Y0.39 
G01 X-0.21 Y0.40 
G01 X-0.20 Y0.40 
G01 X-0.20 Y0.41 
G01 X-0.19 Y0.41 
G01 X-0.18 Y0.41 
G01 X-0.17 Y0.41 
G01 X-0.17 Y0.41 
G01 X-0.16 Y0.41 
G01 X-0.15 Y0.40 
G01 X-0.15 Y0.40 
G01 X-0.14 Y0.39 
G01 X-0.14 Y0.39 
G01 X-0.13 Y0.38 
G01 X-0.13 Y0.38 
G01 X-0.13 Y0.37 
G01 X-0.07 Y0.35 
G01 X-0.07 Y0.35 
G01 X-0.07 Y0.35 
G01 X-0.06 Y0.35 
G01 X-0.06 Y0.35 
G01 X-0.06 Y0.35 
G01 X-0.06 Y0.35 
G01 X-0.06 Y0.35 
G01 X-0.06 Y0.35 
G01 X-0.06 Y0.35 
G01 X-0.06 Y0.34 
G01 X-0.06 Y0.34 
G01 X-0.06 Y0.34 
G01 X-0.05 Y0.34 
G01 X-0.05 Y0.34 
G01 X-0.05 Y0.34 
G01 X-0.05 Y0.34 
G01 X-0.05 Y0.34 
G01 X-0.05 Y0.34 
G01 X-0.05 Y0.33 
G01 X-0.05 Y0.33 
G01 X-0.05 Y0.33 
G01 X-0.05 Y0.33 
G01 X-0.05 Y0.33 
G01 X-0.05 Y0.33 
G01 X-0.05 Y0.33 
G01 X-0.05 Y0.33 
G01 X-0.05 Y0.32 
G01 X-0.05 Y0.32 
G01 X-0.05 Y0.23 
G01 X-0.05 Y0.22 
G01 X-0.05 Y0.22 
G01 X-0.05 Y0.22 
G01 X-0.05 Y0.22 
G01 X-0.05 Y0.22 
G01 X-0.05 Y0.22 
G01 X-0.05 Y0.22 
G01 X-0.05 Y0.22 
G01 X-0.05 Y0.21 
G01 X-0.05 Y0.21 
G01 X-0.05 Y0.21 
G01 X-0.05 Y0.21 
G01 X-0.05 Y0.21 
G01 X-0.05 Y0.21 
G01 X-0.05 Y0.21 
G01 X-0.06 Y0.21 
G01 X-0.06 Y0.21 
G01 X-0.06 Y0.21 
G01 X-0.06 Y0.20 
G01 X-0.06 Y0.20 
G01 X-0.06 Y0.20 
G01 X-0.06 Y0.20 
G01 X-0.06 Y0.20 
G01 X-0.06 Y0.20 
G01 X-0.24 Y0.11 
G01 X-0.24 Y0.11 
G01 X-0.26 Y0.09 
G01 X-0.29 Y0.09 
G01 X-0.31 Y0.11 
G01 X-0.31 Y0.14 
G01 X-0.29 Y0.15 
G01 X-0.27 Y0.15 
G01 X-0.10 Y0.24 
G01 X-0.10 Y0.31 
G01 X-0.15 Y0.33 
G01 X-0.15 Y0.32 
G01 X-0.16 Y0.32 
G01 X-0.17 Y0.32 
G01 X-0.17 Y0.32 
G01 X-0.18 Y0.32 
G01 X-0.19 Y0.32 
G01 X-0.20 Y0.32 
G01 X-0.20 Y0.32 
G01 X-0.21 Y0.33 
G01 X-0.21 Y0.33 
G01 X-0.22 Y0.34 
G01 X-0.22 Y0.35 
G01 X-0.22 Y0.35 
G01 X-0.22 Y0.36 
G00 Z0.10 
G00 X-0.18 Y1.16 
G01 Z-0.01 F10.00 
G01 X-0.17 Y1.17 F10.00 
G01 X-0.17 Y1.17 
G01 X-0.16 Y1.17 
G01 X-0.15 Y1.17 
G01 X-0.15 Y1.17 
G01 X-0.14 Y1.17 
G01 X-0.13 Y1.17 
G01 X-0.13 Y1.17 
G01 X-0.12 Y1.16 
G01 X-0.11 Y1.16 
G01 X-0.11 Y1.15 
G01 X-0.11 Y1.14 
G01 X-0.10 Y1.14 
G01 X-0.10 Y1.13 
G01 X-0.10 Y1.12 
G01 X-0.10 Y1.11 
G01 X-0.11 Y1.11 
G01 X-0.11 Y1.10 
G01 X-0.11 Y1.09 
G01 X-0.12 Y1.09 
G01 X-0.13 Y1.08 
G01 X-0.13 Y1.08 
G01 X-0.14 Y1.08 
G01 X-0.15 Y1.08 
G01 X-0.15 Y1.08 
G01 X-0.16 Y1.08 
G01 X-0.17 Y1.08 
G01 X-0.17 Y1.08 
G01 X-0.18 Y1.09 
G01 X-0.19 Y1.09 
G01 X-0.19 Y1.10 
G01 X-0.19 Y1.11 
G01 X-0.19 Y1.11 
G01 X-0.26 Y1.13 
G01 X-0.27 Y1.12 
G01 X-0.30 Y1.12 
G01 X-0.32 Y1.14 
G01 X-0.32 Y1.17 
G01 X-0.30 Y1.19 
G01 X-0.27 Y1.19 
G01 X-0.25 Y1.18 
G01 X-0.18 Y1.16 
G01 X-0.18 Y1.16 
G00 Z0.10 
G00 X-0.68 Y0.94 
G01 Z-0.01 F10.00 
G01 X-0.68 Y0.96 F10.00 
G01 X-0.66 Y0.98 
G01 X-0.64 Y0.98 
G01 X-0.52 Y1.04 
G01 X-0.52 Y1.04 
G01 X-0.50 Y1.06 
G01 X-0.47 Y1.06 
G01 X-0.45 Y1.04 
G01 X-0.45 Y1.01 
G01 X-0.47 Y0.99 
G01 X-0.47 Y0.99 
G01 X-0.51 Y0.94 
G01 X-0.51 Y0.92 
G01 X-0.53 Y0.90 
G01 X-0.54 Y0.90 
G01 X-0.62 Y0.82 
G01 X-0.62 Y0.81 
G01 X-0.64 Y0.79 
G01 X-0.67 Y0.79 
G01 X-0.69 Y0.81 
G01 X-0.69 Y0.84 
G01 X-0.67 Y0.86 
G01 X-0.66 Y0.86 
G01 X-0.58 Y0.94 
G01 X-0.58 Y0.95 
G01 X-0.56 Y0.96 
G01 X-0.62 Y0.94 
G01 X-0.62 Y0.94 
G01 X-0.64 Y0.92 
G01 X-0.66 Y0.92 
G01 X-0.68 Y0.94 
G00 Z0.10 
G00 X-0.32 Y1.01 
G01 Z-0.01 F10.00 
G01 X-0.32 Y1.04 F10.00 
G01 X-0.30 Y1.06 
G01 X-0.27 Y1.06 
G01 X-0.26 Y1.05 
G01 X-0.19 Y1.05 
G01 X-0.19 Y1.06 
G01 X-0.18 Y1.06 
G01 X-0.17 Y1.07 
G01 X-0.17 Y1.07 
G01 X-0.16 Y1.07 
G01 X-0.15 Y1.07 
G01 X-0.15 Y1.07 
G01 X-0.14 Y1.07 
G01 X-0.13 Y1.07 
G01 X-0.13 Y1.07 
G01 X-0.12 Y1.06 
G01 X-0.11 Y1.06 
G01 X-0.11 Y1.05 
G01 X-0.11 Y1.04 
G01 X-0.10 Y1.04 
G01 X-0.10 Y1.03 
G01 X-0.10 Y1.02 
G01 X-0.10 Y1.01 
G01 X-0.11 Y1.01 
G01 X-0.11 Y1.00 
G01 X-0.11 Y0.99 
G01 X-0.12 Y0.99 
G01 X-0.13 Y0.98 
G01 X-0.13 Y0.98 
G01 X-0.14 Y0.98 
G01 X-0.15 Y0.98 
G01 X-0.15 Y0.98 
G01 X-0.16 Y0.98 
G01 X-0.17 Y0.98 
G01 X-0.17 Y0.98 
G01 X-0.18 Y0.99 
G01 X-0.19 Y0.99 
G01 X-0.19 Y1.00 
G01 X-0.26 Y1.00 
G01 X-0.27 Y0.99 
G01 X-0.30 Y0.99 
G01 X-0.32 Y1.01 
G00 Z0.10 
G00 X-0.52 Y1.17 
G01 Z-0.01 F10.00 
G01 X-0.50 Y1.19 F10.00 
G01 X-0.47 Y1.19 
G01 X-0.45 Y1.17 
G01 X-0.45 Y1.14 
G01 X-0.47 Y1.12 
G01 X-0.49 Y1.12 
G01 X-0.61 Y1.05 
G01 X-0.61 Y1.05 
G01 X-0.63 Y1.03 
G01 X-0.65 Y1.03 
G01 X-0.76 Y0.92 
G01 X-0.76 Y0.64 
G01 X-0.76 Y0.63 
G01 X-0.76 Y0.63 
G01 X-0.76 Y0.62 
G01 X-0.82 Y0.56 
G01 X-0.82 Y0.52 
G01 X-0.82 Y0.51 
G01 X-0.82 Y0.49 
G01 X-0.82 Y0.48 
G01 X-0.82 Y0.46 
G01 X-0.70 Y0.34 
G01 X-0.70 Y0.34 
G01 X-0.70 Y0.33 
G01 X-0.70 Y0.33 
G01 X-0.70 Y0.25 
G01 X-0.69 Y0.24 
G01 X-0.69 Y0.21 
G01 X-0.71 Y0.19 
G01 X-0.74 Y0.19 
G01 X-0.76 Y0.21 
G01 X-0.76 Y0.24 
G01 X-0.75 Y0.25 
G01 X-0.75 Y0.31 
G01 X-0.87 Y0.43 
G01 X-0.87 Y0.43 
G01 X-0.87 Y0.44 
G01 X-0.88 Y0.44 
G01 X-0.88 Y0.45 
G01 X-0.88 Y0.48 
G01 X-0.88 Y0.49 
G01 X-0.88 Y0.51 
G01 X-0.88 Y0.52 
G01 X-0.88 Y0.58 
G01 X-0.88 Y0.58 
G01 X-0.87 Y0.59 
G01 X-0.87 Y0.59 
G01 X-0.87 Y0.60 
G01 X-0.81 Y0.65 
G01 X-0.81 Y0.93 
G01 X-0.81 Y0.93 
G01 X-0.81 Y0.94 
G01 X-0.80 Y0.94 
G01 X-0.80 Y0.95 
G01 X-0.68 Y1.06 
G01 X-0.68 Y1.08 
G01 X-0.66 Y1.10 
G01 X-0.64 Y1.10 
G01 X-0.52 Y1.17 
G01 X-0.52 Y1.17 
G00 Z0.10 
G00 Z0.50 
M05
M02
