(.../pcb-gcode-3.6.0.4/pcb-gcode.ulp)
(Copyright 2005 - 2012 by John Johnson)
(See readme.txt for licensing terms.)
(This file generated from the board:)
(.../electret-mic-precision-rectifier.brd)
(Current profile is .../pcb-gcode-3.6.0.4/profiles/imodela.pp  )
(This file generated 11/7/13 7:39 PM)
(Settings from pcb-machine.h)
(  Tool Size)
(0.01 )
(Z Axis Settings)
(  High     Up        Down     Drill)
(0.50 	0.10 	-0.01 	-0.08 )
(spindle on time = 3.0000)
(milling depth = -0.0100)
(text depth = -0.0050)
(tool change at 0.50 0.60 1.00 )
(feed rate xy = F10.00 )
(feed rate z  = F10.00 )
(Settings from pcb-defaults.h)
(isolate min = 0.0010)
(isolate max = 0.0200)
(isolate step = 0.0050)
(Generated bottom outlines, bottom drill, )
(Unit of measure: inch)
( Tool|       Size       |  Min Sub |  Max Sub |   Count )
( T01  0.762mm 0.0300in 0.0000in 0.0000in )
( T02  0.813mm 0.0320in 0.0000in 0.0000in )
( T03  0.900mm 0.0354in 0.0000in 0.0000in )
( T04  1.000mm 0.0394in 0.0000in 0.0000in )
( T05  1.016mm 0.0400in 0.0000in 0.0000in )
(Inch Mode)
G20
(Absolute Coordinates)
G90
M05
G00 Z1.00 
G00 X0.50 Y0.60 
(M06 T01  ; 0.03 )
G01 Z0.00 F10.00 
(M06 T01  ; 0.03 )
G00 Z0.10 
M03
G04 P 3
G00 Z0.100000
G00 X-0.15 Y0.12 
G01 Z-0.08 F10.00 
G01 Z0.100000
(R0.10  P1.000000)
(G00 Z0.100000)
G00 X-0.35 Y0.12 
G01 Z-0.080000
G01 Z0.100000
(G00 Z0.100000)
G00 X-0.45 Y0.12 
G01 Z-0.080000
G01 Z0.100000
(G00 Z0.100000)
G00 X-0.60 Y0.33 
G01 Z-0.080000
G01 Z0.100000
(G00 Z0.100000)
G00 X-0.60 Y0.52 
G01 Z-0.080000
G01 Z0.100000
(G00 Z0.100000)
G00 X-0.65 Y0.12 
G01 Z-0.080000
G01 Z0.100000
(G00 Z0.100000)
G00 X-0.74 Y0.67 
G01 Z-0.080000
G01 Z0.100000
(G00 Z0.100000)
G00 X-0.86 Y0.83 
G01 Z-0.080000
G01 Z0.100000
M05
G00 Z1.00 
(M06 T02  ; 0.03 )
G01 Z0.00 F10.00 
(M06 T02  ; 0.03 )
G00 Z0.10 
M03
G04 P 3
G00 Z0.100000
G00 X-0.15 Y0.23 
G01 Z-0.08 F10.00 
G01 Z0.100000
(R0.10  P1.000000)
(G00 Z0.100000)
G00 X-0.15 Y0.53 
G01 Z-0.080000
G01 Z0.100000
(G00 Z0.100000)
G00 X-0.25 Y0.23 
G01 Z-0.080000
G01 Z0.100000
(G00 Z0.100000)
G00 X-0.25 Y0.53 
G01 Z-0.080000
G01 Z0.100000
(G00 Z0.100000)
G00 X-0.35 Y0.23 
G01 Z-0.080000
G01 Z0.100000
(G00 Z0.100000)
G00 X-0.35 Y0.53 
G01 Z-0.080000
G01 Z0.100000
(G00 Z0.100000)
G00 X-0.45 Y0.23 
G01 Z-0.080000
G01 Z0.100000
(G00 Z0.100000)
G00 X-0.45 Y0.53 
G01 Z-0.080000
G01 Z0.100000
M05
G00 Z1.00 
(M06 T03  ; 0.04 )
G01 Z0.00 F10.00 
(M06 T03  ; 0.04 )
G00 Z0.10 
M03
G04 P 3
G00 Z0.100000
G00 X-0.75 Y0.33 
G01 Z-0.08 F10.00 
G01 Z0.100000
(R0.10  P1.000000)
(G00 Z0.100000)
G00 X-0.75 Y0.52 
G01 Z-0.080000
G01 Z0.100000
M05
G00 Z1.00 
(M06 T04  ; 0.04 )
G01 Z0.00 F10.00 
(M06 T04  ; 0.04 )
G00 Z0.10 
M03
G04 P 3
G00 Z0.100000
G00 X-0.25 Y0.62 
G01 Z-0.08 F10.00 
G01 Z0.100000
(R0.10  P1.000000)
(G00 Z0.100000)
G00 X-0.65 Y0.62 
G01 Z-0.080000
G01 Z0.100000
M05
G00 Z1.00 
(M06 T05  ; 0.04 )
G01 Z0.00 F10.00 
(M06 T05  ; 0.04 )
G00 Z0.10 
M03
G04 P 3
G00 Z0.100000
G00 X-0.15 Y0.82 
G01 Z-0.08 F10.00 
G01 Z0.100000
(R0.10  P1.000000)
(G00 Z0.100000)
G00 X-0.25 Y0.82 
G01 Z-0.080000
G01 Z0.100000
(G00 Z0.100000)
G00 X-0.35 Y0.82 
G01 Z-0.080000
G01 Z0.100000
(G00 Z0.100000)
G00 X-0.50 Y0.82 
G01 Z-0.080000
G01 Z0.100000
(G00 Z0.100000)
G00 X-0.60 Y0.82 
G01 Z-0.080000
G01 Z0.100000
T01 
G00 Z0.50 
M05
M02
