(.../pcb-gcode-3.6.0.4/pcb-gcode.ulp)
(Copyright 2005 - 2012 by John Johnson)
(See readme.txt for licensing terms.)
(This file generated from the board:)
(.../Copperclad_CooperBuffer_Amp.brd)
(Current profile is .../pcb-gcode-3.6.0.4/profiles/imodela.pp  )
(This file generated 7/27/16 2:43 PM)
(Settings from pcb-machine.h)
(  Tool Size)
(0.20 )
(Z Axis Settings)
(  High     Up        Down     Drill)
(2.00 	1.00 	-0.20 	-1.70 )
(spindle on time = 6.0000)
(milling depth = -0.2540)
(text depth = -0.1270)
(tool change at 0.00 0.00 10.00 )
(feed rate xy = F140.00 )
(feed rate z  = F35.00 )
(Settings from pcb-defaults.h)
(isolate min = 0.0010)
(isolate max = 0.2000)
(isolate step = 0.2000)
(Generated bottom outlines, bottom drill, )
(Unit of measure: mm)
( Tool|       Size       |  Min Sub |  Max Sub |   Count )
( T01  0.813mm 0.0320in 0.0000in 0.0000in )
( T02  1.016mm 0.0400in 0.0000in 0.0000in )
(Metric Mode)
G21
(Absolute Coordinates)
G90
M05
G00 Z10.00 
G00 X0.00 Y0.00 
(M06 T01  ; 0.81 )
G01 Z0.00 F35.00 
(M06 T01  ; 0.81 )
G00 Z1.00 
M03
G04 P 6
G00 Z1.000000
G00 X-3.18 Y26.04 
G01 Z-1.70 F35.00 
G01 Z1.000000
(R1.00  P1.000000)
(G00 Z1.000000)
G00 X-3.18 Y28.58 
G01 Z-1.700000
G01 Z1.000000
(G00 Z1.000000)
G00 X-3.81 Y44.45 
G01 Z-1.700000
G01 Z1.000000
(G00 Z1.000000)
G00 X-3.81 Y20.32 
G01 Z-1.700000
G01 Z1.000000
(G00 Z1.000000)
G00 X-3.81 Y22.86 
G01 Z-1.700000
G01 Z1.000000
(G00 Z1.000000)
G00 X-5.08 Y38.10 
G01 Z-1.700000
G01 Z1.000000
(G00 Z1.000000)
G00 X-6.35 Y44.45 
G01 Z-1.700000
G01 Z1.000000
(G00 Z1.000000)
G00 X-6.35 Y30.48 
G01 Z-1.700000
G01 Z1.000000
(G00 Z1.000000)
G00 X-7.62 Y38.10 
G01 Z-1.700000
G01 Z1.000000
(G00 Z1.000000)
G00 X-8.89 Y8.26 
G01 Z-1.700000
G01 Z1.000000
(G00 Z1.000000)
G00 X-8.89 Y13.34 
G01 Z-1.700000
G01 Z1.000000
(G00 Z1.000000)
G00 X-8.89 Y18.41 
G01 Z-1.700000
G01 Z1.000000
(G00 Z1.000000)
G00 X-8.89 Y24.13 
G01 Z-1.700000
G01 Z1.000000
(G00 Z1.000000)
G00 X-8.89 Y26.67 
G01 Z-1.700000
G01 Z1.000000
(G00 Z1.000000)
G00 X-8.89 Y30.48 
G01 Z-1.700000
G01 Z1.000000
(G00 Z1.000000)
G00 X-11.43 Y39.37 
G01 Z-1.700000
G01 Z1.000000
(G00 Z1.000000)
G00 X-11.43 Y44.45 
G01 Z-1.700000
G01 Z1.000000
(G00 Z1.000000)
G00 X-11.43 Y8.26 
G01 Z-1.700000
G01 Z1.000000
(G00 Z1.000000)
G00 X-11.43 Y13.34 
G01 Z-1.700000
G01 Z1.000000
(G00 Z1.000000)
G00 X-11.43 Y18.41 
G01 Z-1.700000
G01 Z1.000000
(G00 Z1.000000)
G00 X-11.43 Y29.21 
G01 Z-1.700000
G01 Z1.000000
(G00 Z1.000000)
G00 X-15.24 Y15.88 
G01 Z-1.700000
G01 Z1.000000
(G00 Z1.000000)
G00 X-15.24 Y21.59 
G01 Z-1.700000
G01 Z1.000000
(G00 Z1.000000)
G00 X-15.24 Y29.21 
G01 Z-1.700000
G01 Z1.000000
(G00 Z1.000000)
G00 X-17.78 Y15.88 
G01 Z-1.700000
G01 Z1.000000
(G00 Z1.000000)
G00 X-17.78 Y21.59 
G01 Z-1.700000
G01 Z1.000000
(G00 Z1.000000)
G00 X-17.78 Y29.21 
G01 Z-1.700000
G01 Z1.000000
(G00 Z1.000000)
G00 X-19.69 Y6.35 
G01 Z-1.700000
G01 Z1.000000
(G00 Z1.000000)
G00 X-19.69 Y8.89 
G01 Z-1.700000
G01 Z1.000000
(G00 Z1.000000)
G00 X-20.32 Y21.59 
G01 Z-1.700000
G01 Z1.000000
(G00 Z1.000000)
G00 X-20.32 Y29.21 
G01 Z-1.700000
G01 Z1.000000
(G00 Z1.000000)
G00 X-21.59 Y44.45 
G01 Z-1.700000
G01 Z1.000000
(G00 Z1.000000)
G00 X-22.86 Y21.59 
G01 Z-1.700000
G01 Z1.000000
(G00 Z1.000000)
G00 X-22.86 Y29.21 
G01 Z-1.700000
G01 Z1.000000
(G00 Z1.000000)
G00 X-2.54 Y38.10 
G01 Z-1.700000
G01 Z1.000000
M05
G00 Z10.00 
(M06 T02  ; 1.02 )
G01 Z0.00 F35.00 
(M06 T02  ; 1.02 )
G00 Z1.00 
M03
G04 P 6
G00 Z1.000000
G00 X-3.81 Y6.17 
G01 Z-1.70 F35.00 
G01 Z1.000000
(R1.00  P1.000000)
(G00 Z1.000000)
G00 X-3.81 Y9.07 
G01 Z-1.700000
G01 Z1.000000
(G00 Z1.000000)
G00 X-3.81 Y13.79 
G01 Z-1.700000
G01 Z1.000000
(G00 Z1.000000)
G00 X-3.81 Y16.69 
G01 Z-1.700000
G01 Z1.000000
(G00 Z1.000000)
G00 X-8.71 Y3.81 
G01 Z-1.700000
G01 Z1.000000
(G00 Z1.000000)
G00 X-11.61 Y3.81 
G01 Z-1.700000
G01 Z1.000000
(G00 Z1.000000)
G00 X-15.24 Y33.02 
G01 Z-1.700000
G01 Z1.000000
(G00 Z1.000000)
G00 X-17.78 Y38.10 
G01 Z-1.700000
G01 Z1.000000
(G00 Z1.000000)
G00 X-20.32 Y33.02 
G01 Z-1.700000
G01 Z1.000000
T01 
G00 Z2.00 
M05
M02
