(.../pcb-gcode-3.6.0.4/pcb-gcode.ulp)
(Copyright 2005 - 2012 by John Johnson)
(See readme.txt for licensing terms.)
(This file generated from the board:)
(.../Copperclad_CooperBuffer_Amp_V0-6.brd)
(Current profile is .../pcb-gcode-3.6.0.4/profiles/iModela.pp  )
(This file generated 2016-08-10 1:19 PM)
(Settings from pcb-machine.h)
(  Tool Size)
(0.20 )
(Z Axis Settings)
(  High     Up        Down     Drill)
(2.00 	1.00 	-0.20 	-1.80 )
(spindle on time = 1.0000)
(milling depth = -1.8000)
(text depth = -0.1270)
(tool change at 0.00 0.00 10.00 )
(feed rate xy = F80.00 )
(feed rate z  = F60.00 )
(Settings from pcb-defaults.h)
(isolate min = 0.0010)
(isolate max = 0.2000)
(isolate step = 0.2000)
(Generated bottom outlines, bottom drill, )
(Unit of measure: mm)
(Metric Mode)
G21
(Absolute Coordinates)
G90
G00 X0.00 Y0.00 
M03
G04 P 1
G00 Z1.00 
G00 X-41.01 Y9.06 
G01 Z-0.20 F60.00 
G01 X-37.88 Y12.19 F80.00 
G01 X-37.88 Y12.18 
G01 X-40.90 Y9.17 
G01 X-40.98 Y9.09 
G01 X-41.05 Y9.05 
G01 X-41.13 Y9.03 
G01 X-41.87 Y9.03 
G01 X-41.94 Y9.05 
G01 X-42.01 Y9.09 
G01 X-42.07 Y9.14 
G01 X-42.14 Y9.22 
G01 X-42.95 Y9.22 
G01 X-43.51 Y8.66 
G01 X-43.51 Y7.85 
G01 X-43.46 Y7.81 
G01 X-43.42 Y7.74 
G01 X-43.40 Y7.66 
G01 X-43.40 Y4.44 
G01 X-43.40 Y4.43 
G01 X-43.40 Y7.75 
G01 X-43.51 Y7.86 
G01 X-43.51 Y8.65 
G01 X-42.94 Y9.22 
G01 X-42.15 Y9.22 
G01 X-41.95 Y9.03 
G01 X-41.04 Y9.03 
G01 X-41.01 Y9.06 
G00 Z1.00 
G00 X-11.68 Y16.93 
G01 Z-0.20 F60.00 
G01 X-12.28 Y17.53 F80.00 
G01 X-12.40 Y17.53 
G01 X-12.40 Y17.47 
G01 X-12.30 Y17.47 
G01 X-11.74 Y16.91 
G01 X-11.74 Y16.81 
G01 X-11.68 Y16.81 
G01 X-11.68 Y16.93 
G00 Z1.00 
G00 X-12.28 Y15.49 
G01 Z-0.20 F60.00 
G01 X-11.68 Y16.09 F80.00 
G01 X-11.68 Y16.21 
G01 X-11.74 Y16.21 
G01 X-11.74 Y16.11 
G01 X-12.30 Y15.55 
G01 X-12.40 Y15.55 
G01 X-12.40 Y15.49 
G01 X-12.28 Y15.49 
G00 Z1.00 
G00 X-18.72 Y34.04 
G01 Z-0.20 F60.00 
G01 X-18.88 Y34.01 F80.00 
G01 X-19.03 Y33.96 
G01 X-19.18 Y33.89 
G01 X-19.31 Y33.80 
G01 X-19.42 Y33.68 
G01 X-19.51 Y33.55 
G01 X-19.59 Y33.41 
G01 X-19.61 Y33.32 
G01 X-19.56 Y33.32 
G01 X-19.50 Y33.48 
G01 X-19.39 Y33.63 
G01 X-19.26 Y33.77 
G01 X-19.10 Y33.87 
G01 X-18.92 Y33.95 
G01 X-18.74 Y33.98 
G01 X-18.08 Y33.98 
G01 X-18.08 Y34.04 
G01 X-18.72 Y34.04 
G00 Z1.00 
G00 X-16.84 Y32.00 
G01 Z-0.20 F60.00 
G01 X-16.68 Y32.03 F80.00 
G01 X-16.53 Y32.08 
G01 X-16.38 Y32.15 
G01 X-16.25 Y32.24 
G01 X-16.14 Y32.36 
G01 X-16.05 Y32.49 
G01 X-15.97 Y32.63 
G01 X-15.95 Y32.72 
G01 X-16.00 Y32.72 
G01 X-16.06 Y32.56 
G01 X-16.17 Y32.41 
G01 X-16.30 Y32.27 
G01 X-16.46 Y32.17 
G01 X-16.64 Y32.09 
G01 X-16.82 Y32.06 
G01 X-17.48 Y32.06 
G01 X-17.48 Y32.00 
G01 X-16.84 Y32.00 
G00 Z1.00 
G00 X-19.42 Y32.36 
G01 Z-0.20 F60.00 
G01 X-19.31 Y32.24 F80.00 
G01 X-19.18 Y32.15 
G01 X-19.03 Y32.08 
G01 X-18.88 Y32.03 
G01 X-18.72 Y32.00 
G01 X-18.08 Y32.00 
G01 X-18.08 Y32.06 
G01 X-18.74 Y32.06 
G01 X-18.92 Y32.09 
G01 X-19.10 Y32.17 
G01 X-19.26 Y32.27 
G01 X-19.39 Y32.41 
G01 X-19.50 Y32.56 
G01 X-19.56 Y32.72 
G01 X-19.61 Y32.72 
G01 X-19.59 Y32.63 
G01 X-19.51 Y32.49 
G01 X-19.42 Y32.36 
G00 Z1.00 
G00 X-15.97 Y33.41 
G01 Z-0.20 F60.00 
G01 X-16.05 Y33.55 F80.00 
G01 X-16.14 Y33.68 
G01 X-16.25 Y33.80 
G01 X-16.38 Y33.89 
G01 X-16.53 Y33.96 
G01 X-16.68 Y34.01 
G01 X-16.84 Y34.04 
G01 X-17.48 Y34.04 
G01 X-17.48 Y33.98 
G01 X-16.82 Y33.98 
G01 X-16.64 Y33.95 
G01 X-16.46 Y33.87 
G01 X-16.30 Y33.77 
G01 X-16.17 Y33.63 
G01 X-16.06 Y33.48 
G01 X-16.00 Y33.32 
G01 X-15.95 Y33.32 
G01 X-15.97 Y33.41 
G00 Z1.00 
G00 X-34.75 Y15.65 
G01 Z-0.20 F60.00 
G01 X-35.10 Y15.65 F80.00 
G01 X-35.11 Y15.65 
G01 X-34.74 Y15.65 
G01 X-34.75 Y15.65 
G00 Z1.00 
G00 X-35.14 Y15.65 
G01 Z-0.20 F60.00 
G01 X-35.16 Y15.65 F80.00 
G01 X-35.18 Y15.66 
G01 X-35.20 Y15.66 
G01 X-35.22 Y15.67 
G01 X-35.23 Y15.67 
G01 X-35.25 Y15.68 
G01 X-35.27 Y15.69 
G01 X-35.29 Y15.70 
G01 X-35.30 Y15.71 
G01 X-35.32 Y15.73 
G01 X-35.33 Y15.74 
G01 X-35.35 Y15.76 
G01 X-35.36 Y15.77 
G01 X-35.36 Y15.77 
G01 X-35.65 Y16.06 
G01 X-36.00 Y16.21 
G01 X-36.39 Y16.21 
G01 X-36.74 Y16.06 
G01 X-37.01 Y15.79 
G01 X-37.16 Y15.43 
G01 X-37.16 Y15.05 
G01 X-37.01 Y14.69 
G01 X-36.74 Y14.42 
G01 X-36.39 Y14.27 
G01 X-36.00 Y14.27 
G01 X-35.65 Y14.42 
G01 X-35.38 Y14.69 
G01 X-35.37 Y14.70 
G01 X-35.36 Y14.71 
G01 X-35.35 Y14.73 
G01 X-35.34 Y14.74 
G01 X-35.33 Y14.76 
G01 X-35.31 Y14.77 
G01 X-35.30 Y14.79 
G01 X-35.28 Y14.80 
G01 X-35.26 Y14.81 
G01 X-35.24 Y14.82 
G01 X-35.23 Y14.83 
G01 X-35.21 Y14.83 
G01 X-35.19 Y14.84 
G01 X-35.17 Y14.84 
G01 X-35.15 Y14.85 
G01 X-35.13 Y14.85 
G01 X-35.12 Y14.85 
G01 X-35.31 Y14.85 
G01 X-35.34 Y14.78 
G01 X-35.45 Y14.63 
G01 X-35.58 Y14.49 
G01 X-35.74 Y14.39 
G01 X-35.91 Y14.31 
G01 X-36.10 Y14.28 
G01 X-36.29 Y14.28 
G01 X-36.48 Y14.31 
G01 X-36.65 Y14.39 
G01 X-36.81 Y14.49 
G01 X-36.94 Y14.63 
G01 X-37.05 Y14.78 
G01 X-37.12 Y14.96 
G01 X-37.16 Y15.14 
G01 X-37.16 Y15.34 
G01 X-37.12 Y15.52 
G01 X-37.05 Y15.70 
G01 X-36.94 Y15.85 
G01 X-36.81 Y15.99 
G01 X-36.65 Y16.09 
G01 X-36.48 Y16.17 
G01 X-36.29 Y16.20 
G01 X-36.10 Y16.20 
G01 X-35.91 Y16.17 
G01 X-35.74 Y16.09 
G01 X-35.58 Y15.99 
G01 X-35.45 Y15.85 
G01 X-35.34 Y15.70 
G01 X-35.32 Y15.65 
G01 X-35.13 Y15.65 
G01 X-35.14 Y15.65 
G00 Z1.00 
G00 X-35.09 Y14.85 
G01 Z-0.20 F60.00 
G01 X-34.76 Y14.85 F80.00 
G01 X-34.75 Y14.85 
G01 X-35.10 Y14.85 
G01 X-35.09 Y14.85 
G00 Z1.00 
G00 X-34.72 Y14.85 
G01 Z-0.20 F60.00 
G01 X-34.70 Y14.85 F80.00 
G01 X-34.68 Y14.84 
G01 X-34.66 Y14.84 
G01 X-34.64 Y14.83 
G01 X-34.62 Y14.83 
G01 X-34.61 Y14.82 
G01 X-34.59 Y14.81 
G01 X-34.57 Y14.80 
G01 X-34.55 Y14.79 
G01 X-34.54 Y14.77 
G01 X-34.52 Y14.76 
G01 X-34.51 Y14.74 
G01 X-34.50 Y14.73 
G01 X-34.49 Y14.71 
G01 X-34.48 Y14.70 
G01 X-34.47 Y14.69 
G01 X-34.20 Y14.42 
G01 X-33.85 Y14.27 
G01 X-33.55 Y14.27 
G01 X-33.51 Y14.26 
G01 X-33.48 Y14.25 
G01 X-33.47 Y14.25 
G01 X-33.41 Y14.21 
G01 X-33.35 Y14.16 
G01 X-33.29 Y14.13 
G01 X-33.37 Y14.18 
G01 X-33.45 Y14.25 
G01 X-33.47 Y14.29 
G01 X-33.56 Y14.28 
G01 X-33.75 Y14.28 
G01 X-33.94 Y14.31 
G01 X-34.11 Y14.39 
G01 X-34.27 Y14.49 
G01 X-34.40 Y14.63 
G01 X-34.51 Y14.78 
G01 X-34.54 Y14.85 
G01 X-34.73 Y14.85 
G01 X-34.72 Y14.85 
G00 Z1.00 
G00 X-33.20 Y14.10 
G01 Z-0.20 F60.00 
G01 X-32.75 Y14.10 F80.00 
G01 X-32.74 Y14.10 
G01 X-33.18 Y14.10 
G01 X-33.26 Y14.12 
G01 X-33.20 Y14.10 
G00 Z1.00 
G00 X-29.62 Y33.57 
G01 Z-0.20 F60.00 
G01 X-29.77 Y33.21 F80.00 
G01 X-29.77 Y32.83 
G01 X-29.62 Y32.47 
G01 X-29.35 Y32.20 
G01 X-29.00 Y32.05 
G01 X-28.67 Y32.05 
G01 X-28.59 Y32.03 
G01 X-28.52 Y31.99 
G01 X-28.46 Y31.94 
G01 X-28.42 Y31.87 
G01 X-28.40 Y31.79 
G01 X-28.40 Y29.80 
G01 X-28.42 Y29.73 
G01 X-28.46 Y29.66 
G01 X-28.52 Y29.60 
G01 X-28.59 Y29.56 
G01 X-28.67 Y29.54 
G01 X-29.00 Y29.54 
G01 X-29.35 Y29.39 
G01 X-29.62 Y29.12 
G01 X-29.77 Y28.77 
G01 X-29.77 Y28.38 
G01 X-29.62 Y28.03 
G01 X-29.35 Y27.76 
G01 X-29.00 Y27.61 
G01 X-26.88 Y27.61 
G01 X-26.53 Y27.76 
G01 X-26.26 Y28.03 
G01 X-26.11 Y28.38 
G01 X-26.11 Y28.77 
G01 X-26.26 Y29.12 
G01 X-26.53 Y29.39 
G01 X-26.88 Y29.54 
G01 X-27.33 Y29.54 
G01 X-27.41 Y29.56 
G01 X-27.48 Y29.60 
G01 X-27.54 Y29.66 
G01 X-27.58 Y29.73 
G01 X-27.60 Y29.80 
G01 X-27.60 Y31.79 
G01 X-27.58 Y31.87 
G01 X-27.54 Y31.94 
G01 X-27.48 Y31.99 
G01 X-27.41 Y32.03 
G01 X-27.33 Y32.05 
G01 X-26.88 Y32.05 
G01 X-26.53 Y32.20 
G01 X-26.26 Y32.47 
G01 X-26.11 Y32.83 
G01 X-26.11 Y33.21 
G01 X-26.26 Y33.57 
G01 X-26.53 Y33.84 
G01 X-26.88 Y33.99 
G01 X-29.00 Y33.99 
G01 X-29.35 Y33.84 
G01 X-29.62 Y33.57 
G00 Z1.00 
G00 X-28.90 Y29.54 
G01 Z-0.20 F60.00 
G01 X-28.40 Y29.54 F80.00 
G01 X-28.40 Y32.06 
G01 X-28.90 Y32.06 
G01 X-29.08 Y32.09 
G01 X-29.26 Y32.17 
G01 X-29.42 Y32.27 
G01 X-29.55 Y32.41 
G01 X-29.66 Y32.56 
G01 X-29.73 Y32.74 
G01 X-29.77 Y32.92 
G01 X-29.77 Y33.12 
G01 X-29.73 Y33.30 
G01 X-29.66 Y33.48 
G01 X-29.55 Y33.63 
G01 X-29.42 Y33.77 
G01 X-29.26 Y33.87 
G01 X-29.08 Y33.95 
G01 X-28.90 Y33.98 
G01 X-26.98 Y33.98 
G01 X-26.80 Y33.95 
G01 X-26.62 Y33.87 
G01 X-26.46 Y33.77 
G01 X-26.33 Y33.63 
G01 X-26.22 Y33.48 
G01 X-26.15 Y33.30 
G01 X-26.11 Y33.12 
G01 X-26.11 Y32.92 
G01 X-26.15 Y32.74 
G01 X-26.22 Y32.56 
G01 X-26.33 Y32.41 
G01 X-26.46 Y32.27 
G01 X-26.62 Y32.17 
G01 X-26.80 Y32.09 
G01 X-26.98 Y32.06 
G01 X-27.60 Y32.06 
G01 X-27.60 Y29.54 
G01 X-26.98 Y29.54 
G01 X-26.80 Y29.50 
G01 X-26.62 Y29.43 
G01 X-26.46 Y29.32 
G01 X-26.33 Y29.19 
G01 X-26.22 Y29.03 
G01 X-26.15 Y28.86 
G01 X-26.11 Y28.67 
G01 X-26.11 Y28.48 
G01 X-26.15 Y28.29 
G01 X-26.22 Y28.12 
G01 X-26.33 Y27.96 
G01 X-26.46 Y27.83 
G01 X-26.62 Y27.72 
G01 X-26.80 Y27.65 
G01 X-26.98 Y27.61 
G01 X-28.90 Y27.61 
G01 X-29.08 Y27.65 
G01 X-29.26 Y27.72 
G01 X-29.42 Y27.83 
G01 X-29.55 Y27.96 
G01 X-29.66 Y28.12 
G01 X-29.73 Y28.29 
G01 X-29.77 Y28.48 
G01 X-29.77 Y28.67 
G01 X-29.73 Y28.86 
G01 X-29.66 Y29.03 
G01 X-29.55 Y29.19 
G01 X-29.42 Y29.32 
G01 X-29.26 Y29.43 
G01 X-29.08 Y29.50 
G01 X-28.90 Y29.54 
G00 Z1.00 
G00 X-2.96 Y32.13 
G01 Z-0.20 F60.00 
G01 X-3.56 Y31.54 F80.00 
G01 X-3.56 Y31.42 
G01 X-3.50 Y31.42 
G01 X-3.50 Y31.51 
G01 X-2.94 Y32.08 
G01 X-2.84 Y32.08 
G01 X-2.84 Y32.13 
G01 X-2.96 Y32.13 
G00 Z1.00 
G00 X-1.90 Y4.25 
G01 Z-0.20 F60.00 
G01 X-1.91 Y4.25 F80.00 
G01 X-1.93 Y4.26 
G01 X-1.95 Y4.27 
G01 X-1.96 Y4.28 
G01 X-1.98 Y4.29 
G01 X-1.99 Y4.30 
G01 X-2.01 Y4.32 
G01 X-2.02 Y4.33 
G01 X-2.04 Y4.35 
G01 X-2.05 Y4.36 
G01 X-2.06 Y4.38 
G01 X-2.07 Y4.40 
G01 X-2.08 Y4.42 
G01 X-2.08 Y4.43 
G01 X-2.09 Y4.45 
G01 X-2.09 Y4.47 
G01 X-2.10 Y4.49 
G01 X-2.10 Y4.51 
G01 X-2.10 Y4.52 
G01 X-2.10 Y4.33 
G01 X-1.95 Y4.26 
G01 X-1.81 Y4.15 
G01 X-1.69 Y4.03 
G01 X-1.58 Y3.89 
G01 X-1.52 Y3.76 
G01 X-1.59 Y3.94 
G01 X-1.90 Y4.25 
G00 Z1.00 
G00 X-2.10 Y4.55 
G01 Z-0.20 F60.00 
G01 X-2.10 Y18.45 F80.00 
G01 X-2.08 Y18.52 
G01 X-2.08 Y18.52 
G01 X-2.04 Y18.59 
G01 X-1.98 Y18.65 
G01 X-1.72 Y18.91 
G01 X-1.57 Y19.26 
G01 X-1.57 Y21.38 
G01 X-1.72 Y21.73 
G01 X-1.98 Y21.99 
G01 X-2.03 Y22.04 
G01 X-2.04 Y22.05 
G01 X-2.08 Y22.12 
G01 X-2.10 Y22.19 
G01 X-2.10 Y27.57 
G01 X-2.08 Y27.64 
G01 X-2.04 Y27.71 
G01 X-1.98 Y27.77 
G01 X-1.57 Y28.17 
G01 X-1.57 Y28.98 
G01 X-2.22 Y29.62 
G01 X-2.26 Y29.69 
G01 X-2.28 Y29.77 
G01 X-2.28 Y29.85 
G01 X-2.26 Y29.92 
G01 X-2.26 Y29.93 
G01 X-2.22 Y30.00 
G01 X-2.16 Y30.05 
G01 X-1.52 Y30.69 
G01 X-1.52 Y30.81 
G01 X-1.58 Y30.81 
G01 X-1.58 Y30.72 
G01 X-2.14 Y30.15 
G01 X-2.94 Y30.15 
G01 X-3.50 Y30.72 
G01 X-3.50 Y30.81 
G01 X-3.56 Y30.81 
G01 X-3.56 Y30.69 
G01 X-2.92 Y30.05 
G01 X-2.87 Y30.01 
G01 X-2.86 Y30.00 
G01 X-2.82 Y29.93 
G01 X-2.80 Y29.85 
G01 X-2.80 Y29.77 
G01 X-2.82 Y29.69 
G01 X-2.86 Y29.62 
G01 X-2.92 Y29.57 
G01 X-3.51 Y28.98 
G01 X-3.51 Y28.17 
G01 X-2.96 Y27.63 
G01 X-2.92 Y27.56 
G01 X-2.90 Y27.49 
G01 X-2.90 Y22.30 
G01 X-2.90 Y22.29 
G01 X-2.90 Y27.61 
G01 X-2.94 Y27.61 
G01 X-3.50 Y28.18 
G01 X-3.50 Y28.97 
G01 X-2.94 Y29.54 
G01 X-2.14 Y29.54 
G01 X-1.58 Y28.97 
G01 X-1.58 Y28.18 
G01 X-2.10 Y27.65 
G01 X-2.10 Y22.05 
G01 X-2.08 Y22.04 
G01 X-1.93 Y21.93 
G01 X-1.79 Y21.80 
G01 X-1.69 Y21.64 
G01 X-1.61 Y21.46 
G01 X-1.58 Y21.28 
G01 X-1.58 Y19.36 
G01 X-1.61 Y19.18 
G01 X-1.69 Y19.00 
G01 X-1.79 Y18.84 
G01 X-1.93 Y18.71 
G01 X-2.08 Y18.60 
G01 X-2.10 Y18.59 
G01 X-2.10 Y4.54 
G01 X-2.10 Y4.55 
G00 Z1.00 
G00 X-3.00 Y18.60 
G01 Z-0.20 F60.00 
G01 X-3.15 Y18.71 F80.00 
G01 X-3.29 Y18.84 
G01 X-3.39 Y19.00 
G01 X-3.47 Y19.18 
G01 X-3.50 Y19.36 
G01 X-3.50 Y21.28 
G01 X-3.47 Y21.46 
G01 X-3.39 Y21.64 
G01 X-3.29 Y21.80 
G01 X-3.15 Y21.93 
G01 X-3.00 Y22.04 
G01 X-2.90 Y22.08 
G01 X-2.90 Y22.27 
G01 X-2.90 Y22.26 
G01 X-2.90 Y22.24 
G01 X-2.91 Y22.22 
G01 X-2.91 Y22.20 
G01 X-2.92 Y22.18 
G01 X-2.92 Y22.16 
G01 X-2.93 Y22.15 
G01 X-2.94 Y22.13 
G01 X-2.95 Y22.11 
G01 X-2.96 Y22.10 
G01 X-2.98 Y22.08 
G01 X-2.99 Y22.07 
G01 X-3.01 Y22.05 
G01 X-3.02 Y22.04 
G01 X-3.04 Y22.03 
G01 X-3.05 Y22.02 
G01 X-3.07 Y22.01 
G01 X-3.09 Y22.00 
G01 X-3.36 Y21.73 
G01 X-3.51 Y21.38 
G01 X-3.51 Y19.26 
G01 X-3.36 Y18.91 
G01 X-3.09 Y18.64 
G01 X-3.07 Y18.63 
G01 X-3.05 Y18.62 
G01 X-3.04 Y18.61 
G01 X-3.02 Y18.60 
G01 X-3.01 Y18.59 
G01 X-2.99 Y18.57 
G01 X-2.98 Y18.56 
G01 X-2.96 Y18.54 
G01 X-2.95 Y18.53 
G01 X-2.94 Y18.51 
G01 X-2.93 Y18.49 
G01 X-2.92 Y18.48 
G01 X-2.92 Y18.46 
G01 X-2.91 Y18.44 
G01 X-2.91 Y18.42 
G01 X-2.90 Y18.40 
G01 X-2.90 Y18.38 
G01 X-2.90 Y18.37 
G01 X-2.90 Y18.56 
G01 X-3.00 Y18.60 
G00 Z1.00 
G00 X-2.90 Y18.34 
G01 Z-0.20 F60.00 
G01 X-2.90 Y4.59 F80.00 
G01 X-2.90 Y4.58 
G01 X-2.90 Y18.35 
G01 X-2.90 Y18.34 
G00 Z1.00 
G00 X-2.90 Y4.55 
G01 Z-0.20 F60.00 
G01 X-2.90 Y4.53 F80.00 
G01 X-2.91 Y4.51 
G01 X-2.91 Y4.49 
G01 X-2.92 Y4.47 
G01 X-2.92 Y4.45 
G01 X-2.93 Y4.43 
G01 X-2.94 Y4.41 
G01 X-2.95 Y4.40 
G01 X-2.96 Y4.38 
G01 X-2.98 Y4.36 
G01 X-2.99 Y4.35 
G01 X-3.01 Y4.34 
G01 X-3.02 Y4.32 
G01 X-3.04 Y4.31 
G01 X-3.05 Y4.30 
G01 X-3.07 Y4.29 
G01 X-3.09 Y4.28 
G01 X-3.11 Y4.28 
G01 X-3.17 Y4.25 
G01 X-3.49 Y3.94 
G01 X-3.56 Y3.76 
G01 X-3.50 Y3.89 
G01 X-3.39 Y4.03 
G01 X-3.27 Y4.15 
G01 X-3.13 Y4.26 
G01 X-2.97 Y4.34 
G01 X-2.90 Y4.36 
G01 X-2.90 Y4.55 
G01 X-2.90 Y4.55 
G00 Z1.00 
G00 X-1.52 Y31.54 
G01 Z-0.20 F60.00 
G01 X-2.12 Y32.13 F80.00 
G01 X-2.24 Y32.13 
G01 X-2.24 Y32.08 
G01 X-2.14 Y32.08 
G01 X-1.58 Y31.51 
G01 X-1.58 Y31.42 
G01 X-1.52 Y31.42 
G01 X-1.52 Y31.54 
G00 Z1.00 
G00 X-28.78 Y2.58 
G01 Z-0.20 F60.00 
G01 X-28.77 Y2.54 F80.00 
G01 X-28.75 Y2.51 
G01 X-28.72 Y2.48 
G01 X-28.69 Y2.46 
G01 X-28.65 Y2.45 
G01 X-27.78 Y2.45 
G01 X-27.78 Y2.50 
G01 X-28.65 Y2.50 
G01 X-28.69 Y2.51 
G01 X-28.72 Y2.54 
G01 X-28.73 Y2.58 
G01 X-28.73 Y2.80 
G01 X-28.78 Y2.80 
G01 X-28.78 Y2.58 
G00 Z1.00 
G00 X-25.98 Y3.82 
G01 Z-0.20 F60.00 
G01 X-25.99 Y3.86 F80.00 
G01 X-26.01 Y3.89 
G01 X-26.04 Y3.92 
G01 X-26.07 Y3.94 
G01 X-26.11 Y3.95 
G01 X-26.98 Y3.95 
G01 X-26.98 Y3.90 
G01 X-26.11 Y3.90 
G01 X-26.07 Y3.89 
G01 X-26.04 Y3.86 
G01 X-26.03 Y3.82 
G01 X-26.03 Y3.60 
G01 X-25.98 Y3.60 
G01 X-25.98 Y3.82 
G00 Z1.00 
G00 X-26.11 Y2.50 
G01 Z-0.20 F60.00 
G01 X-26.98 Y2.50 F80.00 
G01 X-26.98 Y2.45 
G01 X-26.11 Y2.45 
G01 X-26.07 Y2.46 
G01 X-26.04 Y2.47 
G01 X-26.03 Y2.49 
G01 X-26.01 Y2.50 
G01 X-26.00 Y2.51 
G01 X-25.98 Y2.52 
G01 X-25.96 Y2.53 
G01 X-25.97 Y2.55 
G01 X-25.97 Y2.57 
G01 X-25.98 Y2.59 
G01 X-25.98 Y2.61 
G01 X-25.98 Y2.63 
G01 X-25.98 Y2.65 
G01 X-25.98 Y2.80 
G01 X-26.03 Y2.80 
G01 X-26.03 Y2.58 
G01 X-26.04 Y2.54 
G01 X-26.07 Y2.51 
G01 X-26.11 Y2.50 
G00 Z1.00 
G00 X-28.65 Y3.95 
G01 Z-0.20 F60.00 
G01 X-28.69 Y3.94 F80.00 
G01 X-28.72 Y3.92 
G01 X-28.75 Y3.89 
G01 X-28.77 Y3.86 
G01 X-28.78 Y3.82 
G01 X-28.78 Y3.60 
G01 X-28.73 Y3.60 
G01 X-28.73 Y3.82 
G01 X-28.72 Y3.86 
G01 X-28.69 Y3.89 
G01 X-28.65 Y3.90 
G01 X-27.78 Y3.90 
G01 X-27.78 Y3.95 
G01 X-28.65 Y3.95 
G00 Z1.00 
G00 X-8.74 Y3.21 
G01 Z-0.20 F60.00 
G01 X-8.74 Y3.39 F80.00 
G01 X-8.71 Y3.56 
G01 X-8.66 Y3.70 
G01 X-8.74 Y3.52 
G01 X-8.74 Y3.08 
G01 X-8.66 Y2.90 
G01 X-8.71 Y3.04 
G01 X-8.74 Y3.21 
G00 Z1.00 
G00 X-8.25 Y2.35 
G01 Z-0.20 F60.00 
G01 X-8.07 Y2.28 F80.00 
G01 X-8.21 Y2.35 
G01 X-8.35 Y2.45 
G01 X-8.47 Y2.57 
G01 X-8.58 Y2.72 
G01 X-8.64 Y2.85 
G01 X-8.57 Y2.67 
G01 X-8.25 Y2.35 
G00 Z1.00 
G00 X-7.40 Y2.18 
G01 Z-0.20 F60.00 
G01 X-7.22 Y2.26 F80.00 
G01 X-7.36 Y2.21 
G01 X-7.53 Y2.19 
G01 X-7.71 Y2.19 
G01 X-7.88 Y2.21 
G01 X-8.02 Y2.26 
G01 X-7.84 Y2.18 
G01 X-7.40 Y2.18 
G00 Z1.00 
G00 X-4.13 Y2.41 
G01 Z-0.20 F60.00 
G01 X-4.06 Y2.59 F80.00 
G01 X-4.12 Y2.46 
G01 X-4.23 Y2.32 
G01 X-4.35 Y2.20 
G01 X-4.49 Y2.09 
G01 X-4.63 Y2.03 
G01 X-4.45 Y2.10 
G01 X-4.13 Y2.41 
G00 Z1.00 
G00 X-4.86 Y1.93 
G01 Z-0.20 F60.00 
G01 X-4.68 Y2.00 F80.00 
G01 X-4.82 Y1.96 
G01 X-4.99 Y1.93 
G01 X-5.17 Y1.93 
G01 X-5.34 Y1.96 
G01 X-5.48 Y2.00 
G01 X-5.30 Y1.93 
G01 X-4.86 Y1.93 
G00 Z1.00 
G00 X-5.71 Y2.10 
G01 Z-0.20 F60.00 
G01 X-5.53 Y2.03 F80.00 
G01 X-5.67 Y2.09 
G01 X-5.81 Y2.20 
G01 X-5.93 Y2.32 
G01 X-6.04 Y2.46 
G01 X-6.10 Y2.59 
G01 X-6.03 Y2.41 
G01 X-5.71 Y2.10 
G00 Z1.00 
G00 X-19.13 Y3.95 
G01 Z-0.20 F60.00 
G01 X-19.16 Y3.94 F80.00 
G01 X-19.20 Y3.92 
G01 X-19.23 Y3.89 
G01 X-19.25 Y3.86 
G01 X-19.26 Y3.82 
G01 X-19.26 Y3.60 
G01 X-19.21 Y3.60 
G01 X-19.21 Y3.82 
G01 X-19.19 Y3.86 
G01 X-19.16 Y3.89 
G01 X-19.13 Y3.90 
G01 X-18.26 Y3.90 
G01 X-18.26 Y3.95 
G01 X-19.13 Y3.95 
G00 Z1.00 
G00 X-16.58 Y2.50 
G01 Z-0.20 F60.00 
G01 X-17.45 Y2.50 F80.00 
G01 X-17.45 Y2.45 
G01 X-16.58 Y2.45 
G01 X-16.55 Y2.46 
G01 X-16.52 Y2.47 
G01 X-16.50 Y2.49 
G01 X-16.49 Y2.50 
G01 X-16.47 Y2.51 
G01 X-16.46 Y2.52 
G01 X-16.44 Y2.53 
G01 X-16.44 Y2.55 
G01 X-16.45 Y2.57 
G01 X-16.45 Y2.59 
G01 X-16.45 Y2.61 
G01 X-16.45 Y2.63 
G01 X-16.45 Y2.65 
G01 X-16.45 Y2.80 
G01 X-16.50 Y2.80 
G01 X-16.50 Y2.58 
G01 X-16.52 Y2.54 
G01 X-16.55 Y2.51 
G01 X-16.58 Y2.50 
G00 Z1.00 
G00 X-1.58 Y2.72 
G01 Z-0.20 F60.00 
G01 X-1.69 Y2.57 F80.00 
G01 X-1.81 Y2.45 
G01 X-1.95 Y2.35 
G01 X-2.09 Y2.28 
G01 X-1.91 Y2.35 
G01 X-1.59 Y2.67 
G01 X-1.52 Y2.85 
G01 X-1.58 Y2.72 
G00 Z1.00 
G00 X-2.28 Y2.21 
G01 Z-0.20 F60.00 
G01 X-2.45 Y2.19 F80.00 
G01 X-2.63 Y2.19 
G01 X-2.80 Y2.21 
G01 X-2.94 Y2.26 
G01 X-2.76 Y2.18 
G01 X-2.32 Y2.18 
G01 X-2.14 Y2.26 
G01 X-2.28 Y2.21 
G00 Z1.00 
G00 X-48.28 Y16.96 
G01 Z-0.20 F60.00 
G01 X-48.28 Y2.92 F80.00 
G01 X-48.25 Y2.86 
G01 X-48.28 Y2.95 
G01 X-48.28 Y16.93 
G01 X-48.25 Y17.01 
G01 X-48.28 Y16.96 
G00 Z1.00 
G00 X-47.47 Y3.84 
G01 Z-0.20 F60.00 
G01 X-47.47 Y16.62 F80.00 
G01 X-47.45 Y16.70 
G01 X-47.41 Y16.77 
G01 X-47.39 Y16.79 
G01 X-46.21 Y17.97 
G01 X-46.18 Y18.00 
G01 X-46.16 Y18.02 
G01 X-46.09 Y18.06 
G01 X-46.01 Y18.08 
G01 X-45.32 Y18.08 
G01 X-44.75 Y18.65 
G01 X-44.75 Y19.45 
G01 X-45.32 Y20.02 
G01 X-46.12 Y20.02 
G01 X-46.69 Y19.45 
G01 X-46.69 Y18.72 
G01 X-46.71 Y18.64 
G01 X-46.71 Y18.64 
G01 X-46.75 Y18.57 
G01 X-46.80 Y18.52 
G01 X-48.09 Y17.23 
G01 X-48.22 Y17.10 
G01 X-48.24 Y17.04 
G01 X-48.20 Y17.12 
G01 X-48.12 Y17.20 
G01 X-46.68 Y18.64 
G01 X-46.68 Y18.65 
G01 X-46.68 Y19.45 
G01 X-46.12 Y20.01 
G01 X-45.32 Y20.01 
G01 X-44.76 Y19.45 
G01 X-44.76 Y18.65 
G01 X-45.32 Y18.09 
G01 X-46.10 Y18.09 
G01 X-47.47 Y16.71 
G01 X-47.47 Y3.83 
G01 X-47.47 Y3.84 
G00 Z1.00 
G00 X-44.70 Y1.78 
G01 Z-0.20 F60.00 
G01 X-45.02 Y1.78 F80.00 
G01 X-45.09 Y1.80 
G01 X-45.10 Y1.80 
G01 X-45.17 Y1.84 
G01 X-45.22 Y1.89 
G01 X-45.26 Y1.96 
G01 X-45.28 Y2.04 
G01 X-45.28 Y2.12 
G01 X-45.26 Y2.20 
G01 X-45.26 Y2.20 
G01 X-45.22 Y2.27 
G01 X-45.17 Y2.32 
G01 X-44.95 Y2.54 
G01 X-44.88 Y2.72 
G01 X-44.94 Y2.59 
G01 X-45.05 Y2.45 
G01 X-45.17 Y2.32 
G01 X-45.31 Y2.22 
G01 X-45.47 Y2.14 
G01 X-45.64 Y2.09 
G01 X-45.81 Y2.06 
G01 X-45.99 Y2.06 
G01 X-46.16 Y2.09 
G01 X-46.33 Y2.14 
G01 X-46.48 Y2.22 
G01 X-46.63 Y2.32 
G01 X-46.75 Y2.45 
G01 X-46.85 Y2.59 
G01 X-46.93 Y2.75 
G01 X-46.99 Y2.91 
G01 X-47.01 Y3.09 
G01 X-47.01 Y3.26 
G01 X-46.99 Y3.44 
G01 X-46.93 Y3.60 
G01 X-46.85 Y3.76 
G01 X-46.75 Y3.90 
G01 X-46.63 Y4.03 
G01 X-46.48 Y4.13 
G01 X-46.35 Y4.20 
G01 X-46.53 Y4.12 
G01 X-46.85 Y3.81 
G01 X-46.88 Y3.73 
G01 X-46.89 Y3.71 
G01 X-46.90 Y3.69 
G01 X-46.90 Y3.67 
G01 X-46.92 Y3.65 
G01 X-46.93 Y3.64 
G01 X-46.94 Y3.62 
G01 X-46.95 Y3.61 
G01 X-46.97 Y3.59 
G01 X-46.98 Y3.58 
G01 X-47.00 Y3.57 
G01 X-47.02 Y3.56 
G01 X-47.03 Y3.55 
G01 X-47.05 Y3.54 
G01 X-47.07 Y3.54 
G01 X-47.09 Y3.53 
G01 X-47.11 Y3.52 
G01 X-47.13 Y3.52 
G01 X-47.15 Y3.52 
G01 X-47.17 Y3.52 
G01 X-47.19 Y3.52 
G01 X-47.21 Y3.52 
G01 X-47.23 Y3.52 
G01 X-47.25 Y3.53 
G01 X-47.27 Y3.54 
G01 X-47.29 Y3.54 
G01 X-47.30 Y3.55 
G01 X-47.32 Y3.56 
G01 X-47.34 Y3.57 
G01 X-47.36 Y3.58 
G01 X-47.37 Y3.59 
G01 X-47.39 Y3.61 
G01 X-47.40 Y3.62 
G01 X-47.41 Y3.64 
G01 X-47.42 Y3.65 
G01 X-47.43 Y3.67 
G01 X-47.44 Y3.69 
G01 X-47.45 Y3.71 
G01 X-47.46 Y3.73 
G01 X-47.46 Y3.74 
G01 X-47.47 Y3.76 
G01 X-47.47 Y3.78 
G01 X-47.47 Y3.80 
G01 X-47.47 Y3.81 
G01 X-47.47 Y3.17 
G01 X-46.08 Y1.78 
G01 X-44.69 Y1.78 
G01 X-44.70 Y1.78 
G00 Z1.00 
G00 X-44.09 Y2.35 
G01 Z-0.20 F60.00 
G01 X-44.34 Y2.10 F80.00 
G01 X-44.37 Y2.04 
G01 X-44.32 Y2.12 
G01 X-44.09 Y2.36 
G01 X-44.09 Y2.35 
G00 Z1.00 
G00 X-43.96 Y2.59 
G01 Z-0.20 F60.00 
G01 X-44.01 Y2.69 F80.00 
G01 X-44.01 Y2.68 
G01 X-44.00 Y2.66 
G01 X-44.00 Y2.64 
G01 X-43.99 Y2.62 
G01 X-43.99 Y2.60 
G01 X-43.99 Y2.58 
G01 X-43.99 Y2.56 
G01 X-43.99 Y2.54 
G01 X-44.00 Y2.52 
G01 X-44.00 Y2.50 
G01 X-44.01 Y2.48 
G01 X-44.01 Y2.46 
G01 X-44.02 Y2.44 
G01 X-44.03 Y2.43 
G01 X-44.04 Y2.41 
G01 X-44.05 Y2.39 
G01 X-44.07 Y2.38 
G01 X-44.07 Y2.37 
G01 X-43.91 Y2.53 
G01 X-43.96 Y2.59 
G00 Z1.00 
G00 X-44.39 Y1.98 
G01 Z-0.20 F60.00 
G01 X-44.40 Y1.96 F80.00 
G01 X-44.41 Y1.95 
G01 X-44.41 Y1.93 
G01 X-44.43 Y1.91 
G01 X-44.44 Y1.89 
G01 X-44.45 Y1.88 
G01 X-44.46 Y1.86 
G01 X-44.48 Y1.85 
G01 X-44.49 Y1.84 
G01 X-44.51 Y1.83 
G01 X-44.53 Y1.82 
G01 X-44.54 Y1.81 
G01 X-44.56 Y1.80 
G01 X-44.58 Y1.79 
G01 X-44.60 Y1.79 
G01 X-44.62 Y1.78 
G01 X-44.64 Y1.78 
G01 X-44.66 Y1.78 
G01 X-44.67 Y1.78 
G01 X-44.40 Y1.78 
G01 X-44.40 Y1.93 
G01 X-44.38 Y2.01 
G01 X-44.39 Y1.98 
G00 Z1.00 
G00 X-16.45 Y3.82 
G01 Z-0.20 F60.00 
G01 X-16.46 Y3.86 F80.00 
G01 X-16.48 Y3.89 
G01 X-16.51 Y3.92 
G01 X-16.55 Y3.94 
G01 X-16.58 Y3.95 
G01 X-17.45 Y3.95 
G01 X-17.45 Y3.90 
G01 X-16.58 Y3.90 
G01 X-16.55 Y3.89 
G01 X-16.52 Y3.86 
G01 X-16.50 Y3.82 
G01 X-16.50 Y3.60 
G01 X-16.45 Y3.60 
G01 X-16.45 Y3.82 
G00 Z1.00 
G00 X-19.26 Y2.58 
G01 Z-0.20 F60.00 
G01 X-19.25 Y2.54 F80.00 
G01 X-19.23 Y2.51 
G01 X-19.20 Y2.48 
G01 X-19.16 Y2.46 
G01 X-19.13 Y2.45 
G01 X-18.26 Y2.45 
G01 X-18.26 Y2.50 
G01 X-19.13 Y2.50 
G01 X-19.16 Y2.51 
G01 X-19.19 Y2.54 
G01 X-19.21 Y2.58 
G01 X-19.21 Y2.80 
G01 X-19.26 Y2.80 
G01 X-19.26 Y2.58 
G00 Z1.00 
G00 X-13.41 Y11.60 
G01 Z-0.20 F60.00 
G01 X-13.52 Y11.72 F80.00 
G01 X-13.58 Y11.74 
G01 X-13.50 Y11.70 
G01 X-13.43 Y11.62 
G01 X-13.38 Y11.54 
G01 X-13.41 Y11.60 
G00 Z1.00 
G00 X-12.63 Y12.00 
G01 Z-0.20 F60.00 
G01 X-10.08 Y12.00 F80.00 
G01 X-10.05 Y11.99 
G01 X-10.02 Y11.96 
G01 X-10.00 Y11.92 
G01 X-10.00 Y10.68 
G01 X-10.02 Y10.64 
G01 X-10.05 Y10.61 
G01 X-4.88 Y5.45 
G01 X-4.80 Y5.37 
G01 X-4.76 Y5.29 
G01 X-4.78 Y5.35 
G01 X-4.97 Y5.54 
G01 X-9.94 Y10.51 
G01 X-9.98 Y10.58 
G01 X-10.00 Y10.66 
G01 X-10.00 Y11.94 
G01 X-10.06 Y12.00 
G01 X-12.65 Y12.00 
G01 X-12.71 Y11.94 
G01 X-12.71 Y11.05 
G01 X-12.71 Y11.01 
G01 X-12.71 Y10.97 
G01 X-12.71 Y10.95 
G01 X-12.73 Y10.89 
G01 X-12.74 Y10.87 
G01 X-12.77 Y10.82 
G01 X-12.80 Y10.80 
G01 X-12.82 Y10.77 
G01 X-12.87 Y10.74 
G01 X-12.89 Y10.73 
G01 X-12.96 Y10.71 
G01 X-12.97 Y10.71 
G01 X-13.01 Y10.71 
G01 X-13.05 Y10.71 
G01 X-13.07 Y10.71 
G01 X-13.13 Y10.73 
G01 X-13.15 Y10.74 
G01 X-13.20 Y10.77 
G01 X-13.23 Y10.80 
G01 X-13.25 Y10.82 
G01 X-13.26 Y10.83 
G01 X-13.29 Y10.86 
G01 X-13.32 Y10.90 
G01 X-13.33 Y10.93 
G01 X-13.35 Y11.00 
G01 X-13.35 Y11.00 
G01 X-13.35 Y11.04 
G01 X-13.35 Y11.46 
G01 X-13.37 Y11.51 
G01 X-13.35 Y11.43 
G01 X-13.35 Y10.92 
G01 X-7.25 Y4.82 
G01 X-7.18 Y4.75 
G01 X-7.13 Y4.65 
G01 X-7.10 Y4.55 
G01 X-7.10 Y4.29 
G01 X-7.03 Y4.26 
G01 X-6.89 Y4.15 
G01 X-6.77 Y4.03 
G01 X-6.66 Y3.89 
G01 X-6.58 Y3.73 
G01 X-6.53 Y3.56 
G01 X-6.50 Y3.39 
G01 X-6.50 Y3.21 
G01 X-6.53 Y3.04 
G01 X-6.58 Y2.87 
G01 X-6.66 Y2.72 
G01 X-6.77 Y2.57 
G01 X-6.89 Y2.45 
G01 X-7.03 Y2.35 
G01 X-7.17 Y2.28 
G01 X-6.99 Y2.35 
G01 X-6.67 Y2.67 
G01 X-6.67 Y2.68 
G01 X-6.64 Y2.72 
G01 X-6.62 Y2.74 
G01 X-6.59 Y2.76 
G01 X-6.56 Y2.79 
G01 X-6.53 Y2.80 
G01 X-6.48 Y2.82 
G01 X-6.45 Y2.83 
G01 X-6.40 Y2.83 
G01 X-6.36 Y2.83 
G01 X-6.32 Y2.82 
G01 X-6.28 Y2.80 
G01 X-6.25 Y2.79 
G01 X-6.21 Y2.76 
G01 X-6.19 Y2.74 
G01 X-6.17 Y2.72 
G01 X-6.14 Y2.68 
G01 X-6.13 Y2.66 
G01 X-6.12 Y2.65 
G01 X-6.17 Y2.79 
G01 X-6.20 Y2.96 
G01 X-6.20 Y3.14 
G01 X-6.17 Y3.31 
G01 X-6.12 Y3.48 
G01 X-6.04 Y3.63 
G01 X-5.93 Y3.78 
G01 X-5.81 Y3.90 
G01 X-5.67 Y4.00 
G01 X-5.53 Y4.07 
G01 X-5.53 Y4.96 
G01 X-11.17 Y10.60 
G01 X-12.63 Y10.60 
G01 X-12.66 Y10.61 
G01 X-12.69 Y10.64 
G01 X-12.71 Y10.68 
G01 X-12.71 Y11.92 
G01 X-12.69 Y11.96 
G01 X-12.66 Y11.99 
G01 X-12.63 Y12.00 
G00 Z1.00 
G00 X-4.65 Y4.08 
G01 Z-0.20 F60.00 
G01 X-4.49 Y4.00 F80.00 
G01 X-4.35 Y3.90 
G01 X-4.23 Y3.78 
G01 X-4.12 Y3.63 
G01 X-4.04 Y3.48 
G01 X-3.99 Y3.31 
G01 X-3.96 Y3.14 
G01 X-3.96 Y2.96 
G01 X-3.99 Y2.79 
G01 X-4.04 Y2.65 
G01 X-4.03 Y2.66 
G01 X-4.02 Y2.68 
G01 X-3.99 Y2.72 
G01 X-3.97 Y2.74 
G01 X-3.95 Y2.76 
G01 X-3.91 Y2.79 
G01 X-3.89 Y2.80 
G01 X-3.84 Y2.82 
G01 X-3.80 Y2.83 
G01 X-3.76 Y2.83 
G01 X-3.72 Y2.83 
G01 X-3.68 Y2.82 
G01 X-3.63 Y2.80 
G01 X-3.60 Y2.79 
G01 X-3.57 Y2.76 
G01 X-3.54 Y2.74 
G01 X-3.52 Y2.72 
G01 X-3.49 Y2.68 
G01 X-3.49 Y2.67 
G01 X-3.17 Y2.35 
G01 X-2.99 Y2.28 
G01 X-3.13 Y2.35 
G01 X-3.27 Y2.45 
G01 X-3.39 Y2.57 
G01 X-3.50 Y2.72 
G01 X-3.58 Y2.87 
G01 X-3.63 Y3.04 
G01 X-3.66 Y3.21 
G01 X-3.66 Y3.39 
G01 X-3.63 Y3.56 
G01 X-3.58 Y3.70 
G01 X-3.59 Y3.69 
G01 X-3.60 Y3.67 
G01 X-3.63 Y3.63 
G01 X-3.65 Y3.61 
G01 X-3.67 Y3.59 
G01 X-3.71 Y3.56 
G01 X-3.73 Y3.55 
G01 X-3.78 Y3.53 
G01 X-3.82 Y3.52 
G01 X-3.86 Y3.52 
G01 X-3.90 Y3.52 
G01 X-3.94 Y3.53 
G01 X-3.99 Y3.55 
G01 X-4.02 Y3.56 
G01 X-4.05 Y3.59 
G01 X-4.08 Y3.61 
G01 X-4.10 Y3.63 
G01 X-4.13 Y3.67 
G01 X-4.13 Y3.68 
G01 X-4.45 Y4.00 
G01 X-4.52 Y4.02 
G01 X-4.54 Y4.03 
G01 X-4.55 Y4.04 
G01 X-4.57 Y4.05 
G01 X-4.59 Y4.06 
G01 X-4.61 Y4.07 
G01 X-4.62 Y4.08 
G01 X-4.64 Y4.10 
G01 X-4.65 Y4.11 
G01 X-4.66 Y4.13 
G01 X-4.67 Y4.14 
G01 X-4.68 Y4.16 
G01 X-4.69 Y4.18 
G01 X-4.70 Y4.20 
G01 X-4.71 Y4.22 
G01 X-4.71 Y4.23 
G01 X-4.72 Y4.25 
G01 X-4.72 Y4.27 
G01 X-4.72 Y4.29 
G01 X-4.72 Y4.30 
G01 X-4.72 Y4.11 
G01 X-4.65 Y4.08 
G00 Z1.00 
G00 X-4.72 Y4.33 
G01 Z-0.20 F60.00 
G01 X-4.72 Y5.21 F80.00 
G01 X-4.75 Y5.26 
G01 X-4.72 Y5.18 
G01 X-4.72 Y4.32 
G01 X-4.72 Y4.33 
G00 Z1.00 
G00 X-19.13 Y10.90 
G01 Z-0.20 F60.00 
G01 X-16.58 Y10.90 F80.00 
G01 X-16.55 Y10.89 
G01 X-16.52 Y10.86 
G01 X-16.50 Y10.82 
G01 X-16.50 Y9.58 
G01 X-16.52 Y9.54 
G01 X-16.55 Y9.51 
G01 X-16.58 Y9.50 
G01 X-19.13 Y9.50 
G01 X-19.16 Y9.51 
G01 X-19.19 Y9.54 
G01 X-19.21 Y9.58 
G01 X-19.21 Y9.72 
G01 X-22.49 Y9.72 
G01 X-22.48 Y9.72 
G01 X-19.46 Y9.72 
G01 X-19.38 Y9.70 
G01 X-19.34 Y9.68 
G01 X-19.31 Y9.66 
G01 X-19.25 Y9.61 
G01 X-19.15 Y9.50 
G01 X-16.56 Y9.50 
G01 X-16.48 Y9.58 
G01 X-16.47 Y9.60 
G01 X-16.45 Y9.61 
G01 X-16.44 Y9.62 
G01 X-16.42 Y9.63 
G01 X-16.40 Y9.64 
G01 X-16.39 Y9.65 
G01 X-16.37 Y9.66 
G01 X-16.35 Y9.67 
G01 X-16.33 Y9.68 
G01 X-16.31 Y9.68 
G01 X-16.29 Y9.68 
G01 X-16.27 Y9.68 
G01 X-16.25 Y9.69 
G01 X-16.23 Y9.68 
G01 X-16.21 Y9.68 
G01 X-16.19 Y9.68 
G01 X-16.17 Y9.68 
G01 X-16.15 Y9.67 
G01 X-16.13 Y9.66 
G01 X-16.12 Y9.65 
G01 X-16.10 Y9.64 
G01 X-16.08 Y9.63 
G01 X-16.06 Y9.62 
G01 X-16.05 Y9.61 
G01 X-16.03 Y9.60 
G01 X-16.02 Y9.58 
G01 X-16.01 Y9.57 
G01 X-16.00 Y9.55 
G01 X-15.99 Y9.53 
G01 X-15.98 Y9.51 
G01 X-15.97 Y9.50 
G01 X-15.96 Y9.48 
G01 X-15.96 Y9.46 
G01 X-15.95 Y9.44 
G01 X-15.95 Y9.42 
G01 X-15.95 Y9.40 
G01 X-15.94 Y9.38 
G01 X-15.95 Y9.36 
G01 X-15.95 Y9.34 
G01 X-15.95 Y9.32 
G01 X-15.96 Y9.30 
G01 X-15.96 Y9.28 
G01 X-15.97 Y9.26 
G01 X-15.98 Y9.24 
G01 X-16.12 Y8.90 
G01 X-16.12 Y8.30 
G01 X-15.89 Y7.74 
G01 X-15.46 Y7.32 
G01 X-14.91 Y7.08 
G01 X-14.30 Y7.08 
G01 X-13.75 Y7.32 
G01 X-13.32 Y7.74 
G01 X-13.09 Y8.30 
G01 X-13.09 Y8.83 
G01 X-13.07 Y8.90 
G01 X-13.03 Y8.97 
G01 X-12.97 Y9.03 
G01 X-12.90 Y9.07 
G01 X-12.83 Y9.09 
G01 X-12.75 Y9.09 
G01 X-12.67 Y9.07 
G01 X-12.60 Y9.03 
G01 X-12.54 Y8.97 
G01 X-8.22 Y4.65 
G01 X-8.18 Y4.58 
G01 X-8.16 Y4.51 
G01 X-8.16 Y4.43 
G01 X-8.18 Y4.35 
G01 X-8.18 Y4.35 
G01 X-8.22 Y4.28 
G01 X-8.28 Y4.22 
G01 X-8.57 Y3.94 
G01 X-8.64 Y3.76 
G01 X-8.58 Y3.89 
G01 X-8.47 Y4.03 
G01 X-8.35 Y4.15 
G01 X-8.21 Y4.26 
G01 X-8.05 Y4.34 
G01 X-7.94 Y4.37 
G01 X-14.07 Y10.50 
G01 X-14.12 Y10.60 
G01 X-14.15 Y10.70 
G01 X-14.15 Y10.97 
G01 X-19.53 Y10.97 
G01 X-19.53 Y10.68 
G01 X-19.54 Y10.64 
G01 X-19.57 Y10.61 
G01 X-19.61 Y10.60 
G01 X-22.15 Y10.60 
G01 X-22.19 Y10.61 
G01 X-22.22 Y10.64 
G01 X-22.23 Y10.68 
G01 X-22.23 Y11.92 
G01 X-22.22 Y11.96 
G01 X-22.19 Y11.99 
G01 X-22.15 Y12.00 
G01 X-19.61 Y12.00 
G01 X-19.57 Y11.99 
G01 X-19.54 Y11.96 
G01 X-19.53 Y11.92 
G01 X-19.53 Y11.78 
G01 X-13.70 Y11.78 
G01 X-13.61 Y11.75 
G01 X-13.67 Y11.78 
G01 X-19.28 Y11.78 
G01 X-19.35 Y11.80 
G01 X-19.42 Y11.84 
G01 X-19.48 Y11.89 
G01 X-19.59 Y12.00 
G01 X-22.17 Y12.00 
G01 X-22.23 Y11.94 
G01 X-22.23 Y10.79 
G01 X-22.25 Y10.71 
G01 X-22.29 Y10.64 
G01 X-22.35 Y10.59 
G01 X-22.42 Y10.55 
G01 X-22.50 Y10.53 
G01 X-22.62 Y10.53 
G01 X-22.70 Y10.55 
G01 X-22.77 Y10.59 
G01 X-22.83 Y10.64 
G01 X-23.64 Y11.46 
G01 X-23.77 Y11.59 
G01 X-23.83 Y11.62 
G01 X-23.75 Y11.57 
G01 X-23.68 Y11.50 
G01 X-22.71 Y10.53 
G01 X-19.21 Y10.53 
G01 X-19.21 Y10.82 
G01 X-19.19 Y10.86 
G01 X-19.16 Y10.89 
G01 X-19.13 Y10.90 
G00 Z1.00 
G00 X-24.94 Y6.65 
G01 Z-0.20 F60.00 
G01 X-25.76 Y6.65 F80.00 
G01 X-25.84 Y6.67 
G01 X-25.91 Y6.71 
G01 X-25.97 Y6.77 
G01 X-25.98 Y6.80 
G01 X-26.09 Y6.90 
G01 X-28.67 Y6.90 
G01 X-28.73 Y6.84 
G01 X-28.73 Y5.56 
G01 X-28.67 Y5.50 
G01 X-26.09 Y5.50 
G01 X-26.03 Y5.56 
G01 X-26.03 Y5.58 
G01 X-26.01 Y5.66 
G01 X-25.97 Y5.73 
G01 X-25.91 Y5.79 
G01 X-25.84 Y5.83 
G01 X-25.76 Y5.85 
G01 X-19.47 Y5.85 
G01 X-19.39 Y5.83 
G01 X-19.32 Y5.79 
G01 X-19.27 Y5.73 
G01 X-19.23 Y5.66 
G01 X-19.21 Y5.58 
G01 X-19.21 Y5.56 
G01 X-19.15 Y5.50 
G01 X-16.56 Y5.50 
G01 X-16.50 Y5.56 
G01 X-16.50 Y6.84 
G01 X-16.56 Y6.90 
G01 X-19.15 Y6.90 
G01 X-19.25 Y6.80 
G01 X-19.27 Y6.77 
G01 X-19.32 Y6.71 
G01 X-19.39 Y6.67 
G01 X-19.47 Y6.65 
G01 X-23.32 Y6.65 
G01 X-23.33 Y6.65 
G01 X-19.21 Y6.65 
G01 X-19.21 Y6.82 
G01 X-19.19 Y6.86 
G01 X-19.16 Y6.89 
G01 X-19.13 Y6.90 
G01 X-16.58 Y6.90 
G01 X-16.55 Y6.89 
G01 X-16.52 Y6.86 
G01 X-16.50 Y6.82 
G01 X-16.50 Y5.58 
G01 X-16.52 Y5.54 
G01 X-16.55 Y5.51 
G01 X-16.58 Y5.50 
G01 X-19.13 Y5.50 
G01 X-19.16 Y5.51 
G01 X-19.19 Y5.54 
G01 X-19.21 Y5.58 
G01 X-19.21 Y5.85 
G01 X-26.03 Y5.85 
G01 X-26.03 Y5.58 
G01 X-26.04 Y5.54 
G01 X-26.07 Y5.51 
G01 X-26.11 Y5.50 
G01 X-28.65 Y5.50 
G01 X-28.69 Y5.51 
G01 X-28.72 Y5.54 
G01 X-28.73 Y5.58 
G01 X-28.73 Y6.82 
G01 X-28.72 Y6.86 
G01 X-28.69 Y6.89 
G01 X-28.65 Y6.90 
G01 X-26.11 Y6.90 
G01 X-26.07 Y6.89 
G01 X-26.04 Y6.86 
G01 X-26.03 Y6.82 
G01 X-26.03 Y6.65 
G01 X-24.93 Y6.65 
G01 X-24.94 Y6.65 
G00 Z1.00 
G00 X-27.78 Y11.33 
G01 Z-0.20 F60.00 
G01 X-27.78 Y11.17 F80.00 
G01 X-27.80 Y11.09 
G01 X-27.84 Y11.02 
G01 X-27.89 Y10.96 
G01 X-27.96 Y10.92 
G01 X-28.04 Y10.90 
G01 X-28.67 Y10.90 
G01 X-28.73 Y10.84 
G01 X-28.73 Y9.56 
G01 X-28.67 Y9.50 
G01 X-26.09 Y9.50 
G01 X-26.01 Y9.58 
G01 X-25.99 Y9.60 
G01 X-25.98 Y9.61 
G01 X-25.96 Y9.62 
G01 X-25.95 Y9.63 
G01 X-25.93 Y9.64 
G01 X-25.91 Y9.65 
G01 X-25.89 Y9.66 
G01 X-25.87 Y9.67 
G01 X-25.86 Y9.68 
G01 X-25.84 Y9.68 
G01 X-25.82 Y9.68 
G01 X-25.80 Y9.68 
G01 X-25.78 Y9.69 
G01 X-25.76 Y9.68 
G01 X-25.74 Y9.68 
G01 X-25.72 Y9.68 
G01 X-25.70 Y9.68 
G01 X-25.68 Y9.67 
G01 X-25.66 Y9.66 
G01 X-25.64 Y9.65 
G01 X-25.62 Y9.64 
G01 X-25.61 Y9.63 
G01 X-25.59 Y9.62 
G01 X-25.58 Y9.61 
G01 X-25.56 Y9.60 
G01 X-25.55 Y9.58 
G01 X-25.53 Y9.57 
G01 X-25.52 Y9.55 
G01 X-25.51 Y9.53 
G01 X-25.50 Y9.51 
G01 X-25.49 Y9.50 
G01 X-25.49 Y9.48 
G01 X-25.48 Y9.46 
G01 X-25.48 Y9.44 
G01 X-25.47 Y9.42 
G01 X-25.47 Y9.40 
G01 X-25.47 Y9.38 
G01 X-25.47 Y9.36 
G01 X-25.47 Y9.34 
G01 X-25.48 Y9.32 
G01 X-25.48 Y9.30 
G01 X-25.49 Y9.28 
G01 X-25.49 Y9.26 
G01 X-25.50 Y9.24 
G01 X-25.64 Y8.90 
G01 X-25.64 Y8.30 
G01 X-25.41 Y7.74 
G01 X-24.99 Y7.32 
G01 X-24.82 Y7.25 
G01 X-24.80 Y7.24 
G01 X-24.78 Y7.23 
G01 X-24.76 Y7.22 
G01 X-24.75 Y7.21 
G01 X-24.73 Y7.20 
G01 X-24.71 Y7.19 
G01 X-24.70 Y7.17 
G01 X-24.69 Y7.16 
G01 X-24.67 Y7.14 
G01 X-24.66 Y7.13 
G01 X-24.65 Y7.11 
G01 X-24.64 Y7.09 
G01 X-24.63 Y7.07 
G01 X-24.63 Y7.05 
G01 X-24.62 Y7.04 
G01 X-24.62 Y7.02 
G01 X-24.61 Y7.00 
G01 X-24.61 Y6.98 
G01 X-24.61 Y6.96 
G01 X-24.61 Y6.94 
G01 X-24.61 Y6.92 
G01 X-24.62 Y6.90 
G01 X-24.62 Y6.88 
G01 X-24.63 Y6.86 
G01 X-24.63 Y6.84 
G01 X-24.64 Y6.82 
G01 X-24.65 Y6.80 
G01 X-24.66 Y6.79 
G01 X-24.67 Y6.77 
G01 X-24.69 Y6.76 
G01 X-24.70 Y6.74 
G01 X-24.71 Y6.73 
G01 X-24.73 Y6.71 
G01 X-24.75 Y6.70 
G01 X-24.76 Y6.69 
G01 X-24.78 Y6.68 
G01 X-24.80 Y6.67 
G01 X-24.82 Y6.67 
G01 X-24.84 Y6.66 
G01 X-24.86 Y6.66 
G01 X-24.88 Y6.65 
G01 X-24.90 Y6.65 
G01 X-24.90 Y6.65 
G01 X-23.36 Y6.65 
G01 X-23.36 Y6.65 
G01 X-23.38 Y6.65 
G01 X-23.40 Y6.66 
G01 X-23.42 Y6.66 
G01 X-23.44 Y6.67 
G01 X-23.46 Y6.67 
G01 X-23.48 Y6.68 
G01 X-23.50 Y6.69 
G01 X-23.51 Y6.70 
G01 X-23.53 Y6.71 
G01 X-23.55 Y6.73 
G01 X-23.56 Y6.74 
G01 X-23.57 Y6.76 
G01 X-23.59 Y6.77 
G01 X-23.60 Y6.79 
G01 X-23.61 Y6.80 
G01 X-23.62 Y6.82 
G01 X-23.63 Y6.84 
G01 X-23.63 Y6.86 
G01 X-23.64 Y6.88 
G01 X-23.64 Y6.90 
G01 X-23.65 Y6.92 
G01 X-23.65 Y6.94 
G01 X-23.65 Y6.96 
G01 X-23.65 Y6.98 
G01 X-23.65 Y7.00 
G01 X-23.64 Y7.02 
G01 X-23.64 Y7.04 
G01 X-23.63 Y7.05 
G01 X-23.63 Y7.07 
G01 X-23.62 Y7.09 
G01 X-23.61 Y7.11 
G01 X-23.60 Y7.13 
G01 X-23.59 Y7.14 
G01 X-23.57 Y7.16 
G01 X-23.56 Y7.17 
G01 X-23.55 Y7.19 
G01 X-23.53 Y7.20 
G01 X-23.51 Y7.21 
G01 X-23.50 Y7.22 
G01 X-23.48 Y7.23 
G01 X-23.46 Y7.24 
G01 X-23.44 Y7.25 
G01 X-23.27 Y7.32 
G01 X-22.85 Y7.74 
G01 X-22.61 Y8.30 
G01 X-22.61 Y8.90 
G01 X-22.77 Y9.28 
G01 X-22.78 Y9.30 
G01 X-22.79 Y9.32 
G01 X-22.80 Y9.34 
G01 X-22.80 Y9.36 
G01 X-22.80 Y9.38 
G01 X-22.80 Y9.40 
G01 X-22.81 Y9.42 
G01 X-22.80 Y9.44 
G01 X-22.80 Y9.46 
G01 X-22.80 Y9.48 
G01 X-22.80 Y9.50 
G01 X-22.79 Y9.52 
G01 X-22.78 Y9.54 
G01 X-22.77 Y9.55 
G01 X-22.77 Y9.57 
G01 X-22.75 Y9.59 
G01 X-22.74 Y9.61 
G01 X-22.73 Y9.62 
G01 X-22.72 Y9.64 
G01 X-22.70 Y9.65 
G01 X-22.69 Y9.66 
G01 X-22.67 Y9.67 
G01 X-22.65 Y9.68 
G01 X-22.63 Y9.69 
G01 X-22.62 Y9.70 
G01 X-22.60 Y9.71 
G01 X-22.58 Y9.71 
G01 X-22.56 Y9.72 
G01 X-22.54 Y9.72 
G01 X-22.52 Y9.72 
G01 X-22.51 Y9.72 
G01 X-22.93 Y9.72 
G01 X-23.03 Y9.75 
G01 X-23.12 Y9.80 
G01 X-24.17 Y10.85 
G01 X-26.04 Y10.85 
G01 X-26.03 Y10.82 
G01 X-26.03 Y9.58 
G01 X-26.04 Y9.54 
G01 X-26.07 Y9.51 
G01 X-26.11 Y9.50 
G01 X-28.65 Y9.50 
G01 X-28.69 Y9.51 
G01 X-28.72 Y9.54 
G01 X-28.73 Y9.58 
G01 X-28.73 Y10.82 
G01 X-28.72 Y10.86 
G01 X-28.69 Y10.89 
G01 X-28.65 Y10.90 
G01 X-27.78 Y10.90 
G01 X-27.78 Y11.30 
G01 X-27.75 Y11.39 
G01 X-27.78 Y11.33 
G00 Z1.00 
G00 X-27.60 Y11.59 
G01 Z-0.20 F60.00 
G01 X-27.72 Y11.48 F80.00 
G01 X-27.74 Y11.42 
G01 X-27.70 Y11.50 
G01 X-27.62 Y11.57 
G01 X-27.54 Y11.62 
G01 X-27.60 Y11.59 
G00 Z1.00 
G00 X-23.92 Y11.65 
G01 Z-0.20 F60.00 
G01 X-27.46 Y11.65 F80.00 
G01 X-27.51 Y11.63 
G01 X-27.43 Y11.65 
G01 X-23.95 Y11.65 
G01 X-23.86 Y11.63 
G01 X-23.92 Y11.65 
G00 Z1.00 
G00 X-58.24 Y3.02 
G01 Z-0.20 F60.00 
G01 X-58.16 Y3.22 F80.00 
G01 X-58.04 Y3.42 
G01 X-57.91 Y3.60 
G01 X-57.75 Y3.76 
G01 X-57.57 Y3.89 
G01 X-57.37 Y4.01 
G01 X-57.17 Y4.09 
G01 X-57.12 Y4.10 
G01 X-57.12 Y4.16 
G01 X-57.18 Y4.14 
G01 X-57.40 Y4.05 
G01 X-57.60 Y3.94 
G01 X-57.78 Y3.80 
G01 X-57.95 Y3.63 
G01 X-58.09 Y3.45 
G01 X-58.20 Y3.25 
G01 X-58.29 Y3.03 
G01 X-58.31 Y2.97 
G01 X-58.25 Y2.97 
G01 X-58.24 Y3.02 
G00 Z1.00 
G00 X-56.06 Y4.09 
G01 Z-0.20 F60.00 
G01 X-55.86 Y4.01 F80.00 
G01 X-55.66 Y3.89 
G01 X-55.48 Y3.76 
G01 X-55.32 Y3.60 
G01 X-55.19 Y3.42 
G01 X-55.07 Y3.22 
G01 X-54.99 Y3.02 
G01 X-54.98 Y2.97 
G01 X-54.92 Y2.97 
G01 X-54.94 Y3.03 
G01 X-55.03 Y3.25 
G01 X-55.14 Y3.45 
G01 X-55.28 Y3.63 
G01 X-55.45 Y3.80 
G01 X-55.63 Y3.94 
G01 X-55.83 Y4.05 
G01 X-56.05 Y4.14 
G01 X-56.11 Y4.16 
G01 X-56.11 Y4.10 
G01 X-56.06 Y4.09 
G00 Z1.00 
G00 X-60.34 Y30.77 
G01 Z-0.20 F60.00 
G01 X-60.16 Y30.59 F80.00 
G01 X-58.87 Y29.30 
G01 X-58.81 Y29.27 
G01 X-58.89 Y29.32 
G01 X-60.25 Y30.68 
G01 X-60.32 Y30.75 
G01 X-60.37 Y30.83 
G01 X-60.34 Y30.77 
G00 Z1.00 
G00 X-59.23 Y36.34 
G01 Z-0.20 F60.00 
G01 X-59.41 Y36.16 F80.00 
G01 X-59.41 Y36.16 
G01 X-60.34 Y35.23 
G01 X-60.37 Y35.17 
G01 X-60.32 Y35.25 
G01 X-59.32 Y36.25 
G01 X-59.25 Y36.32 
G01 X-59.17 Y36.37 
G01 X-59.23 Y36.34 
G00 Z1.00 
G00 X-31.75 Y29.57 
G01 Z-0.20 F60.00 
G01 X-31.68 Y29.50 F80.00 
G01 X-31.63 Y29.42 
G01 X-31.66 Y29.48 
G01 X-38.52 Y36.34 
G01 X-38.58 Y36.37 
G01 X-38.50 Y36.32 
G01 X-31.75 Y29.57 
G00 Z1.00 
G00 X-39.19 Y22.01 
G01 Z-0.20 F60.00 
G01 X-39.35 Y22.11 F80.00 
G01 X-39.48 Y22.25 
G01 X-39.59 Y22.40 
G01 X-39.66 Y22.58 
G01 X-39.70 Y22.76 
G01 X-39.70 Y22.96 
G01 X-39.66 Y23.14 
G01 X-39.61 Y23.26 
G01 X-39.62 Y23.26 
G01 X-39.70 Y23.05 
G01 X-39.70 Y22.67 
G01 X-39.55 Y22.31 
G01 X-39.27 Y22.03 
G01 X-39.22 Y21.98 
G01 X-39.21 Y21.97 
G01 X-39.17 Y21.90 
G01 X-39.15 Y21.83 
G01 X-39.15 Y17.17 
G01 X-39.13 Y17.11 
G01 X-39.15 Y17.20 
G01 X-39.15 Y21.99 
G01 X-39.19 Y22.01 
G00 Z1.00 
G00 X-40.40 Y26.47 
G01 Z-0.20 F60.00 
G01 X-40.40 Y24.42 F80.00 
G01 X-40.38 Y24.36 
G01 X-40.40 Y24.45 
G01 X-40.40 Y26.48 
G01 X-40.40 Y26.47 
G00 Z1.00 
G00 X-21.08 Y20.47 
G01 Z-0.20 F60.00 
G01 X-13.67 Y20.47 F80.00 
G01 X-13.59 Y20.45 
G01 X-13.52 Y20.41 
G01 X-13.47 Y20.36 
G01 X-13.10 Y19.99 
G01 X-12.30 Y19.99 
G01 X-11.73 Y20.55 
G01 X-11.73 Y21.36 
G01 X-12.30 Y21.92 
G01 X-13.10 Y21.92 
G01 X-13.68 Y21.34 
G01 X-13.75 Y21.30 
G01 X-13.83 Y21.28 
G01 X-20.30 Y21.28 
G01 X-20.31 Y21.28 
G01 X-13.66 Y21.28 
G01 X-13.66 Y21.35 
G01 X-13.10 Y21.92 
G01 X-12.30 Y21.92 
G01 X-11.74 Y21.35 
G01 X-11.74 Y20.56 
G01 X-12.30 Y19.99 
G01 X-13.10 Y19.99 
G01 X-13.58 Y20.47 
G01 X-21.05 Y20.47 
G01 X-21.14 Y20.50 
G01 X-21.08 Y20.47 
G00 Z1.00 
G00 X-20.33 Y21.28 
G01 Z-0.20 F60.00 
G01 X-20.34 Y21.28 F80.00 
G01 X-20.36 Y21.28 
G01 X-20.38 Y21.28 
G01 X-20.40 Y21.29 
G01 X-20.42 Y21.29 
G01 X-20.44 Y21.30 
G01 X-20.46 Y21.31 
G01 X-20.47 Y21.32 
G01 X-20.49 Y21.33 
G01 X-20.51 Y21.34 
G01 X-20.52 Y21.35 
G01 X-20.54 Y21.36 
G01 X-20.55 Y21.38 
G01 X-20.56 Y21.39 
G01 X-20.57 Y21.41 
G01 X-20.59 Y21.43 
G01 X-20.59 Y21.45 
G01 X-20.60 Y21.46 
G01 X-20.61 Y21.48 
G01 X-20.62 Y21.51 
G01 X-20.60 Y21.43 
G01 X-20.60 Y21.28 
G01 X-20.33 Y21.28 
G00 Z1.00 
G00 X-40.34 Y24.27 
G01 Z-0.20 F60.00 
G01 X-39.69 Y23.62 F80.00 
G01 X-39.68 Y23.61 
G01 X-40.32 Y24.25 
G01 X-40.37 Y24.33 
G01 X-40.34 Y24.27 
G00 Z1.00 
G00 X-39.66 Y23.59 
G01 Z-0.20 F60.00 
G01 X-39.65 Y23.58 F80.00 
G01 X-39.64 Y23.56 
G01 X-39.62 Y23.54 
G01 X-39.62 Y23.53 
G01 X-39.61 Y23.51 
G01 X-39.60 Y23.49 
G01 X-39.59 Y23.47 
G01 X-39.59 Y23.45 
G01 X-39.59 Y23.43 
G01 X-39.59 Y23.41 
G01 X-39.58 Y23.39 
G01 X-39.59 Y23.37 
G01 X-39.59 Y23.35 
G01 X-39.59 Y23.33 
G01 X-39.59 Y23.31 
G01 X-39.60 Y23.29 
G01 X-39.60 Y23.28 
G01 X-39.59 Y23.32 
G01 X-39.51 Y23.44 
G01 X-39.67 Y23.60 
G01 X-39.66 Y23.59 
G00 Z1.00 
G00 X-39.09 Y17.02 
G01 Z-0.20 F60.00 
G01 X-38.98 Y16.91 F80.00 
G01 X-38.92 Y16.88 
G01 X-39.00 Y16.93 
G01 X-39.07 Y17.00 
G01 X-39.12 Y17.08 
G01 X-39.09 Y17.02 
G00 Z1.00 
G00 X-38.67 Y36.40 
G01 Z-0.20 F60.00 
G01 X-59.08 Y36.40 F80.00 
G01 X-59.14 Y36.38 
G01 X-59.05 Y36.40 
G01 X-38.70 Y36.40 
G01 X-38.61 Y36.38 
G01 X-38.67 Y36.40 
G00 Z1.00 
G00 X-60.40 Y35.08 
G01 Z-0.20 F60.00 
G01 X-60.40 Y30.92 F80.00 
G01 X-60.38 Y30.86 
G01 X-60.40 Y30.95 
G01 X-60.40 Y35.05 
G01 X-60.38 Y35.14 
G01 X-60.40 Y35.08 
G00 Z1.00 
G00 X-58.72 Y29.24 
G01 Z-0.20 F60.00 
G01 X-40.29 Y29.24 F80.00 
G01 X-40.28 Y29.24 
G01 X-58.69 Y29.24 
G01 X-58.78 Y29.26 
G01 X-58.72 Y29.24 
G00 Z1.00 
G00 X-37.89 Y6.73 
G01 Z-0.20 F60.00 
G01 X-38.48 Y6.14 F80.00 
G01 X-38.48 Y6.02 
G01 X-38.43 Y6.02 
G01 X-38.43 Y6.11 
G01 X-37.86 Y6.68 
G01 X-37.77 Y6.68 
G01 X-37.77 Y6.73 
G01 X-37.89 Y6.73 
G00 Z1.00 
G00 X-42.05 Y2.59 
G01 Z-0.20 F60.00 
G01 X-42.15 Y2.45 F80.00 
G01 X-42.27 Y2.32 
G01 X-42.42 Y2.22 
G01 X-42.55 Y2.15 
G01 X-42.37 Y2.23 
G01 X-42.05 Y2.54 
G01 X-41.98 Y2.72 
G01 X-42.05 Y2.59 
G00 Z1.00 
G00 X-41.91 Y3.44 
G01 Z-0.20 F60.00 
G01 X-41.89 Y3.26 F80.00 
G01 X-41.89 Y3.09 
G01 X-41.91 Y2.91 
G01 X-41.96 Y2.77 
G01 X-41.88 Y2.95 
G01 X-41.88 Y3.40 
G01 X-41.96 Y3.58 
G01 X-41.91 Y3.44 
G00 Z1.00 
G00 X-36.45 Y6.14 
G01 Z-0.20 F60.00 
G01 X-37.04 Y6.73 F80.00 
G01 X-37.16 Y6.73 
G01 X-37.16 Y6.68 
G01 X-37.07 Y6.68 
G01 X-36.50 Y6.11 
G01 X-36.50 Y6.02 
G01 X-36.45 Y6.02 
G01 X-36.45 Y6.14 
G00 Z1.00 
G00 X-33.35 Y5.32 
G01 Z-0.20 F60.00 
G01 X-33.35 Y6.11 F80.00 
G01 X-32.90 Y6.56 
G01 X-32.90 Y13.18 
G01 X-32.88 Y13.26 
G01 X-32.90 Y13.21 
G01 X-32.90 Y6.65 
G01 X-32.92 Y6.57 
G01 X-32.96 Y6.50 
G01 X-33.02 Y6.45 
G01 X-33.35 Y6.12 
G01 X-33.35 Y5.31 
G01 X-32.79 Y4.75 
G01 X-31.98 Y4.75 
G01 X-31.42 Y5.31 
G01 X-31.42 Y6.12 
G01 X-32.04 Y6.73 
G01 X-32.08 Y6.80 
G01 X-32.10 Y6.88 
G01 X-32.10 Y12.46 
G01 X-32.08 Y12.54 
G01 X-32.04 Y12.61 
G01 X-31.98 Y12.66 
G01 X-31.91 Y12.70 
G01 X-31.83 Y12.72 
G01 X-18.54 Y12.72 
G01 X-18.49 Y12.75 
G01 X-18.57 Y12.72 
G01 X-32.10 Y12.72 
G01 X-32.10 Y6.68 
G01 X-31.99 Y6.68 
G01 X-31.42 Y6.11 
G01 X-31.42 Y5.32 
G01 X-31.99 Y4.75 
G01 X-32.78 Y4.75 
G01 X-33.35 Y5.32 
G00 Z1.00 
G00 X-33.35 Y3.57 
G01 Z-0.20 F60.00 
G01 X-32.78 Y4.14 F80.00 
G01 X-31.99 Y4.14 
G01 X-31.42 Y3.57 
G01 X-31.42 Y2.78 
G01 X-31.99 Y2.21 
G01 X-32.78 Y2.21 
G01 X-33.30 Y2.72 
G01 X-36.55 Y2.72 
G01 X-37.07 Y2.21 
G01 X-37.86 Y2.21 
G01 X-38.43 Y2.78 
G01 X-38.43 Y3.36 
G01 X-40.75 Y5.68 
G01 X-40.82 Y5.75 
G01 X-40.87 Y5.83 
G01 X-40.84 Y5.77 
G01 X-40.66 Y5.59 
G01 X-38.49 Y3.42 
G01 X-38.45 Y3.35 
G01 X-38.43 Y3.28 
G01 X-38.43 Y2.77 
G01 X-37.87 Y2.21 
G01 X-37.06 Y2.21 
G01 X-36.61 Y2.66 
G01 X-36.54 Y2.70 
G01 X-36.47 Y2.72 
G01 X-33.38 Y2.72 
G01 X-33.31 Y2.70 
G01 X-33.31 Y2.70 
G01 X-33.24 Y2.66 
G01 X-33.18 Y2.61 
G01 X-32.79 Y2.21 
G01 X-31.98 Y2.21 
G01 X-31.42 Y2.77 
G01 X-31.42 Y3.58 
G01 X-31.98 Y4.14 
G01 X-32.79 Y4.14 
G01 X-33.28 Y3.64 
G01 X-33.33 Y3.60 
G01 X-33.34 Y3.59 
G01 X-33.41 Y3.55 
G01 X-33.48 Y3.53 
G01 X-36.37 Y3.53 
G01 X-36.44 Y3.55 
G01 X-36.51 Y3.59 
G01 X-36.57 Y3.64 
G01 X-37.15 Y4.22 
G01 X-37.19 Y4.29 
G01 X-37.21 Y4.37 
G01 X-37.21 Y4.45 
G01 X-37.19 Y4.52 
G01 X-37.19 Y4.53 
G01 X-37.15 Y4.60 
G01 X-37.09 Y4.65 
G01 X-36.45 Y5.29 
G01 X-36.45 Y5.41 
G01 X-36.50 Y5.41 
G01 X-36.50 Y5.32 
G01 X-37.07 Y4.75 
G01 X-37.86 Y4.75 
G01 X-38.43 Y5.32 
G01 X-38.43 Y5.41 
G01 X-38.48 Y5.41 
G01 X-38.48 Y5.24 
G01 X-38.50 Y5.17 
G01 X-38.50 Y5.17 
G01 X-38.54 Y5.10 
G01 X-38.60 Y5.04 
G01 X-38.67 Y5.00 
G01 X-38.75 Y4.98 
G01 X-38.83 Y4.98 
G01 X-38.90 Y5.00 
G01 X-38.90 Y5.00 
G01 X-38.97 Y5.04 
G01 X-39.03 Y5.10 
G01 X-40.04 Y6.11 
G01 X-40.08 Y6.18 
G01 X-40.10 Y6.25 
G01 X-40.10 Y8.75 
G01 X-40.08 Y8.82 
G01 X-40.04 Y8.89 
G01 X-39.98 Y8.95 
G01 X-38.34 Y10.59 
G01 X-38.27 Y10.63 
G01 X-38.19 Y10.65 
G01 X-38.11 Y10.65 
G01 X-38.03 Y10.63 
G01 X-37.96 Y10.59 
G01 X-37.91 Y10.54 
G01 X-37.87 Y10.47 
G01 X-37.87 Y10.46 
G01 X-37.79 Y10.46 
G01 X-37.79 Y10.56 
G01 X-37.23 Y11.12 
G01 X-36.43 Y11.12 
G01 X-35.87 Y10.56 
G01 X-35.87 Y10.46 
G01 X-35.81 Y10.46 
G01 X-35.81 Y10.58 
G01 X-36.41 Y11.18 
G01 X-36.43 Y11.18 
G01 X-36.45 Y11.17 
G01 X-36.47 Y11.18 
G01 X-36.49 Y11.18 
G01 X-36.51 Y11.18 
G01 X-36.53 Y11.18 
G01 X-36.55 Y11.19 
G01 X-36.57 Y11.20 
G01 X-36.59 Y11.21 
G01 X-36.61 Y11.22 
G01 X-36.62 Y11.23 
G01 X-36.64 Y11.24 
G01 X-36.66 Y11.25 
G01 X-36.67 Y11.26 
G01 X-36.68 Y11.28 
G01 X-36.70 Y11.29 
G01 X-36.71 Y11.31 
G01 X-36.72 Y11.33 
G01 X-36.73 Y11.35 
G01 X-36.74 Y11.36 
G01 X-36.74 Y11.38 
G01 X-36.75 Y11.40 
G01 X-36.75 Y11.42 
G01 X-36.76 Y11.44 
G01 X-36.76 Y11.46 
G01 X-36.76 Y11.48 
G01 X-36.76 Y11.50 
G01 X-36.76 Y11.52 
G01 X-36.75 Y11.54 
G01 X-36.75 Y11.56 
G01 X-36.74 Y11.58 
G01 X-36.74 Y11.60 
G01 X-36.73 Y11.62 
G01 X-36.72 Y11.63 
G01 X-36.71 Y11.65 
G01 X-36.70 Y11.67 
G01 X-36.68 Y11.68 
G01 X-36.67 Y11.70 
G01 X-36.66 Y11.71 
G01 X-36.64 Y11.72 
G01 X-36.62 Y11.73 
G01 X-36.61 Y11.75 
G01 X-36.59 Y11.75 
G01 X-36.57 Y11.76 
G01 X-36.55 Y11.77 
G01 X-36.28 Y11.88 
G01 X-36.01 Y12.15 
G01 X-35.86 Y12.51 
G01 X-35.86 Y12.89 
G01 X-36.01 Y13.25 
G01 X-36.28 Y13.52 
G01 X-36.64 Y13.67 
G01 X-37.02 Y13.67 
G01 X-37.38 Y13.52 
G01 X-37.65 Y13.25 
G01 X-37.80 Y12.89 
G01 X-37.80 Y12.51 
G01 X-37.79 Y12.49 
G01 X-37.79 Y12.47 
G01 X-37.78 Y12.45 
G01 X-37.78 Y12.43 
G01 X-37.78 Y12.41 
G01 X-37.78 Y12.39 
G01 X-37.78 Y12.37 
G01 X-37.79 Y12.35 
G01 X-37.79 Y12.33 
G01 X-37.80 Y12.32 
G01 X-37.80 Y12.30 
G01 X-37.81 Y12.28 
G01 X-37.82 Y12.26 
G01 X-37.83 Y12.24 
G01 X-37.84 Y12.23 
G01 X-37.86 Y12.21 
G01 X-37.86 Y12.20 
G01 X-37.73 Y12.34 
G01 X-37.76 Y12.42 
G01 X-37.79 Y12.60 
G01 X-37.79 Y12.80 
G01 X-37.76 Y12.98 
G01 X-37.68 Y13.16 
G01 X-37.58 Y13.31 
G01 X-37.44 Y13.45 
G01 X-37.29 Y13.55 
G01 X-37.11 Y13.63 
G01 X-36.93 Y13.66 
G01 X-36.73 Y13.66 
G01 X-36.55 Y13.63 
G01 X-36.37 Y13.55 
G01 X-36.22 Y13.45 
G01 X-36.08 Y13.31 
G01 X-35.98 Y13.16 
G01 X-35.90 Y12.98 
G01 X-35.87 Y12.80 
G01 X-35.87 Y12.60 
G01 X-35.90 Y12.42 
G01 X-35.98 Y12.24 
G01 X-36.08 Y12.09 
G01 X-36.22 Y11.95 
G01 X-36.37 Y11.85 
G01 X-36.55 Y11.77 
G01 X-36.73 Y11.74 
G01 X-36.93 Y11.74 
G01 X-37.11 Y11.77 
G01 X-37.15 Y11.79 
G01 X-40.14 Y8.80 
G01 X-40.13 Y8.78 
G01 X-40.10 Y8.68 
G01 X-40.10 Y6.17 
G01 X-37.97 Y4.04 
G01 X-37.86 Y4.14 
G01 X-37.07 Y4.14 
G01 X-36.50 Y3.57 
G01 X-36.50 Y3.53 
G01 X-33.35 Y3.53 
G01 X-33.35 Y3.57 
G00 Z1.00 
G00 X-41.58 Y8.22 
G01 Z-0.20 F60.00 
G01 X-41.58 Y7.86 F80.00 
G01 X-42.15 Y7.29 
G01 X-42.60 Y7.29 
G01 X-42.60 Y4.43 
G01 X-42.60 Y4.44 
G01 X-42.60 Y7.03 
G01 X-42.58 Y7.10 
G01 X-42.54 Y7.17 
G01 X-42.48 Y7.23 
G01 X-42.41 Y7.27 
G01 X-42.33 Y7.29 
G01 X-42.14 Y7.29 
G01 X-41.58 Y7.85 
G01 X-41.58 Y7.96 
G01 X-41.56 Y8.04 
G01 X-41.52 Y8.11 
G01 X-41.46 Y8.16 
G01 X-41.39 Y8.20 
G01 X-41.32 Y8.22 
G01 X-41.17 Y8.22 
G01 X-41.09 Y8.20 
G01 X-41.02 Y8.16 
G01 X-40.96 Y8.11 
G01 X-40.92 Y8.04 
G01 X-40.90 Y7.96 
G01 X-40.90 Y5.92 
G01 X-40.88 Y5.86 
G01 X-40.90 Y5.95 
G01 X-40.90 Y8.22 
G01 X-41.58 Y8.22 
G00 Z1.00 
G00 X-42.57 Y4.21 
G01 Z-0.20 F60.00 
G01 X-42.42 Y4.13 F80.00 
G01 X-42.27 Y4.03 
G01 X-42.15 Y3.90 
G01 X-42.05 Y3.76 
G01 X-41.98 Y3.63 
G01 X-42.05 Y3.81 
G01 X-42.37 Y4.12 
G01 X-42.39 Y4.13 
G01 X-42.41 Y4.14 
G01 X-42.43 Y4.15 
G01 X-42.45 Y4.16 
G01 X-42.46 Y4.17 
G01 X-42.48 Y4.18 
G01 X-42.49 Y4.19 
G01 X-42.51 Y4.20 
G01 X-42.52 Y4.22 
G01 X-42.54 Y4.23 
G01 X-42.55 Y4.25 
G01 X-42.56 Y4.27 
G01 X-42.57 Y4.29 
G01 X-42.58 Y4.30 
G01 X-42.58 Y4.32 
G01 X-42.59 Y4.34 
G01 X-42.59 Y4.36 
G01 X-42.60 Y4.38 
G01 X-42.60 Y4.40 
G01 X-42.60 Y4.41 
G01 X-42.60 Y4.22 
G01 X-42.57 Y4.21 
G00 Z1.00 
G00 X-43.40 Y4.40 
G01 Z-0.20 F60.00 
G01 X-43.40 Y4.38 F80.00 
G01 X-43.41 Y4.36 
G01 X-43.41 Y4.34 
G01 X-43.42 Y4.32 
G01 X-43.42 Y4.31 
G01 X-43.43 Y4.29 
G01 X-43.44 Y4.27 
G01 X-43.45 Y4.25 
G01 X-43.46 Y4.24 
G01 X-43.48 Y4.22 
G01 X-43.49 Y4.21 
G01 X-43.51 Y4.19 
G01 X-43.52 Y4.18 
G01 X-43.54 Y4.17 
G01 X-43.55 Y4.16 
G01 X-43.57 Y4.15 
G01 X-43.59 Y4.14 
G01 X-43.61 Y4.13 
G01 X-43.64 Y4.12 
G01 X-43.95 Y3.81 
G01 X-44.02 Y3.63 
G01 X-43.96 Y3.76 
G01 X-43.85 Y3.90 
G01 X-43.73 Y4.03 
G01 X-43.59 Y4.13 
G01 X-43.43 Y4.21 
G01 X-43.40 Y4.22 
G01 X-43.40 Y4.41 
G01 X-43.40 Y4.40 
G00 Z1.00 
G00 X-39.09 Y14.07 
G01 Z-0.20 F60.00 
G01 X-39.08 Y14.09 F80.00 
G01 X-39.07 Y14.10 
G01 X-39.07 Y14.12 
G01 X-39.05 Y14.14 
G01 X-39.04 Y14.16 
G01 X-39.03 Y14.17 
G01 X-39.02 Y14.19 
G01 X-39.00 Y14.20 
G01 X-38.99 Y14.21 
G01 X-38.97 Y14.22 
G01 X-38.95 Y14.24 
G01 X-38.93 Y14.24 
G01 X-38.92 Y14.25 
G01 X-38.90 Y14.26 
G01 X-38.88 Y14.27 
G01 X-38.86 Y14.27 
G01 X-38.84 Y14.27 
G01 X-38.82 Y14.27 
G01 X-38.81 Y14.28 
G01 X-38.83 Y14.28 
G01 X-39.00 Y14.31 
G01 X-39.10 Y14.21 
G01 X-39.10 Y14.07 
G01 X-39.12 Y13.99 
G01 X-39.09 Y14.07 
G00 Z1.00 
G00 X-46.05 Y7.86 
G01 Z-0.20 F60.00 
G01 X-46.05 Y8.65 F80.00 
G01 X-45.48 Y9.22 
G01 X-44.97 Y9.22 
G01 X-39.90 Y14.29 
G01 X-39.90 Y14.43 
G01 X-39.87 Y14.53 
G01 X-39.82 Y14.62 
G01 X-39.75 Y14.70 
G01 X-39.61 Y14.83 
G01 X-39.66 Y14.96 
G01 X-39.70 Y15.14 
G01 X-39.70 Y15.34 
G01 X-39.66 Y15.52 
G01 X-39.59 Y15.70 
G01 X-39.48 Y15.85 
G01 X-39.35 Y15.99 
G01 X-39.19 Y16.09 
G01 X-39.02 Y16.17 
G01 X-38.83 Y16.20 
G01 X-38.64 Y16.20 
G01 X-38.45 Y16.17 
G01 X-38.28 Y16.09 
G01 X-38.12 Y15.99 
G01 X-37.99 Y15.85 
G01 X-37.88 Y15.70 
G01 X-37.81 Y15.52 
G01 X-37.77 Y15.34 
G01 X-37.77 Y15.14 
G01 X-37.81 Y14.96 
G01 X-37.88 Y14.78 
G01 X-37.99 Y14.63 
G01 X-38.12 Y14.49 
G01 X-38.28 Y14.39 
G01 X-38.45 Y14.31 
G01 X-38.64 Y14.28 
G01 X-38.79 Y14.28 
G01 X-38.78 Y14.27 
G01 X-38.54 Y14.27 
G01 X-38.19 Y14.42 
G01 X-37.92 Y14.69 
G01 X-37.77 Y15.05 
G01 X-37.77 Y15.43 
G01 X-37.92 Y15.79 
G01 X-38.19 Y16.06 
G01 X-38.54 Y16.21 
G01 X-38.93 Y16.21 
G01 X-39.28 Y16.06 
G01 X-39.55 Y15.79 
G01 X-39.70 Y15.43 
G01 X-39.72 Y15.39 
G01 X-39.72 Y15.39 
G01 X-39.72 Y15.39 
G01 X-39.74 Y15.36 
G01 X-39.76 Y15.33 
G01 X-39.77 Y15.33 
G01 X-39.77 Y15.32 
G01 X-39.80 Y15.30 
G01 X-39.82 Y15.28 
G01 X-39.83 Y15.28 
G01 X-39.83 Y15.27 
G01 X-39.87 Y15.26 
G01 X-39.90 Y15.25 
G01 X-39.90 Y15.25 
G01 X-39.91 Y15.24 
G01 X-39.94 Y15.24 
G01 X-39.98 Y15.23 
G01 X-39.98 Y15.23 
G01 X-39.99 Y15.23 
G01 X-40.02 Y15.24 
G01 X-40.06 Y15.24 
G01 X-40.06 Y15.24 
G01 X-40.06 Y15.24 
G01 X-40.10 Y15.26 
G01 X-40.13 Y15.27 
G01 X-40.13 Y15.27 
G01 X-40.14 Y15.27 
G01 X-40.17 Y15.30 
G01 X-40.20 Y15.32 
G01 X-40.20 Y15.32 
G01 X-40.20 Y15.32 
G01 X-40.22 Y15.35 
G01 X-40.25 Y15.38 
G01 X-40.25 Y15.38 
G01 X-40.25 Y15.39 
G01 X-40.26 Y15.42 
G01 X-40.26 Y15.42 
G01 X-40.28 Y15.45 
G01 X-40.28 Y15.46 
G01 X-40.28 Y15.46 
G01 X-40.28 Y15.48 
G01 X-40.33 Y15.63 
G01 X-40.41 Y15.77 
G01 X-40.50 Y15.90 
G01 X-40.61 Y16.02 
G01 X-40.74 Y16.11 
G01 X-40.88 Y16.18 
G01 X-40.97 Y16.21 
G01 X-40.97 Y16.16 
G01 X-40.82 Y16.09 
G01 X-40.66 Y15.99 
G01 X-40.53 Y15.85 
G01 X-40.42 Y15.70 
G01 X-40.35 Y15.52 
G01 X-40.31 Y15.34 
G01 X-40.31 Y15.14 
G01 X-40.35 Y14.96 
G01 X-40.42 Y14.78 
G01 X-40.53 Y14.63 
G01 X-40.66 Y14.49 
G01 X-40.82 Y14.39 
G01 X-40.97 Y14.32 
G01 X-40.97 Y14.27 
G01 X-40.88 Y14.30 
G01 X-40.74 Y14.37 
G01 X-40.61 Y14.46 
G01 X-40.50 Y14.58 
G01 X-40.46 Y14.63 
G01 X-40.45 Y14.65 
G01 X-40.44 Y14.66 
G01 X-40.43 Y14.67 
G01 X-40.41 Y14.69 
G01 X-40.39 Y14.71 
G01 X-40.38 Y14.72 
G01 X-40.37 Y14.73 
G01 X-40.34 Y14.74 
G01 X-40.32 Y14.75 
G01 X-40.31 Y14.75 
G01 X-40.29 Y14.76 
G01 X-40.27 Y14.76 
G01 X-40.25 Y14.77 
G01 X-40.23 Y14.77 
G01 X-40.21 Y14.77 
G01 X-40.19 Y14.77 
G01 X-40.17 Y14.77 
G01 X-40.15 Y14.76 
G01 X-40.13 Y14.76 
G01 X-40.11 Y14.75 
G01 X-40.09 Y14.75 
G01 X-40.08 Y14.74 
G01 X-40.06 Y14.73 
G01 X-40.04 Y14.72 
G01 X-40.02 Y14.71 
G01 X-40.01 Y14.70 
G01 X-40.00 Y14.69 
G01 X-39.98 Y14.67 
G01 X-39.96 Y14.65 
G01 X-39.95 Y14.64 
G01 X-39.94 Y14.62 
G01 X-39.93 Y14.60 
G01 X-39.92 Y14.58 
G01 X-39.92 Y14.57 
G01 X-39.91 Y14.55 
G01 X-39.91 Y14.53 
G01 X-39.90 Y14.50 
G01 X-39.90 Y14.49 
G01 X-39.90 Y14.47 
G01 X-39.90 Y14.45 
G01 X-39.90 Y14.38 
G01 X-39.92 Y14.30 
G01 X-39.96 Y14.23 
G01 X-40.02 Y14.17 
G01 X-44.91 Y9.28 
G01 X-44.98 Y9.24 
G01 X-45.06 Y9.22 
G01 X-45.49 Y9.22 
G01 X-46.05 Y8.66 
G01 X-46.05 Y7.85 
G01 X-45.96 Y7.77 
G01 X-45.92 Y7.70 
G01 X-45.90 Y7.62 
G01 X-45.90 Y4.61 
G01 X-45.90 Y4.60 
G01 X-45.90 Y7.71 
G01 X-46.05 Y7.86 
G00 Z1.00 
G00 X-44.12 Y8.65 
G01 Z-0.20 F60.00 
G01 X-44.12 Y7.86 F80.00 
G01 X-44.69 Y7.29 
G01 X-45.10 Y7.29 
G01 X-45.10 Y3.96 
G01 X-45.05 Y3.90 
G01 X-44.94 Y3.76 
G01 X-44.88 Y3.63 
G01 X-44.95 Y3.81 
G01 X-44.98 Y3.84 
G01 X-45.03 Y3.89 
G01 X-45.05 Y3.92 
G01 X-45.08 Y3.96 
G01 X-45.10 Y4.04 
G01 X-45.10 Y7.03 
G01 X-45.08 Y7.10 
G01 X-45.04 Y7.17 
G01 X-44.98 Y7.23 
G01 X-44.91 Y7.27 
G01 X-44.83 Y7.29 
G01 X-44.68 Y7.29 
G01 X-44.12 Y7.85 
G01 X-44.12 Y8.70 
G01 X-44.12 Y8.71 
G01 X-44.13 Y8.76 
G01 X-44.13 Y8.80 
G01 X-44.13 Y8.84 
G01 X-44.12 Y8.88 
G01 X-44.11 Y8.91 
G01 X-44.10 Y8.95 
G01 X-44.07 Y8.98 
G01 X-44.05 Y9.01 
G01 X-44.02 Y9.04 
G01 X-39.16 Y13.90 
G01 X-39.13 Y13.96 
G01 X-39.18 Y13.88 
G01 X-44.26 Y8.80 
G01 X-44.12 Y8.65 
G00 Z1.00 
G00 X-45.90 Y4.57 
G01 Z-0.20 F60.00 
G01 X-45.90 Y4.55 F80.00 
G01 X-45.91 Y4.53 
G01 X-45.91 Y4.51 
G01 X-45.92 Y4.49 
G01 X-45.92 Y4.47 
G01 X-45.93 Y4.45 
G01 X-45.94 Y4.43 
G01 X-45.95 Y4.42 
G01 X-45.96 Y4.40 
G01 X-45.98 Y4.39 
G01 X-45.99 Y4.37 
G01 X-46.01 Y4.36 
G01 X-46.02 Y4.34 
G01 X-46.04 Y4.33 
G01 X-46.05 Y4.32 
G01 X-46.07 Y4.31 
G01 X-46.09 Y4.30 
G01 X-46.11 Y4.30 
G01 X-46.30 Y4.22 
G01 X-46.16 Y4.26 
G01 X-45.99 Y4.29 
G01 X-45.90 Y4.29 
G01 X-45.90 Y4.58 
G01 X-45.90 Y4.57 
G00 Z1.00 
G00 X-8.58 Y28.18 
G01 Z-0.20 F60.00 
G01 X-8.58 Y28.97 F80.00 
G01 X-8.02 Y29.54 
G01 X-7.22 Y29.54 
G01 X-6.66 Y28.97 
G01 X-6.66 Y28.18 
G01 X-7.10 Y27.73 
G01 X-7.10 Y24.04 
G01 X-5.30 Y22.25 
G01 X-5.25 Y22.15 
G01 X-5.25 Y22.13 
G01 X-5.18 Y22.15 
G01 X-4.98 Y22.15 
G01 X-4.80 Y22.11 
G01 X-4.62 Y22.04 
G01 X-4.47 Y21.93 
G01 X-4.33 Y21.80 
G01 X-4.23 Y21.64 
G01 X-4.15 Y21.46 
G01 X-4.12 Y21.28 
G01 X-4.12 Y19.36 
G01 X-4.15 Y19.18 
G01 X-4.23 Y19.00 
G01 X-4.33 Y18.84 
G01 X-4.47 Y18.71 
G01 X-4.62 Y18.60 
G01 X-4.80 Y18.53 
G01 X-4.98 Y18.49 
G01 X-5.18 Y18.49 
G01 X-5.36 Y18.53 
G01 X-5.54 Y18.60 
G01 X-5.69 Y18.71 
G01 X-5.83 Y18.84 
G01 X-5.93 Y19.00 
G01 X-6.01 Y19.18 
G01 X-6.04 Y19.36 
G01 X-6.04 Y21.28 
G01 X-6.03 Y21.37 
G01 X-6.03 Y21.47 
G01 X-6.03 Y21.46 
G01 X-6.03 Y21.44 
G01 X-6.03 Y21.42 
G01 X-6.04 Y21.40 
G01 X-6.04 Y21.38 
G01 X-6.05 Y21.37 
G01 X-6.05 Y19.26 
G01 X-5.90 Y18.91 
G01 X-5.63 Y18.64 
G01 X-5.27 Y18.49 
G01 X-4.89 Y18.49 
G01 X-4.53 Y18.64 
G01 X-4.26 Y18.91 
G01 X-4.11 Y19.26 
G01 X-4.11 Y21.38 
G01 X-4.26 Y21.73 
G01 X-4.53 Y22.00 
G01 X-4.89 Y22.15 
G01 X-5.12 Y22.15 
G01 X-5.20 Y22.17 
G01 X-5.27 Y22.21 
G01 X-5.32 Y22.27 
G01 X-7.04 Y23.98 
G01 X-7.08 Y24.05 
G01 X-7.10 Y24.13 
G01 X-7.10 Y27.65 
G01 X-7.08 Y27.72 
G01 X-7.04 Y27.79 
G01 X-6.98 Y27.85 
G01 X-6.65 Y28.17 
G01 X-6.65 Y28.98 
G01 X-7.30 Y29.62 
G01 X-7.34 Y29.69 
G01 X-7.36 Y29.77 
G01 X-7.36 Y29.85 
G01 X-7.34 Y29.92 
G01 X-7.34 Y29.93 
G01 X-7.30 Y30.00 
G01 X-7.24 Y30.05 
G01 X-6.60 Y30.69 
G01 X-6.60 Y30.81 
G01 X-6.66 Y30.81 
G01 X-6.66 Y30.72 
G01 X-7.22 Y30.15 
G01 X-8.02 Y30.15 
G01 X-8.58 Y30.72 
G01 X-8.58 Y30.81 
G01 X-8.64 Y30.81 
G01 X-8.64 Y30.69 
G01 X-8.00 Y30.05 
G01 X-7.95 Y30.01 
G01 X-7.94 Y30.00 
G01 X-7.90 Y29.93 
G01 X-7.88 Y29.85 
G01 X-7.88 Y29.77 
G01 X-7.90 Y29.69 
G01 X-7.94 Y29.62 
G01 X-8.00 Y29.57 
G01 X-8.59 Y28.98 
G01 X-8.59 Y28.17 
G01 X-7.96 Y27.55 
G01 X-7.92 Y27.48 
G01 X-7.90 Y27.41 
G01 X-7.90 Y23.79 
G01 X-7.88 Y23.74 
G01 X-7.90 Y23.82 
G01 X-7.90 Y27.61 
G01 X-8.02 Y27.61 
G01 X-8.58 Y28.18 
G00 Z1.00 
G00 X-6.60 Y31.54 
G01 Z-0.20 F60.00 
G01 X-7.20 Y32.13 F80.00 
G01 X-7.32 Y32.13 
G01 X-7.32 Y32.08 
G01 X-7.22 Y32.08 
G01 X-6.66 Y31.51 
G01 X-6.66 Y31.42 
G01 X-6.60 Y31.42 
G01 X-6.60 Y31.54 
G00 Z1.00 
G00 X-7.84 Y23.65 
G01 Z-0.20 F60.00 
G01 X-7.66 Y23.46 F80.00 
G01 X-6.09 Y21.89 
G01 X-6.05 Y21.82 
G01 X-6.03 Y21.75 
G01 X-6.03 Y21.50 
G01 X-6.03 Y21.49 
G01 X-6.03 Y21.83 
G01 X-7.75 Y23.55 
G01 X-7.82 Y23.63 
G01 X-7.87 Y23.71 
G01 X-7.84 Y23.65 
G00 Z1.00 
G00 X-8.04 Y32.13 
G01 Z-0.20 F60.00 
G01 X-8.64 Y31.54 F80.00 
G01 X-8.64 Y31.42 
G01 X-8.58 Y31.42 
G01 X-8.58 Y31.51 
G01 X-8.02 Y32.08 
G01 X-7.92 Y32.08 
G01 X-7.92 Y32.13 
G01 X-8.04 Y32.13 
G00 Z1.00 
G00 X-10.22 Y23.63 
G01 Z-0.20 F60.00 
G01 X-10.22 Y26.58 F80.00 
G01 X-10.25 Y26.64 
G01 X-10.22 Y26.55 
G01 X-10.22 Y23.59 
G01 X-10.20 Y23.55 
G01 X-10.22 Y23.63 
G00 Z1.00 
G00 X-44.76 Y21.93 
G01 Z-0.20 F60.00 
G01 X-44.76 Y21.19 F80.00 
G01 X-45.32 Y20.63 
G01 X-46.12 Y20.63 
G01 X-46.68 Y21.19 
G01 X-46.68 Y21.99 
G01 X-46.12 Y22.55 
G01 X-45.32 Y22.55 
G01 X-45.29 Y22.53 
G01 X-44.70 Y23.12 
G01 X-44.62 Y23.20 
G01 X-44.54 Y23.24 
G01 X-44.60 Y23.22 
G01 X-44.73 Y23.09 
G01 X-44.79 Y23.03 
G01 X-45.20 Y22.62 
G01 X-45.27 Y22.58 
G01 X-45.35 Y22.56 
G01 X-46.12 Y22.56 
G01 X-46.69 Y21.99 
G01 X-46.69 Y21.19 
G01 X-46.12 Y20.62 
G01 X-45.32 Y20.62 
G01 X-44.75 Y21.19 
G01 X-44.75 Y21.84 
G01 X-44.73 Y21.92 
G01 X-44.69 Y21.99 
G01 X-44.64 Y22.04 
G01 X-44.27 Y22.41 
G01 X-44.20 Y22.45 
G01 X-44.12 Y22.47 
G01 X-42.38 Y22.47 
G01 X-42.37 Y22.47 
G01 X-44.21 Y22.47 
G01 X-44.76 Y21.93 
G00 Z1.00 
G00 X-42.13 Y23.32 
G01 Z-0.20 F60.00 
G01 X-42.02 Y23.47 F80.00 
G01 X-41.89 Y23.61 
G01 X-41.73 Y23.71 
G01 X-41.56 Y23.79 
G01 X-41.37 Y23.82 
G01 X-41.18 Y23.82 
G01 X-40.99 Y23.79 
G01 X-40.82 Y23.71 
G01 X-40.66 Y23.61 
G01 X-40.53 Y23.47 
G01 X-40.42 Y23.32 
G01 X-40.35 Y23.14 
G01 X-40.31 Y22.96 
G01 X-40.31 Y22.76 
G01 X-40.35 Y22.58 
G01 X-40.42 Y22.40 
G01 X-40.53 Y22.25 
G01 X-40.66 Y22.11 
G01 X-40.82 Y22.01 
G01 X-40.99 Y21.93 
G01 X-41.18 Y21.90 
G01 X-41.37 Y21.90 
G01 X-41.56 Y21.93 
G01 X-41.73 Y22.01 
G01 X-41.89 Y22.11 
G01 X-42.02 Y22.25 
G01 X-42.13 Y22.40 
G01 X-42.16 Y22.47 
G01 X-42.35 Y22.47 
G01 X-42.34 Y22.47 
G01 X-42.32 Y22.47 
G01 X-42.30 Y22.47 
G01 X-42.28 Y22.46 
G01 X-42.27 Y22.46 
G01 X-42.25 Y22.45 
G01 X-42.23 Y22.44 
G01 X-42.21 Y22.43 
G01 X-42.19 Y22.42 
G01 X-42.18 Y22.41 
G01 X-42.16 Y22.40 
G01 X-42.15 Y22.39 
G01 X-42.13 Y22.37 
G01 X-42.12 Y22.36 
G01 X-42.11 Y22.34 
G01 X-42.10 Y22.32 
G01 X-42.09 Y22.31 
G01 X-41.82 Y22.04 
G01 X-41.47 Y21.89 
G01 X-41.08 Y21.89 
G01 X-40.73 Y22.04 
G01 X-40.46 Y22.31 
G01 X-40.31 Y22.67 
G01 X-40.31 Y23.05 
G01 X-40.46 Y23.41 
G01 X-40.73 Y23.68 
G01 X-41.08 Y23.83 
G01 X-41.47 Y23.83 
G01 X-41.82 Y23.68 
G01 X-42.16 Y23.34 
G01 X-42.23 Y23.30 
G01 X-42.31 Y23.28 
G01 X-44.46 Y23.28 
G01 X-44.51 Y23.25 
G01 X-44.43 Y23.28 
G01 X-42.15 Y23.28 
G01 X-42.13 Y23.32 
G00 Z1.00 
G00 X-42.13 Y15.70 
G01 Z-0.20 F60.00 
G01 X-42.02 Y15.85 F80.00 
G01 X-41.89 Y15.99 
G01 X-41.73 Y16.09 
G01 X-41.58 Y16.16 
G01 X-41.58 Y16.21 
G01 X-41.67 Y16.18 
G01 X-41.81 Y16.11 
G01 X-41.94 Y16.02 
G01 X-42.05 Y15.90 
G01 X-42.14 Y15.77 
G01 X-42.22 Y15.63 
G01 X-42.25 Y15.54 
G01 X-42.19 Y15.54 
G01 X-42.13 Y15.70 
G00 Z1.00 
G00 X-42.22 Y14.85 
G01 Z-0.20 F60.00 
G01 X-42.14 Y14.71 F80.00 
G01 X-42.05 Y14.58 
G01 X-41.94 Y14.46 
G01 X-41.81 Y14.37 
G01 X-41.67 Y14.30 
G01 X-41.58 Y14.27 
G01 X-41.58 Y14.32 
G01 X-41.73 Y14.39 
G01 X-41.89 Y14.49 
G01 X-42.02 Y14.63 
G01 X-42.13 Y14.78 
G01 X-42.19 Y14.94 
G01 X-42.25 Y14.94 
G01 X-42.22 Y14.85 
G00 Z1.00 
G00 X-44.12 Y2.95 
G01 Z-0.20 F60.00 
G01 X-44.05 Y2.77 F80.00 
G01 X-44.09 Y2.91 
G01 X-44.12 Y3.09 
G01 X-44.12 Y3.26 
G01 X-44.09 Y3.44 
G01 X-44.05 Y3.58 
G01 X-44.12 Y3.40 
G01 X-44.12 Y2.95 
G00 Z1.00 
G00 X-44.02 Y2.70 
G01 Z-0.20 F60.00 
G01 X-44.02 Y2.72 F80.00 
G01 X-44.02 Y2.71 
G01 X-44.02 Y2.70 
G00 Z1.00 
G00 X-44.81 Y3.44 
G01 Z-0.20 F60.00 
G01 X-44.78 Y3.26 F80.00 
G01 X-44.78 Y3.09 
G01 X-44.81 Y2.91 
G01 X-44.85 Y2.77 
G01 X-44.78 Y2.95 
G01 X-44.78 Y3.40 
G01 X-44.85 Y3.58 
G01 X-44.81 Y3.44 
G00 Z1.00 
G00 X-15.79 Y28.22 
G01 Z-0.20 F60.00 
G01 X-13.80 Y28.22 F80.00 
G01 X-13.72 Y28.20 
G01 X-13.65 Y28.16 
G01 X-13.60 Y28.11 
G01 X-13.10 Y27.61 
G01 X-12.39 Y27.61 
G01 X-12.31 Y27.59 
G01 X-12.31 Y27.59 
G01 X-12.24 Y27.55 
G01 X-12.19 Y27.49 
G01 X-11.09 Y26.39 
G01 X-11.05 Y26.32 
G01 X-11.03 Y26.25 
G01 X-11.03 Y23.92 
G01 X-11.05 Y23.84 
G01 X-11.09 Y23.77 
G01 X-11.14 Y23.71 
G01 X-11.21 Y23.67 
G01 X-11.29 Y23.65 
G01 X-11.47 Y23.65 
G01 X-11.55 Y23.67 
G01 X-11.62 Y23.71 
G01 X-11.67 Y23.77 
G01 X-11.71 Y23.84 
G01 X-11.73 Y23.89 
G01 X-12.30 Y24.46 
G01 X-13.10 Y24.46 
G01 X-13.67 Y23.90 
G01 X-13.67 Y23.09 
G01 X-13.10 Y22.53 
G01 X-12.30 Y22.53 
G01 X-12.10 Y22.73 
G01 X-12.04 Y22.79 
G01 X-11.97 Y22.83 
G01 X-11.90 Y22.85 
G01 X-10.75 Y22.85 
G01 X-10.68 Y22.83 
G01 X-10.61 Y22.79 
G01 X-10.55 Y22.73 
G01 X-8.65 Y20.83 
G01 X-8.61 Y20.76 
G01 X-8.59 Y20.68 
G01 X-8.59 Y19.26 
G01 X-8.44 Y18.91 
G01 X-8.17 Y18.64 
G01 X-7.81 Y18.49 
G01 X-7.43 Y18.49 
G01 X-7.07 Y18.64 
G01 X-6.80 Y18.91 
G01 X-6.65 Y19.26 
G01 X-6.65 Y21.38 
G01 X-6.80 Y21.73 
G01 X-7.07 Y22.00 
G01 X-7.43 Y22.15 
G01 X-7.81 Y22.15 
G01 X-8.17 Y22.00 
G01 X-8.18 Y21.99 
G01 X-8.24 Y21.93 
G01 X-8.26 Y21.92 
G01 X-8.31 Y21.89 
G01 X-8.39 Y21.87 
G01 X-8.47 Y21.87 
G01 X-8.51 Y21.88 
G01 X-8.54 Y21.89 
G01 X-8.56 Y21.90 
G01 X-8.61 Y21.93 
G01 X-8.67 Y21.99 
G01 X-10.14 Y23.46 
G01 X-10.16 Y23.48 
G01 X-10.20 Y23.55 
G01 X-10.17 Y23.49 
G01 X-8.41 Y21.73 
G01 X-8.37 Y21.80 
G01 X-8.23 Y21.93 
G01 X-8.08 Y22.04 
G01 X-7.90 Y22.11 
G01 X-7.72 Y22.15 
G01 X-7.52 Y22.15 
G01 X-7.34 Y22.11 
G01 X-7.16 Y22.04 
G01 X-7.01 Y21.93 
G01 X-6.87 Y21.80 
G01 X-6.77 Y21.64 
G01 X-6.69 Y21.46 
G01 X-6.66 Y21.28 
G01 X-6.66 Y19.36 
G01 X-6.69 Y19.18 
G01 X-6.77 Y19.00 
G01 X-6.87 Y18.84 
G01 X-7.01 Y18.71 
G01 X-7.16 Y18.60 
G01 X-7.34 Y18.53 
G01 X-7.52 Y18.49 
G01 X-7.72 Y18.49 
G01 X-7.90 Y18.53 
G01 X-8.08 Y18.60 
G01 X-8.23 Y18.71 
G01 X-8.37 Y18.84 
G01 X-8.47 Y19.00 
G01 X-8.55 Y19.18 
G01 X-8.58 Y19.36 
G01 X-8.58 Y20.77 
G01 X-10.67 Y22.85 
G01 X-11.98 Y22.85 
G01 X-12.30 Y22.53 
G01 X-13.10 Y22.53 
G01 X-13.66 Y23.10 
G01 X-13.66 Y23.89 
G01 X-13.10 Y24.46 
G01 X-12.30 Y24.46 
G01 X-11.74 Y23.89 
G01 X-11.74 Y23.65 
G01 X-11.03 Y23.65 
G01 X-11.03 Y26.33 
G01 X-12.30 Y27.61 
G01 X-13.10 Y27.61 
G01 X-13.66 Y28.18 
G01 X-13.66 Y28.22 
G01 X-15.80 Y28.22 
G01 X-15.79 Y28.22 
G00 Z1.00 
G00 X-18.74 Y29.54 
G01 Z-0.20 F60.00 
G01 X-16.82 Y29.54 F80.00 
G01 X-16.64 Y29.50 
G01 X-16.46 Y29.43 
G01 X-16.30 Y29.32 
G01 X-16.17 Y29.19 
G01 X-16.06 Y29.03 
G01 X-16.06 Y29.03 
G01 X-13.61 Y29.03 
G01 X-13.10 Y29.54 
G01 X-12.30 Y29.54 
G01 X-11.74 Y28.97 
G01 X-11.74 Y28.18 
G01 X-10.38 Y26.82 
G01 X-10.30 Y26.75 
G01 X-10.26 Y26.67 
G01 X-10.28 Y26.73 
G01 X-10.43 Y26.88 
G01 X-11.62 Y28.06 
G01 X-11.65 Y28.10 
G01 X-11.67 Y28.12 
G01 X-11.71 Y28.19 
G01 X-11.73 Y28.26 
G01 X-11.73 Y28.98 
G01 X-12.38 Y29.62 
G01 X-12.42 Y29.69 
G01 X-12.44 Y29.77 
G01 X-12.44 Y29.85 
G01 X-12.42 Y29.92 
G01 X-12.42 Y29.93 
G01 X-12.38 Y30.00 
G01 X-12.32 Y30.05 
G01 X-11.68 Y30.69 
G01 X-11.68 Y30.81 
G01 X-11.74 Y30.81 
G01 X-11.74 Y30.72 
G01 X-12.30 Y30.15 
G01 X-13.10 Y30.15 
G01 X-13.66 Y30.72 
G01 X-13.66 Y30.81 
G01 X-13.72 Y30.81 
G01 X-13.72 Y30.69 
G01 X-13.08 Y30.05 
G01 X-13.03 Y30.01 
G01 X-13.02 Y30.00 
G01 X-12.98 Y29.93 
G01 X-12.96 Y29.85 
G01 X-12.96 Y29.77 
G01 X-12.98 Y29.69 
G01 X-13.02 Y29.62 
G01 X-13.08 Y29.57 
G01 X-13.55 Y29.09 
G01 X-13.62 Y29.05 
G01 X-13.70 Y29.03 
G01 X-15.92 Y29.03 
G01 X-15.99 Y29.05 
G01 X-16.06 Y29.09 
G01 X-16.37 Y29.39 
G01 X-16.72 Y29.54 
G01 X-18.84 Y29.54 
G01 X-19.19 Y29.39 
G01 X-19.46 Y29.12 
G01 X-19.61 Y28.77 
G01 X-19.61 Y28.38 
G01 X-19.46 Y28.03 
G01 X-19.19 Y27.76 
G01 X-18.84 Y27.61 
G01 X-16.72 Y27.61 
G01 X-16.37 Y27.76 
G01 X-16.10 Y28.03 
G01 X-16.10 Y28.04 
G01 X-16.09 Y28.05 
G01 X-16.08 Y28.07 
G01 X-16.07 Y28.09 
G01 X-16.06 Y28.11 
G01 X-16.04 Y28.12 
G01 X-16.03 Y28.14 
G01 X-16.01 Y28.15 
G01 X-16.00 Y28.16 
G01 X-15.98 Y28.17 
G01 X-15.97 Y28.18 
G01 X-15.95 Y28.19 
G01 X-15.93 Y28.20 
G01 X-15.91 Y28.21 
G01 X-15.89 Y28.21 
G01 X-15.87 Y28.22 
G01 X-15.85 Y28.22 
G01 X-15.83 Y28.22 
G01 X-15.82 Y28.22 
G01 X-16.02 Y28.22 
G01 X-16.06 Y28.12 
G01 X-16.17 Y27.96 
G01 X-16.30 Y27.83 
G01 X-16.46 Y27.72 
G01 X-16.64 Y27.65 
G01 X-16.82 Y27.61 
G01 X-18.74 Y27.61 
G01 X-18.92 Y27.65 
G01 X-19.10 Y27.72 
G01 X-19.26 Y27.83 
G01 X-19.39 Y27.96 
G01 X-19.50 Y28.12 
G01 X-19.57 Y28.29 
G01 X-19.61 Y28.48 
G01 X-19.61 Y28.67 
G01 X-19.57 Y28.86 
G01 X-19.50 Y29.03 
G01 X-19.39 Y29.19 
G01 X-19.26 Y29.32 
G01 X-19.10 Y29.43 
G01 X-18.92 Y29.50 
G01 X-18.74 Y29.54 
G00 Z1.00 
G00 X-37.79 Y9.76 
G01 Z-0.20 F60.00 
G01 X-37.79 Y9.86 F80.00 
G01 X-37.85 Y9.86 
G01 X-37.85 Y9.74 
G01 X-37.25 Y9.14 
G01 X-37.13 Y9.14 
G01 X-37.13 Y9.20 
G01 X-37.23 Y9.20 
G01 X-37.79 Y9.76 
G00 Z1.00 
G00 X-36.41 Y9.14 
G01 Z-0.20 F60.00 
G01 X-35.81 Y9.74 F80.00 
G01 X-35.81 Y9.86 
G01 X-35.87 Y9.86 
G01 X-35.87 Y9.76 
G01 X-36.43 Y9.20 
G01 X-36.53 Y9.20 
G01 X-36.53 Y9.14 
G01 X-36.41 Y9.14 
G00 Z1.00 
G00 X-19.78 Y18.85 
G01 Z-0.20 F60.00 
G01 X-19.90 Y18.97 F80.00 
G01 X-19.96 Y18.99 
G01 X-19.88 Y18.95 
G01 X-19.80 Y18.87 
G01 X-19.76 Y18.79 
G01 X-19.78 Y18.85 
G00 Z1.00 
G00 X-16.20 Y16.91 
G01 Z-0.20 F60.00 
G01 X-15.64 Y17.47 F80.00 
G01 X-14.84 Y17.47 
G01 X-14.28 Y16.91 
G01 X-14.28 Y16.11 
G01 X-14.84 Y15.55 
G01 X-15.64 Y15.55 
G01 X-18.30 Y12.88 
G01 X-18.38 Y12.80 
G01 X-18.46 Y12.76 
G01 X-18.40 Y12.78 
G01 X-18.21 Y12.97 
G01 X-15.70 Y15.48 
G01 X-15.63 Y15.52 
G01 X-15.55 Y15.54 
G01 X-14.84 Y15.54 
G01 X-14.19 Y16.19 
G01 X-14.12 Y16.23 
G01 X-14.05 Y16.25 
G01 X-13.97 Y16.25 
G01 X-13.89 Y16.23 
G01 X-13.89 Y16.23 
G01 X-13.82 Y16.19 
G01 X-13.76 Y16.13 
G01 X-13.12 Y15.49 
G01 X-13.00 Y15.49 
G01 X-13.00 Y15.55 
G01 X-13.10 Y15.55 
G01 X-13.66 Y16.11 
G01 X-13.66 Y16.91 
G01 X-13.10 Y17.47 
G01 X-13.00 Y17.47 
G01 X-13.00 Y17.53 
G01 X-13.12 Y17.53 
G01 X-13.76 Y16.89 
G01 X-13.82 Y16.83 
G01 X-13.89 Y16.79 
G01 X-13.97 Y16.77 
G01 X-14.05 Y16.77 
G01 X-14.12 Y16.79 
G01 X-14.19 Y16.83 
G01 X-14.84 Y17.48 
G01 X-15.64 Y17.48 
G01 X-16.21 Y16.91 
G01 X-16.21 Y16.20 
G01 X-16.23 Y16.12 
G01 X-16.27 Y16.05 
G01 X-16.32 Y16.00 
G01 X-18.73 Y13.59 
G01 X-18.80 Y13.55 
G01 X-18.88 Y13.53 
G01 X-19.46 Y13.53 
G01 X-19.54 Y13.55 
G01 X-19.61 Y13.59 
G01 X-19.66 Y13.64 
G01 X-19.70 Y13.71 
G01 X-19.72 Y13.79 
G01 X-19.72 Y18.71 
G01 X-19.75 Y18.76 
G01 X-19.72 Y18.68 
G01 X-19.72 Y13.53 
G01 X-18.79 Y13.53 
G01 X-16.20 Y16.11 
G01 X-16.20 Y16.91 
G00 Z1.00 
G00 X-32.73 Y13.47 
G01 Z-0.20 F60.00 
G01 X-32.84 Y13.35 F80.00 
G01 X-32.87 Y13.29 
G01 X-32.82 Y13.37 
G01 X-32.75 Y13.45 
G01 X-32.67 Y13.49 
G01 X-32.73 Y13.47 
G00 Z1.00 
G00 X-28.95 Y26.90 
G01 Z-0.20 F60.00 
G01 X-28.86 Y26.88 F80.00 
G01 X-28.92 Y26.90 
G01 X-31.33 Y26.90 
G01 X-31.41 Y26.92 
G01 X-31.48 Y26.96 
G01 X-31.54 Y27.02 
G01 X-31.58 Y27.09 
G01 X-31.60 Y27.17 
G01 X-31.60 Y29.33 
G01 X-31.62 Y29.39 
G01 X-31.60 Y29.30 
G01 X-31.60 Y26.90 
G01 X-28.95 Y26.90 
G00 Z1.00 
G00 X-23.82 Y22.46 
G01 Z-0.20 F60.00 
G01 X-23.82 Y23.26 F80.00 
G01 X-23.26 Y23.82 
G01 X-22.46 Y23.82 
G01 X-21.90 Y23.26 
G01 X-21.90 Y22.84 
G01 X-20.68 Y21.62 
G01 X-20.63 Y21.54 
G01 X-20.66 Y21.60 
G01 X-21.83 Y22.78 
G01 X-21.87 Y22.85 
G01 X-21.89 Y22.92 
G01 X-21.89 Y23.26 
G01 X-22.46 Y23.83 
G01 X-23.26 Y23.83 
G01 X-23.83 Y23.26 
G01 X-23.83 Y22.59 
G01 X-23.85 Y22.51 
G01 X-23.89 Y22.44 
G01 X-23.94 Y22.39 
G01 X-24.01 Y22.35 
G01 X-24.09 Y22.32 
G01 X-24.17 Y22.32 
G01 X-24.25 Y22.35 
G01 X-24.32 Y22.39 
G01 X-24.37 Y22.44 
G01 X-28.64 Y26.71 
G01 X-28.77 Y26.84 
G01 X-28.83 Y26.87 
G01 X-28.75 Y26.82 
G01 X-28.68 Y26.75 
G01 X-23.17 Y21.24 
G01 X-23.14 Y21.25 
G01 X-22.96 Y21.28 
G01 X-22.76 Y21.28 
G01 X-22.58 Y21.25 
G01 X-22.40 Y21.17 
G01 X-22.25 Y21.07 
G01 X-22.11 Y20.93 
G01 X-22.01 Y20.78 
G01 X-21.93 Y20.60 
G01 X-21.90 Y20.42 
G01 X-21.90 Y20.22 
G01 X-21.93 Y20.04 
G01 X-22.01 Y19.86 
G01 X-22.11 Y19.71 
G01 X-22.25 Y19.57 
G01 X-22.40 Y19.47 
G01 X-22.58 Y19.39 
G01 X-22.76 Y19.36 
G01 X-22.96 Y19.36 
G01 X-23.14 Y19.39 
G01 X-23.32 Y19.47 
G01 X-23.47 Y19.57 
G01 X-23.61 Y19.71 
G01 X-23.71 Y19.86 
G01 X-23.79 Y20.04 
G01 X-23.82 Y20.22 
G01 X-23.82 Y20.42 
G01 X-23.79 Y20.60 
G01 X-23.75 Y20.69 
G01 X-29.17 Y26.10 
G01 X-32.05 Y26.10 
G01 X-32.15 Y26.13 
G01 X-32.25 Y26.18 
G01 X-32.32 Y26.25 
G01 X-32.37 Y26.35 
G01 X-32.40 Y26.45 
G01 X-32.40 Y29.08 
G01 X-38.92 Y35.60 
G01 X-58.83 Y35.60 
G01 X-59.60 Y34.83 
G01 X-59.60 Y31.17 
G01 X-58.47 Y30.04 
G01 X-37.76 Y30.04 
G01 X-37.66 Y30.01 
G01 X-37.56 Y29.96 
G01 X-37.49 Y29.89 
G01 X-37.18 Y29.58 
G01 X-37.13 Y29.48 
G01 X-37.10 Y29.38 
G01 X-37.10 Y28.56 
G01 X-36.99 Y28.52 
G01 X-36.82 Y28.41 
G01 X-36.68 Y28.27 
G01 X-36.57 Y28.10 
G01 X-36.54 Y28.03 
G01 X-35.85 Y28.03 
G01 X-35.82 Y28.10 
G01 X-35.71 Y28.27 
G01 X-35.57 Y28.41 
G01 X-35.40 Y28.52 
G01 X-35.22 Y28.59 
G01 X-35.02 Y28.63 
G01 X-34.83 Y28.63 
G01 X-34.63 Y28.59 
G01 X-34.45 Y28.52 
G01 X-34.28 Y28.41 
G01 X-34.14 Y28.27 
G01 X-34.03 Y28.10 
G01 X-33.96 Y27.92 
G01 X-33.92 Y27.72 
G01 X-33.92 Y27.52 
G01 X-33.96 Y27.33 
G01 X-34.03 Y27.14 
G01 X-34.14 Y26.98 
G01 X-34.28 Y26.84 
G01 X-34.45 Y26.73 
G01 X-34.63 Y26.65 
G01 X-34.83 Y26.61 
G01 X-35.02 Y26.61 
G01 X-35.22 Y26.65 
G01 X-35.40 Y26.73 
G01 X-35.57 Y26.84 
G01 X-35.71 Y26.98 
G01 X-35.82 Y27.14 
G01 X-35.85 Y27.22 
G01 X-36.54 Y27.22 
G01 X-36.57 Y27.14 
G01 X-36.68 Y26.98 
G01 X-36.82 Y26.84 
G01 X-36.85 Y26.82 
G01 X-36.85 Y24.04 
G01 X-36.56 Y23.75 
G01 X-36.48 Y23.79 
G01 X-36.29 Y23.82 
G01 X-36.10 Y23.82 
G01 X-35.91 Y23.79 
G01 X-35.74 Y23.71 
G01 X-35.58 Y23.61 
G01 X-35.45 Y23.47 
G01 X-35.34 Y23.32 
G01 X-35.27 Y23.14 
G01 X-35.23 Y22.96 
G01 X-35.23 Y22.76 
G01 X-35.27 Y22.58 
G01 X-35.34 Y22.40 
G01 X-35.45 Y22.25 
G01 X-35.58 Y22.11 
G01 X-35.74 Y22.01 
G01 X-35.91 Y21.93 
G01 X-36.10 Y21.90 
G01 X-36.29 Y21.90 
G01 X-36.48 Y21.93 
G01 X-36.65 Y22.01 
G01 X-36.81 Y22.11 
G01 X-36.94 Y22.25 
G01 X-37.05 Y22.40 
G01 X-37.12 Y22.58 
G01 X-37.16 Y22.76 
G01 X-37.16 Y22.96 
G01 X-37.12 Y23.14 
G01 X-37.11 Y23.17 
G01 X-37.50 Y23.55 
G01 X-37.57 Y23.63 
G01 X-37.62 Y23.72 
G01 X-37.65 Y23.82 
G01 X-37.65 Y26.63 
G01 X-37.76 Y26.65 
G01 X-37.94 Y26.73 
G01 X-38.11 Y26.84 
G01 X-38.25 Y26.98 
G01 X-38.36 Y27.14 
G01 X-38.43 Y27.33 
G01 X-38.47 Y27.52 
G01 X-38.47 Y27.72 
G01 X-38.43 Y27.92 
G01 X-38.36 Y28.10 
G01 X-38.25 Y28.27 
G01 X-38.11 Y28.41 
G01 X-37.94 Y28.52 
G01 X-37.90 Y28.53 
G01 X-37.90 Y29.16 
G01 X-37.98 Y29.24 
G01 X-40.26 Y29.24 
G01 X-40.25 Y29.24 
G01 X-40.23 Y29.24 
G01 X-40.21 Y29.23 
G01 X-40.19 Y29.23 
G01 X-40.17 Y29.22 
G01 X-40.15 Y29.22 
G01 X-40.14 Y29.21 
G01 X-40.12 Y29.20 
G01 X-40.10 Y29.19 
G01 X-40.09 Y29.18 
G01 X-40.07 Y29.16 
G01 X-40.06 Y29.15 
G01 X-40.04 Y29.13 
G01 X-40.03 Y29.12 
G01 X-40.02 Y29.10 
G01 X-40.01 Y29.09 
G01 X-40.00 Y29.07 
G01 X-39.99 Y29.05 
G01 X-39.98 Y29.03 
G01 X-39.98 Y29.01 
G01 X-39.97 Y28.99 
G01 X-39.97 Y28.97 
G01 X-39.97 Y28.95 
G01 X-39.97 Y28.93 
G01 X-39.97 Y28.91 
G01 X-39.97 Y28.89 
G01 X-39.97 Y28.87 
G01 X-39.98 Y28.85 
G01 X-39.98 Y28.84 
G01 X-39.99 Y28.82 
G01 X-40.00 Y28.80 
G01 X-40.01 Y28.78 
G01 X-40.02 Y28.76 
G01 X-40.03 Y28.75 
G01 X-40.04 Y28.73 
G01 X-40.06 Y28.72 
G01 X-40.07 Y28.70 
G01 X-40.09 Y28.69 
G01 X-40.10 Y28.68 
G01 X-40.12 Y28.67 
G01 X-40.14 Y28.66 
G01 X-40.15 Y28.65 
G01 X-40.17 Y28.64 
G01 X-40.58 Y28.48 
G01 X-40.86 Y28.19 
G01 X-41.01 Y27.82 
G01 X-41.01 Y27.42 
G01 X-40.86 Y27.05 
G01 X-40.58 Y26.77 
G01 X-40.57 Y26.76 
G01 X-40.55 Y26.76 
G01 X-40.54 Y26.74 
G01 X-40.52 Y26.73 
G01 X-40.51 Y26.72 
G01 X-40.49 Y26.71 
G01 X-40.48 Y26.69 
G01 X-40.46 Y26.68 
G01 X-40.45 Y26.66 
G01 X-40.44 Y26.64 
G01 X-40.43 Y26.63 
G01 X-40.42 Y26.61 
G01 X-40.42 Y26.59 
G01 X-40.41 Y26.57 
G01 X-40.41 Y26.55 
G01 X-40.40 Y26.53 
G01 X-40.40 Y26.51 
G01 X-40.40 Y26.50 
G01 X-40.40 Y26.70 
G01 X-40.48 Y26.73 
G01 X-40.65 Y26.84 
G01 X-40.79 Y26.98 
G01 X-40.90 Y27.14 
G01 X-40.97 Y27.33 
G01 X-41.01 Y27.52 
G01 X-41.01 Y27.72 
G01 X-40.97 Y27.92 
G01 X-40.90 Y28.10 
G01 X-40.79 Y28.27 
G01 X-40.65 Y28.41 
G01 X-40.48 Y28.52 
G01 X-40.30 Y28.59 
G01 X-40.10 Y28.63 
G01 X-39.91 Y28.63 
G01 X-39.71 Y28.59 
G01 X-39.53 Y28.52 
G01 X-39.36 Y28.41 
G01 X-39.22 Y28.27 
G01 X-39.11 Y28.10 
G01 X-39.04 Y27.92 
G01 X-39.00 Y27.72 
G01 X-39.00 Y27.52 
G01 X-39.04 Y27.33 
G01 X-39.11 Y27.14 
G01 X-39.22 Y26.98 
G01 X-39.36 Y26.84 
G01 X-39.53 Y26.73 
G01 X-39.60 Y26.70 
G01 X-39.60 Y24.67 
G01 X-38.76 Y23.82 
G01 X-38.64 Y23.82 
G01 X-38.45 Y23.79 
G01 X-38.28 Y23.71 
G01 X-38.12 Y23.61 
G01 X-37.99 Y23.47 
G01 X-37.88 Y23.32 
G01 X-37.81 Y23.14 
G01 X-37.77 Y22.96 
G01 X-37.77 Y22.76 
G01 X-37.81 Y22.58 
G01 X-37.88 Y22.40 
G01 X-37.99 Y22.25 
G01 X-38.12 Y22.11 
G01 X-38.28 Y22.01 
G01 X-38.35 Y21.98 
G01 X-38.35 Y17.65 
G01 X-23.08 Y17.65 
G01 X-22.62 Y18.11 
G01 X-21.83 Y18.11 
G01 X-21.26 Y17.54 
G01 X-21.26 Y16.75 
G01 X-21.83 Y16.18 
G01 X-22.62 Y16.18 
G01 X-23.19 Y16.75 
G01 X-23.19 Y16.85 
G01 X-38.80 Y16.85 
G01 X-38.89 Y16.87 
G01 X-38.83 Y16.85 
G01 X-23.38 Y16.85 
G01 X-23.30 Y16.83 
G01 X-23.23 Y16.79 
G01 X-23.18 Y16.73 
G01 X-22.63 Y16.18 
G01 X-21.82 Y16.18 
G01 X-21.26 Y16.74 
G01 X-21.26 Y17.55 
G01 X-21.39 Y17.68 
G01 X-21.45 Y17.73 
G01 X-21.47 Y17.78 
G01 X-21.49 Y17.80 
G01 X-21.51 Y17.88 
G01 X-21.51 Y17.96 
G01 X-21.51 Y17.96 
G01 X-21.49 Y18.04 
G01 X-21.45 Y18.10 
G01 X-21.39 Y18.16 
G01 X-21.35 Y18.19 
G01 X-21.32 Y18.20 
G01 X-21.24 Y18.22 
G01 X-20.79 Y18.22 
G01 X-20.71 Y18.20 
G01 X-20.64 Y18.16 
G01 X-20.59 Y18.11 
G01 X-20.55 Y18.04 
G01 X-20.53 Y17.96 
G01 X-20.53 Y13.79 
G01 X-20.55 Y13.71 
G01 X-20.59 Y13.64 
G01 X-20.64 Y13.59 
G01 X-20.71 Y13.55 
G01 X-20.79 Y13.53 
G01 X-21.24 Y13.53 
G01 X-21.32 Y13.55 
G01 X-21.34 Y13.56 
G01 X-21.39 Y13.59 
G01 X-21.45 Y13.64 
G01 X-21.49 Y13.71 
G01 X-21.51 Y13.79 
G01 X-21.51 Y13.87 
G01 X-21.49 Y13.95 
G01 X-21.47 Y13.97 
G01 X-21.45 Y14.02 
G01 X-21.39 Y14.07 
G01 X-21.26 Y14.20 
G01 X-21.26 Y15.01 
G01 X-21.82 Y15.57 
G01 X-22.63 Y15.57 
G01 X-23.23 Y14.96 
G01 X-23.30 Y14.92 
G01 X-23.38 Y14.90 
G01 X-32.43 Y14.90 
G01 X-32.50 Y14.92 
G01 X-32.57 Y14.96 
G01 X-32.63 Y15.02 
G01 X-32.67 Y15.09 
G01 X-32.69 Y15.17 
G01 X-32.69 Y15.43 
G01 X-32.84 Y15.79 
G01 X-33.11 Y16.06 
G01 X-33.46 Y16.21 
G01 X-33.85 Y16.21 
G01 X-34.20 Y16.06 
G01 X-34.49 Y15.77 
G01 X-34.49 Y15.77 
G01 X-34.50 Y15.76 
G01 X-34.52 Y15.74 
G01 X-34.53 Y15.73 
G01 X-34.55 Y15.71 
G01 X-34.56 Y15.70 
G01 X-34.58 Y15.69 
G01 X-34.60 Y15.68 
G01 X-34.62 Y15.67 
G01 X-34.63 Y15.67 
G01 X-34.65 Y15.66 
G01 X-34.67 Y15.66 
G01 X-34.69 Y15.65 
G01 X-34.71 Y15.65 
G01 X-34.72 Y15.65 
G01 X-34.53 Y15.65 
G01 X-34.51 Y15.70 
G01 X-34.40 Y15.85 
G01 X-34.27 Y15.99 
G01 X-34.11 Y16.09 
G01 X-33.94 Y16.17 
G01 X-33.75 Y16.20 
G01 X-33.56 Y16.20 
G01 X-33.37 Y16.17 
G01 X-33.20 Y16.09 
G01 X-33.04 Y15.99 
G01 X-32.91 Y15.85 
G01 X-32.80 Y15.70 
G01 X-32.73 Y15.52 
G01 X-32.69 Y15.34 
G01 X-32.69 Y15.14 
G01 X-32.73 Y14.96 
G01 X-32.75 Y14.90 
G01 X-23.19 Y14.90 
G01 X-23.19 Y15.00 
G01 X-22.62 Y15.57 
G01 X-21.83 Y15.57 
G01 X-21.26 Y15.00 
G01 X-21.26 Y14.21 
G01 X-21.83 Y13.64 
G01 X-22.62 Y13.64 
G01 X-23.08 Y14.10 
G01 X-32.72 Y14.10 
G01 X-32.71 Y14.10 
G01 X-32.69 Y14.10 
G01 X-32.67 Y14.09 
G01 X-32.65 Y14.09 
G01 X-32.63 Y14.08 
G01 X-32.61 Y14.08 
G01 X-32.60 Y14.07 
G01 X-32.58 Y14.06 
G01 X-32.56 Y14.05 
G01 X-32.54 Y14.04 
G01 X-32.53 Y14.02 
G01 X-32.51 Y14.01 
G01 X-32.50 Y13.99 
G01 X-32.49 Y13.98 
G01 X-32.48 Y13.96 
G01 X-32.47 Y13.95 
G01 X-32.46 Y13.93 
G01 X-32.45 Y13.91 
G01 X-32.44 Y13.89 
G01 X-32.44 Y13.87 
G01 X-32.43 Y13.85 
G01 X-32.43 Y13.83 
G01 X-32.43 Y13.81 
G01 X-32.42 Y13.79 
G01 X-32.43 Y13.77 
G01 X-32.43 Y13.75 
G01 X-32.43 Y13.73 
G01 X-32.44 Y13.71 
G01 X-32.44 Y13.70 
G01 X-32.45 Y13.68 
G01 X-32.46 Y13.66 
G01 X-32.47 Y13.64 
G01 X-32.48 Y13.62 
G01 X-32.49 Y13.61 
G01 X-32.50 Y13.59 
G01 X-32.51 Y13.58 
G01 X-32.53 Y13.56 
G01 X-32.54 Y13.55 
G01 X-32.56 Y13.54 
G01 X-32.58 Y13.53 
G01 X-32.60 Y13.52 
G01 X-32.61 Y13.51 
G01 X-32.63 Y13.50 
G01 X-32.64 Y13.50 
G01 X-32.55 Y13.53 
G01 X-20.53 Y13.53 
G01 X-20.53 Y18.22 
G01 X-22.58 Y18.22 
G01 X-22.63 Y18.18 
G01 X-22.72 Y18.13 
G01 X-22.82 Y18.10 
G01 X-29.43 Y18.10 
G01 X-29.53 Y18.13 
G01 X-29.62 Y18.18 
G01 X-29.70 Y18.25 
G01 X-33.37 Y21.93 
G01 X-33.56 Y21.90 
G01 X-33.75 Y21.90 
G01 X-33.94 Y21.93 
G01 X-34.11 Y22.01 
G01 X-34.27 Y22.11 
G01 X-34.40 Y22.25 
G01 X-34.51 Y22.40 
G01 X-34.58 Y22.58 
G01 X-34.62 Y22.76 
G01 X-34.62 Y22.96 
G01 X-34.58 Y23.14 
G01 X-34.51 Y23.32 
G01 X-34.40 Y23.47 
G01 X-34.27 Y23.61 
G01 X-34.11 Y23.71 
G01 X-33.94 Y23.79 
G01 X-33.75 Y23.82 
G01 X-33.56 Y23.82 
G01 X-33.37 Y23.79 
G01 X-33.28 Y23.75 
G01 X-33.28 Y27.71 
G01 X-36.17 Y30.60 
G01 X-53.57 Y30.60 
G01 X-53.58 Y30.60 
G01 X-53.62 Y30.60 
G01 X-53.66 Y30.60 
G01 X-53.67 Y30.60 
G01 X-53.69 Y30.60 
G01 X-53.72 Y30.62 
G01 X-53.76 Y30.63 
G01 X-53.77 Y30.63 
G01 X-53.79 Y30.64 
G01 X-53.82 Y30.66 
G01 X-53.86 Y30.68 
G01 X-53.86 Y30.69 
G01 X-55.34 Y31.66 
G01 X-55.38 Y31.61 
G01 X-55.56 Y31.48 
G01 X-55.76 Y31.36 
G01 X-55.96 Y31.28 
G01 X-56.18 Y31.22 
G01 X-56.40 Y31.19 
G01 X-56.63 Y31.19 
G01 X-56.85 Y31.22 
G01 X-57.07 Y31.28 
G01 X-57.27 Y31.36 
G01 X-57.47 Y31.48 
G01 X-57.65 Y31.61 
G01 X-57.81 Y31.77 
G01 X-57.94 Y31.95 
G01 X-58.06 Y32.15 
G01 X-58.14 Y32.35 
G01 X-58.20 Y32.57 
G01 X-58.23 Y32.79 
G01 X-58.23 Y33.02 
G01 X-58.20 Y33.24 
G01 X-58.14 Y33.46 
G01 X-58.06 Y33.66 
G01 X-57.94 Y33.86 
G01 X-57.81 Y34.04 
G01 X-57.65 Y34.20 
G01 X-57.47 Y34.33 
G01 X-57.27 Y34.45 
G01 X-57.07 Y34.53 
G01 X-56.85 Y34.59 
G01 X-56.63 Y34.62 
G01 X-56.40 Y34.62 
G01 X-56.18 Y34.59 
G01 X-55.96 Y34.53 
G01 X-55.76 Y34.45 
G01 X-55.56 Y34.33 
G01 X-55.38 Y34.20 
G01 X-55.22 Y34.04 
G01 X-55.09 Y33.86 
G01 X-54.97 Y33.66 
G01 X-54.89 Y33.46 
G01 X-54.83 Y33.24 
G01 X-54.80 Y33.02 
G01 X-54.80 Y32.79 
G01 X-54.83 Y32.57 
G01 X-54.89 Y32.35 
G01 X-54.90 Y32.33 
G01 X-53.49 Y31.40 
G01 X-35.95 Y31.40 
G01 X-35.85 Y31.37 
G01 X-35.75 Y31.32 
G01 X-32.63 Y28.20 
G01 X-32.55 Y28.12 
G01 X-32.50 Y28.03 
G01 X-32.47 Y27.93 
G01 X-32.47 Y23.32 
G01 X-32.50 Y23.22 
G01 X-32.55 Y23.13 
G01 X-32.63 Y23.05 
G01 X-32.70 Y22.99 
G01 X-32.69 Y22.96 
G01 X-32.69 Y22.76 
G01 X-32.73 Y22.58 
G01 X-32.77 Y22.47 
G01 X-29.21 Y18.90 
G01 X-23.04 Y18.90 
G01 X-23.00 Y18.95 
G01 X-22.90 Y19.00 
G01 X-22.80 Y19.03 
G01 X-20.07 Y19.03 
G01 X-19.99 Y19.00 
G01 X-20.04 Y19.03 
G01 X-22.09 Y19.03 
G01 X-22.17 Y19.05 
G01 X-22.19 Y19.06 
G01 X-22.24 Y19.09 
G01 X-22.30 Y19.14 
G01 X-22.34 Y19.21 
G01 X-22.36 Y19.29 
G01 X-22.36 Y19.37 
G01 X-22.34 Y19.45 
G01 X-22.32 Y19.47 
G01 X-22.30 Y19.52 
G01 X-22.24 Y19.57 
G01 X-22.04 Y19.77 
G01 X-21.89 Y20.13 
G01 X-21.89 Y20.51 
G01 X-21.87 Y20.58 
G01 X-21.85 Y20.62 
G01 X-21.83 Y20.65 
G01 X-21.78 Y20.71 
G01 X-21.74 Y20.73 
G01 X-21.71 Y20.75 
G01 X-21.63 Y20.77 
G01 X-21.55 Y20.77 
G01 X-21.47 Y20.75 
G01 X-21.43 Y20.73 
G01 X-21.40 Y20.71 
G01 X-21.35 Y20.65 
G01 X-21.23 Y20.53 
G01 X-21.17 Y20.51 
G01 X-21.25 Y20.55 
G01 X-21.32 Y20.63 
G01 X-21.37 Y20.72 
G01 X-21.40 Y20.82 
G01 X-21.40 Y21.21 
G01 X-22.27 Y22.08 
G01 X-22.46 Y21.90 
G01 X-23.26 Y21.90 
G01 X-23.82 Y22.46 
G00 Z1.00 
G00 X-57.46 Y16.26 
G01 Z-0.20 F60.00 
G01 X-56.85 Y16.01 F80.00 
G01 X-56.18 Y16.01 
G01 X-55.57 Y16.26 
G01 X-55.09 Y16.74 
G01 X-54.84 Y17.35 
G01 X-54.84 Y18.02 
G01 X-55.09 Y18.63 
G01 X-55.57 Y19.11 
G01 X-56.18 Y19.36 
G01 X-56.85 Y19.36 
G01 X-57.46 Y19.11 
G01 X-57.94 Y18.63 
G01 X-58.19 Y18.02 
G01 X-58.19 Y17.35 
G01 X-57.94 Y16.74 
G01 X-57.46 Y16.26 
G00 Z1.00 
G00 X-6.74 Y10.89 
G01 Z-0.20 F60.00 
G01 X-6.26 Y10.68 F80.00 
G01 X-5.74 Y10.68 
G01 X-5.26 Y10.89 
G01 X-4.89 Y11.26 
G01 X-4.68 Y11.74 
G01 X-4.68 Y12.26 
G01 X-4.89 Y12.74 
G01 X-5.26 Y13.11 
G01 X-5.74 Y13.31 
G01 X-6.26 Y13.31 
G01 X-6.74 Y13.11 
G01 X-7.11 Y12.74 
G01 X-7.31 Y12.26 
G01 X-7.31 Y11.74 
G01 X-7.11 Y11.26 
G01 X-6.74 Y10.89 
G00 Z1.00 
G00 X-11.68 Y31.54 
G01 Z-0.20 F60.00 
G01 X-12.28 Y32.13 F80.00 
G01 X-12.40 Y32.13 
G01 X-12.40 Y32.08 
G01 X-12.30 Y32.08 
G01 X-11.74 Y31.51 
G01 X-11.74 Y31.42 
G01 X-11.68 Y31.42 
G01 X-11.68 Y31.54 
G00 Z1.00 
G00 X-13.12 Y32.13 
G01 Z-0.20 F60.00 
G01 X-13.72 Y31.54 F80.00 
G01 X-13.72 Y31.42 
G01 X-13.66 Y31.42 
G01 X-13.66 Y31.51 
G01 X-13.10 Y32.08 
G01 X-13.00 Y32.08 
G01 X-13.00 Y32.13 
G01 X-13.12 Y32.13 
G00 Z1.00 
G00 X-16.01 Y2.35 
G01 Z-0.20 F60.00 
G01 X-16.01 Y2.34 F80.00 
G01 X-16.00 Y2.32 
G01 X-16.00 Y2.30 
G01 X-16.00 Y2.28 
G01 X-16.00 Y2.26 
G01 X-16.00 Y2.24 
G01 X-16.00 Y2.22 
G01 X-16.00 Y2.20 
G01 X-16.01 Y2.18 
G01 X-16.01 Y2.16 
G01 X-16.02 Y2.14 
G01 X-16.03 Y2.12 
G01 X-16.12 Y1.90 
G01 X-16.12 Y1.30 
G01 X-16.12 Y1.28 
G01 X-16.11 Y1.26 
G01 X-16.11 Y1.24 
G01 X-16.11 Y1.22 
G01 X-16.11 Y1.20 
G01 X-16.11 Y1.18 
G01 X-16.12 Y1.16 
G01 X-16.12 Y1.14 
G01 X-16.13 Y1.12 
G01 X-16.13 Y1.10 
G01 X-16.14 Y1.08 
G01 X-16.15 Y1.07 
G01 X-16.16 Y1.05 
G01 X-16.17 Y1.03 
G01 X-16.19 Y1.02 
G01 X-16.20 Y1.00 
G01 X-16.22 Y0.99 
G01 X-16.23 Y0.98 
G01 X-16.25 Y0.97 
G01 X-16.26 Y0.95 
G01 X-16.28 Y0.95 
G01 X-16.30 Y0.94 
G01 X-16.32 Y0.93 
G01 X-16.34 Y0.92 
G01 X-16.36 Y0.92 
G01 X-16.38 Y0.91 
G01 X-16.40 Y0.91 
G01 X-16.42 Y0.91 
G01 X-16.44 Y0.91 
G01 X-22.30 Y0.91 
G01 X-22.32 Y0.91 
G01 X-22.34 Y0.91 
G01 X-22.36 Y0.91 
G01 X-22.38 Y0.92 
G01 X-22.40 Y0.92 
G01 X-22.42 Y0.93 
G01 X-22.44 Y0.94 
G01 X-22.45 Y0.95 
G01 X-22.47 Y0.95 
G01 X-22.49 Y0.97 
G01 X-22.51 Y0.98 
G01 X-22.52 Y0.99 
G01 X-22.54 Y1.00 
G01 X-22.55 Y1.02 
G01 X-22.56 Y1.03 
G01 X-22.57 Y1.05 
G01 X-22.58 Y1.07 
G01 X-22.59 Y1.08 
G01 X-22.60 Y1.10 
G01 X-22.61 Y1.12 
G01 X-22.62 Y1.14 
G01 X-22.62 Y1.16 
G01 X-22.62 Y1.18 
G01 X-22.62 Y1.20 
G01 X-22.63 Y1.22 
G01 X-22.62 Y1.24 
G01 X-22.62 Y1.26 
G01 X-22.62 Y1.28 
G01 X-22.62 Y1.30 
G01 X-22.61 Y1.90 
G01 X-22.85 Y2.46 
G01 X-23.27 Y2.88 
G01 X-23.83 Y3.11 
G01 X-24.43 Y3.11 
G01 X-24.99 Y2.88 
G01 X-25.43 Y2.44 
G01 X-25.44 Y2.43 
G01 X-25.46 Y2.41 
G01 X-25.47 Y2.40 
G01 X-25.49 Y2.39 
G01 X-25.50 Y2.38 
G01 X-25.52 Y2.36 
G01 X-25.54 Y2.36 
G01 X-25.53 Y2.34 
G01 X-25.53 Y2.32 
G01 X-25.52 Y2.30 
G01 X-25.52 Y2.28 
G01 X-25.52 Y2.26 
G01 X-25.52 Y2.24 
G01 X-25.52 Y2.22 
G01 X-25.53 Y2.20 
G01 X-25.53 Y2.18 
G01 X-25.54 Y2.16 
G01 X-25.54 Y2.14 
G01 X-25.55 Y2.12 
G01 X-25.64 Y1.90 
G01 X-25.64 Y1.30 
G01 X-25.64 Y1.28 
G01 X-25.64 Y1.26 
G01 X-25.64 Y1.24 
G01 X-25.63 Y1.22 
G01 X-25.64 Y1.20 
G01 X-25.64 Y1.18 
G01 X-25.64 Y1.16 
G01 X-25.64 Y1.14 
G01 X-25.65 Y1.12 
G01 X-25.66 Y1.10 
G01 X-25.67 Y1.08 
G01 X-25.68 Y1.07 
G01 X-25.69 Y1.05 
G01 X-25.70 Y1.03 
G01 X-25.71 Y1.02 
G01 X-25.72 Y1.00 
G01 X-25.74 Y0.99 
G01 X-25.75 Y0.98 
G01 X-25.77 Y0.97 
G01 X-25.79 Y0.95 
G01 X-25.81 Y0.95 
G01 X-25.82 Y0.94 
G01 X-25.84 Y0.93 
G01 X-25.86 Y0.92 
G01 X-25.88 Y0.92 
G01 X-25.90 Y0.91 
G01 X-25.92 Y0.91 
G01 X-25.94 Y0.91 
G01 X-25.96 Y0.91 
G01 X-43.28 Y0.91 
G01 X-43.30 Y0.91 
G01 X-43.32 Y0.91 
G01 X-43.34 Y0.91 
G01 X-43.36 Y0.92 
G01 X-43.38 Y0.92 
G01 X-43.40 Y0.93 
G01 X-43.42 Y0.94 
G01 X-43.43 Y0.95 
G01 X-43.45 Y0.95 
G01 X-43.47 Y0.97 
G01 X-43.49 Y0.98 
G01 X-43.50 Y0.99 
G01 X-43.52 Y1.00 
G01 X-43.53 Y1.02 
G01 X-43.54 Y1.03 
G01 X-43.55 Y1.05 
G01 X-43.57 Y1.07 
G01 X-43.57 Y1.08 
G01 X-43.58 Y1.10 
G01 X-43.59 Y1.12 
G01 X-43.60 Y1.14 
G01 X-43.60 Y1.16 
G01 X-43.60 Y1.18 
G01 X-43.60 Y1.20 
G01 X-43.61 Y1.22 
G01 X-43.60 Y1.24 
G01 X-43.60 Y1.26 
G01 X-43.60 Y1.28 
G01 X-43.60 Y1.29 
G01 X-43.60 Y1.62 
G01 X-43.58 Y1.70 
G01 X-43.54 Y1.77 
G01 X-43.48 Y1.83 
G01 X-43.31 Y2.00 
G01 X-43.24 Y2.04 
G01 X-43.16 Y2.06 
G01 X-42.78 Y2.06 
G01 X-42.60 Y2.13 
G01 X-42.74 Y2.09 
G01 X-42.91 Y2.06 
G01 X-43.09 Y2.06 
G01 X-43.23 Y2.08 
G01 X-43.60 Y1.71 
G01 X-43.60 Y1.32 
G01 X-43.63 Y1.22 
G01 X-43.68 Y1.13 
G01 X-43.75 Y1.05 
G01 X-43.85 Y1.00 
G01 X-43.95 Y0.97 
G01 X-46.30 Y0.97 
G01 X-46.40 Y1.00 
G01 X-46.50 Y1.05 
G01 X-46.57 Y1.13 
G01 X-48.20 Y2.75 
G01 X-48.24 Y2.83 
G01 X-48.22 Y2.77 
G01 X-46.91 Y1.46 
G01 X-46.87 Y1.43 
G01 X-46.85 Y1.41 
G01 X-46.81 Y1.34 
G01 X-46.79 Y1.26 
G01 X-46.79 Y1.18 
G01 X-46.81 Y1.10 
G01 X-46.85 Y1.03 
G01 X-46.91 Y0.98 
G01 X-46.98 Y0.94 
G01 X-47.05 Y0.91 
G01 X-54.94 Y0.91 
G01 X-54.96 Y0.91 
G01 X-54.98 Y0.91 
G01 X-55.00 Y0.91 
G01 X-55.02 Y0.92 
G01 X-55.04 Y0.92 
G01 X-55.06 Y0.93 
G01 X-55.08 Y0.94 
G01 X-55.10 Y0.95 
G01 X-55.12 Y0.95 
G01 X-55.13 Y0.97 
G01 X-55.15 Y0.98 
G01 X-55.16 Y0.99 
G01 X-55.18 Y1.00 
G01 X-55.19 Y1.02 
G01 X-55.21 Y1.03 
G01 X-55.22 Y1.05 
G01 X-55.23 Y1.07 
G01 X-55.24 Y1.08 
G01 X-55.25 Y1.10 
G01 X-55.25 Y1.12 
G01 X-55.26 Y1.14 
G01 X-55.26 Y1.16 
G01 X-55.27 Y1.18 
G01 X-55.27 Y1.20 
G01 X-55.27 Y1.22 
G01 X-55.27 Y1.24 
G01 X-55.27 Y1.26 
G01 X-55.26 Y1.28 
G01 X-55.26 Y1.30 
G01 X-55.25 Y1.32 
G01 X-55.25 Y1.34 
G01 X-55.24 Y1.35 
G01 X-55.23 Y1.37 
G01 X-55.22 Y1.39 
G01 X-55.21 Y1.41 
G01 X-55.19 Y1.42 
G01 X-55.14 Y1.48 
G01 X-55.03 Y1.68 
G01 X-54.94 Y1.90 
G01 X-54.92 Y1.96 
G01 X-54.98 Y1.96 
G01 X-54.99 Y1.91 
G01 X-55.07 Y1.71 
G01 X-55.19 Y1.51 
G01 X-55.32 Y1.33 
G01 X-55.48 Y1.17 
G01 X-55.66 Y1.04 
G01 X-55.86 Y0.92 
G01 X-56.06 Y0.84 
G01 X-56.28 Y0.78 
G01 X-56.50 Y0.75 
G01 X-56.73 Y0.75 
G01 X-56.95 Y0.78 
G01 X-57.17 Y0.84 
G01 X-57.37 Y0.92 
G01 X-57.57 Y1.04 
G01 X-57.75 Y1.17 
G01 X-57.91 Y1.33 
G01 X-58.04 Y1.51 
G01 X-58.16 Y1.71 
G01 X-58.24 Y1.91 
G01 X-58.25 Y1.96 
G01 X-58.31 Y1.96 
G01 X-58.29 Y1.90 
G01 X-58.20 Y1.68 
G01 X-58.09 Y1.48 
G01 X-58.04 Y1.42 
G01 X-58.02 Y1.41 
G01 X-58.01 Y1.39 
G01 X-58.00 Y1.37 
G01 X-57.99 Y1.35 
G01 X-57.98 Y1.34 
G01 X-57.98 Y1.32 
G01 X-57.97 Y1.30 
G01 X-57.97 Y1.28 
G01 X-57.96 Y1.26 
G01 X-57.96 Y1.24 
G01 X-57.96 Y1.22 
G01 X-57.96 Y1.20 
G01 X-57.96 Y1.18 
G01 X-57.97 Y1.16 
G01 X-57.97 Y1.14 
G01 X-57.98 Y1.12 
G01 X-57.98 Y1.10 
G01 X-57.99 Y1.08 
G01 X-58.00 Y1.07 
G01 X-58.01 Y1.05 
G01 X-58.02 Y1.03 
G01 X-58.04 Y1.02 
G01 X-58.05 Y1.00 
G01 X-58.07 Y0.99 
G01 X-58.08 Y0.98 
G01 X-58.10 Y0.97 
G01 X-58.11 Y0.95 
G01 X-58.13 Y0.95 
G01 X-58.15 Y0.94 
G01 X-58.17 Y0.93 
G01 X-58.19 Y0.92 
G01 X-58.21 Y0.92 
G01 X-58.23 Y0.91 
G01 X-58.25 Y0.91 
G01 X-58.27 Y0.91 
G01 X-58.29 Y0.91 
G01 X-61.91 Y0.91 
G01 X-61.95 Y0.91 
G01 X-61.99 Y0.91 
G01 X-62.03 Y0.93 
G01 X-62.07 Y0.94 
G01 X-62.10 Y0.96 
G01 X-62.14 Y0.98 
G01 X-62.16 Y1.00 
G01 X-62.19 Y1.03 
G01 X-62.21 Y1.07 
G01 X-62.23 Y1.10 
G01 X-62.24 Y1.14 
G01 X-62.25 Y1.18 
G01 X-62.25 Y1.22 
G01 X-62.25 Y1.26 
G01 X-62.21 Y36.80 
G01 X-62.21 Y36.85 
G01 X-62.20 Y36.88 
G01 X-62.19 Y36.92 
G01 X-62.17 Y36.96 
G01 X-62.15 Y36.99 
G01 X-62.12 Y37.02 
G01 X-62.09 Y37.05 
G01 X-62.05 Y37.07 
G01 X-62.02 Y37.09 
G01 X-61.98 Y37.10 
G01 X-61.94 Y37.11 
G01 X-61.90 Y37.11 
G01 X-3.44 Y37.11 
G01 X-3.42 Y37.11 
G01 X-3.40 Y37.11 
G01 X-3.38 Y37.11 
G01 X-3.36 Y37.10 
G01 X-3.34 Y37.10 
G01 X-3.32 Y37.09 
G01 X-3.30 Y37.09 
G01 X-3.28 Y37.08 
G01 X-3.27 Y37.07 
G01 X-3.25 Y37.06 
G01 X-3.23 Y37.05 
G01 X-3.22 Y37.03 
G01 X-3.20 Y37.02 
G01 X-3.19 Y37.01 
G01 X-3.18 Y36.99 
G01 X-3.17 Y36.98 
G01 X-3.15 Y36.96 
G01 X-3.15 Y36.94 
G01 X-3.14 Y36.92 
G01 X-3.13 Y36.90 
G01 X-3.12 Y36.89 
G01 X-3.12 Y36.87 
G01 X-3.11 Y36.85 
G01 X-3.11 Y36.83 
G01 X-3.11 Y36.81 
G01 X-3.11 Y36.79 
G01 X-3.11 Y36.77 
G01 X-3.12 Y36.75 
G01 X-3.12 Y36.73 
G01 X-3.13 Y36.71 
G01 X-3.14 Y36.69 
G01 X-3.15 Y36.67 
G01 X-3.31 Y36.26 
G01 X-3.31 Y35.74 
G01 X-3.11 Y35.26 
G01 X-2.74 Y34.89 
G01 X-2.26 Y34.68 
G01 X-1.74 Y34.68 
G01 X-1.31 Y34.86 
G01 X-1.29 Y34.87 
G01 X-1.27 Y34.88 
G01 X-1.25 Y34.89 
G01 X-1.23 Y34.89 
G01 X-1.21 Y34.89 
G01 X-1.19 Y34.89 
G01 X-1.17 Y34.90 
G01 X-1.15 Y34.89 
G01 X-1.13 Y34.89 
G01 X-1.11 Y34.89 
G01 X-1.09 Y34.89 
G01 X-1.08 Y34.88 
G01 X-1.06 Y34.87 
G01 X-1.04 Y34.86 
G01 X-1.02 Y34.86 
G01 X-1.00 Y34.84 
G01 X-0.99 Y34.83 
G01 X-0.97 Y34.82 
G01 X-0.96 Y34.81 
G01 X-0.94 Y34.79 
G01 X-0.93 Y34.78 
G01 X-0.92 Y34.76 
G01 X-0.91 Y34.74 
G01 X-0.90 Y34.72 
G01 X-0.89 Y34.71 
G01 X-0.88 Y34.69 
G01 X-0.88 Y34.67 
G01 X-0.87 Y34.65 
G01 X-0.87 Y34.63 
G01 X-0.87 Y34.61 
G01 X-0.87 Y34.59 
G01 X-0.87 Y34.57 
G01 X-0.91 Y3.84 
G01 X-0.91 Y3.82 
G01 X-0.91 Y3.80 
G01 X-0.91 Y3.78 
G01 X-0.92 Y3.76 
G01 X-0.92 Y3.74 
G01 X-0.93 Y3.72 
G01 X-0.93 Y3.70 
G01 X-0.94 Y3.68 
G01 X-0.95 Y3.66 
G01 X-0.96 Y3.65 
G01 X-0.97 Y3.63 
G01 X-0.99 Y3.62 
G01 X-1.00 Y3.60 
G01 X-1.01 Y3.59 
G01 X-1.03 Y3.57 
G01 X-1.04 Y3.56 
G01 X-1.06 Y3.55 
G01 X-1.08 Y3.54 
G01 X-1.10 Y3.53 
G01 X-1.12 Y3.53 
G01 X-1.13 Y3.52 
G01 X-1.15 Y3.52 
G01 X-1.17 Y3.51 
G01 X-1.19 Y3.51 
G01 X-1.21 Y3.51 
G01 X-1.23 Y3.51 
G01 X-1.25 Y3.51 
G01 X-1.27 Y3.52 
G01 X-1.29 Y3.52 
G01 X-1.31 Y3.53 
G01 X-1.33 Y3.53 
G01 X-1.35 Y3.54 
G01 X-1.37 Y3.55 
G01 X-1.38 Y3.56 
G01 X-1.40 Y3.57 
G01 X-1.42 Y3.59 
G01 X-1.43 Y3.60 
G01 X-1.44 Y3.62 
G01 X-1.46 Y3.63 
G01 X-1.47 Y3.65 
G01 X-1.48 Y3.66 
G01 X-1.49 Y3.68 
G01 X-1.49 Y3.69 
G01 X-1.45 Y3.56 
G01 X-1.42 Y3.39 
G01 X-1.42 Y3.21 
G01 X-1.45 Y3.04 
G01 X-1.49 Y2.91 
G01 X-1.49 Y2.92 
G01 X-1.48 Y2.94 
G01 X-1.47 Y2.95 
G01 X-1.46 Y2.97 
G01 X-1.44 Y2.98 
G01 X-1.43 Y3.00 
G01 X-1.42 Y3.01 
G01 X-1.40 Y3.03 
G01 X-1.38 Y3.04 
G01 X-1.37 Y3.05 
G01 X-1.35 Y3.06 
G01 X-1.33 Y3.07 
G01 X-1.31 Y3.07 
G01 X-1.29 Y3.08 
G01 X-1.27 Y3.08 
G01 X-1.26 Y3.09 
G01 X-1.24 Y3.09 
G01 X-1.22 Y3.09 
G01 X-1.20 Y3.09 
G01 X-1.18 Y3.09 
G01 X-1.16 Y3.08 
G01 X-1.14 Y3.08 
G01 X-1.12 Y3.07 
G01 X-1.10 Y3.07 
G01 X-1.08 Y3.06 
G01 X-1.06 Y3.05 
G01 X-1.05 Y3.04 
G01 X-1.03 Y3.03 
G01 X-1.01 Y3.01 
G01 X-1.00 Y3.00 
G01 X-0.99 Y2.98 
G01 X-0.97 Y2.97 
G01 X-0.96 Y2.95 
G01 X-0.95 Y2.94 
G01 X-0.94 Y2.92 
G01 X-0.93 Y2.90 
G01 X-0.93 Y2.88 
G01 X-0.92 Y2.86 
G01 X-0.92 Y2.84 
G01 X-0.91 Y2.82 
G01 X-0.91 Y2.80 
G01 X-0.91 Y2.78 
G01 X-0.91 Y2.76 
G01 X-0.91 Y1.22 
G01 X-0.91 Y1.18 
G01 X-0.92 Y1.14 
G01 X-0.93 Y1.10 
G01 X-0.95 Y1.07 
G01 X-0.97 Y1.03 
G01 X-1.00 Y1.00 
G01 X-1.03 Y0.98 
G01 X-1.07 Y0.96 
G01 X-1.10 Y0.94 
G01 X-1.14 Y0.93 
G01 X-1.18 Y0.91 
G01 X-1.22 Y0.91 
G01 X-12.77 Y0.91 
G01 X-12.79 Y0.91 
G01 X-12.81 Y0.91 
G01 X-12.83 Y0.91 
G01 X-12.85 Y0.92 
G01 X-12.87 Y0.92 
G01 X-12.89 Y0.93 
G01 X-12.91 Y0.94 
G01 X-12.93 Y0.95 
G01 X-12.95 Y0.95 
G01 X-12.96 Y0.97 
G01 X-12.98 Y0.98 
G01 X-12.99 Y0.99 
G01 X-13.01 Y1.00 
G01 X-13.02 Y1.02 
G01 X-13.04 Y1.03 
G01 X-13.05 Y1.05 
G01 X-13.06 Y1.07 
G01 X-13.07 Y1.08 
G01 X-13.08 Y1.10 
G01 X-13.08 Y1.12 
G01 X-13.09 Y1.14 
G01 X-13.09 Y1.16 
G01 X-13.10 Y1.18 
G01 X-13.10 Y1.20 
G01 X-13.10 Y1.22 
G01 X-13.10 Y1.24 
G01 X-13.10 Y1.26 
G01 X-13.09 Y1.28 
G01 X-13.09 Y1.30 
G01 X-13.09 Y1.90 
G01 X-13.32 Y2.46 
G01 X-13.75 Y2.88 
G01 X-14.30 Y3.11 
G01 X-14.91 Y3.11 
G01 X-15.46 Y2.88 
G01 X-15.90 Y2.44 
G01 X-15.92 Y2.43 
G01 X-15.93 Y2.41 
G01 X-15.95 Y2.40 
G01 X-15.96 Y2.39 
G01 X-15.98 Y2.38 
G01 X-15.99 Y2.36 
G01 X-16.01 Y2.36 
G00 Z1.00 
G00 Z2.00 
M05
M02
