(.../pcb-gcode-3.6.0.4/pcb-gcode.ulp)
(Copyright 2005 - 2012 by John Johnson)
(See readme.txt for licensing terms.)
(This file generated from the board:)
(.../Copperclad_CooperBuffer_Amp.brd)
(Current profile is .../pcb-gcode-3.6.0.4/profiles/imodela.pp  )
(This file generated 7/27/16 2:43 PM)
(Settings from pcb-machine.h)
(  Tool Size)
(0.20 )
(Z Axis Settings)
(  High     Up        Down     Drill)
(2.00 	1.00 	-0.20 	-1.70 )
(spindle on time = 6.0000)
(milling depth = -0.2540)
(text depth = -0.1270)
(tool change at 0.00 0.00 10.00 )
(feed rate xy = F140.00 )
(feed rate z  = F35.00 )
(Settings from pcb-defaults.h)
(isolate min = 0.0010)
(isolate max = 0.2000)
(isolate step = 0.2000)
(Generated bottom outlines, bottom drill, )
(Unit of measure: mm)
(Metric Mode)
G21
(Absolute Coordinates)
G90
G00 X0.00 Y0.00 
M03
G04 P 6
G00 Z1.00 
G00 X-8.12 Y4.69 
G01 Z-0.20 F35.00 
G01 X-8.29 Y4.76 F140.00 
G01 X-8.17 Y4.70 
G01 X-8.03 Y4.60 
G01 X-7.92 Y4.49 
G01 X-7.82 Y4.36 
G01 X-7.76 Y4.23 
G01 X-7.83 Y4.40 
G01 X-8.12 Y4.69 
G00 Z1.00 
G00 X-2.93 Y5.58 
G01 Z-0.20 F35.00 
G01 X-2.86 Y5.75 F140.00 
G01 X-2.92 Y5.63 
G01 X-3.02 Y5.49 
G01 X-3.13 Y5.38 
G01 X-3.26 Y5.28 
G01 X-3.39 Y5.22 
G01 X-3.22 Y5.29 
G01 X-2.93 Y5.58 
G00 Z1.00 
G00 X-3.60 Y5.13 
G01 Z-0.20 F35.00 
G01 X-3.43 Y5.20 F140.00 
G01 X-3.57 Y5.16 
G01 X-3.73 Y5.13 
G01 X-3.89 Y5.13 
G01 X-4.05 Y5.16 
G01 X-4.19 Y5.20 
G01 X-4.02 Y5.13 
G01 X-3.60 Y5.13 
G00 Z1.00 
G00 X-4.40 Y5.29 
G01 Z-0.20 F35.00 
G01 X-4.23 Y5.22 F140.00 
G01 X-4.36 Y5.28 
G01 X-4.49 Y5.38 
G01 X-4.60 Y5.49 
G01 X-4.70 Y5.63 
G01 X-4.76 Y5.75 
G01 X-4.69 Y5.58 
G01 X-4.40 Y5.29 
G00 Z1.00 
G00 X-4.23 Y10.08 
G01 Z-0.20 F35.00 
G01 X-4.38 Y10.00 F140.00 
G01 X-4.52 Y9.90 
G01 X-4.64 Y9.78 
G01 X-4.74 Y9.64 
G01 X-4.82 Y9.49 
G01 X-4.84 Y9.42 
G01 X-4.79 Y9.42 
G01 X-4.77 Y9.47 
G01 X-4.70 Y9.61 
G01 X-4.60 Y9.75 
G01 X-4.49 Y9.86 
G01 X-4.36 Y9.96 
G01 X-4.21 Y10.03 
G01 X-4.16 Y10.05 
G01 X-4.16 Y10.10 
G01 X-4.23 Y10.08 
G00 Z1.00 
G00 X-9.30 Y2.93 
G01 Z-0.20 F35.00 
G01 X-9.13 Y2.86 F140.00 
G01 X-9.26 Y2.92 
G01 X-9.39 Y3.02 
G01 X-9.51 Y3.13 
G01 X-9.60 Y3.26 
G01 X-9.67 Y3.39 
G01 X-9.60 Y3.22 
G01 X-9.30 Y2.93 
G00 Z1.00 
G00 X-8.08 Y13.67 
G01 Z-0.20 F35.00 
G01 X-8.55 Y14.15 F140.00 
G01 X-8.59 Y14.15 
G01 X-8.59 Y14.10 
G01 X-8.57 Y14.10 
G01 X-8.13 Y13.65 
G01 X-8.13 Y13.64 
G01 X-8.08 Y13.64 
G01 X-8.08 Y13.67 
G00 Z1.00 
G00 X-9.65 Y13.65 
G01 Z-0.20 F35.00 
G01 X-9.21 Y14.10 F140.00 
G01 X-9.19 Y14.10 
G01 X-9.19 Y14.15 
G01 X-9.23 Y14.15 
G01 X-9.70 Y13.67 
G01 X-9.70 Y13.64 
G01 X-9.65 Y13.64 
G01 X-9.65 Y13.65 
G00 Z1.00 
G00 X-9.19 Y12.52 
G01 Z-0.20 F35.00 
G01 X-9.19 Y12.57 F140.00 
G01 X-9.21 Y12.57 
G01 X-9.65 Y13.02 
G01 X-9.65 Y13.03 
G01 X-9.70 Y13.03 
G01 X-9.70 Y13.00 
G01 X-9.23 Y12.52 
G01 X-9.19 Y12.52 
G00 Z1.00 
G00 X-2.80 Y14.21 
G01 Z-0.20 F35.00 
G01 X-2.88 Y14.36 F140.00 
G01 X-2.98 Y14.50 
G01 X-3.10 Y14.63 
G01 X-3.24 Y14.73 
G01 X-3.39 Y14.80 
G01 X-3.45 Y14.83 
G01 X-3.45 Y14.77 
G01 X-3.41 Y14.76 
G01 X-3.26 Y14.68 
G01 X-3.13 Y14.59 
G01 X-3.02 Y14.47 
G01 X-2.92 Y14.34 
G01 X-2.85 Y14.19 
G01 X-2.83 Y14.15 
G01 X-2.78 Y14.15 
G01 X-2.80 Y14.21 
G00 Z1.00 
G00 X-4.82 Y13.37 
G01 Z-0.20 F35.00 
G01 X-4.74 Y13.22 F140.00 
G01 X-4.64 Y13.08 
G01 X-4.52 Y12.96 
G01 X-4.38 Y12.86 
G01 X-4.23 Y12.78 
G01 X-4.16 Y12.76 
G01 X-4.16 Y12.81 
G01 X-4.21 Y12.83 
G01 X-4.36 Y12.90 
G01 X-4.49 Y13.00 
G01 X-4.60 Y13.11 
G01 X-4.70 Y13.25 
G01 X-4.77 Y13.39 
G01 X-4.79 Y13.44 
G01 X-4.84 Y13.44 
G01 X-4.82 Y13.37 
G00 Z1.00 
G00 X-4.64 Y14.50 
G01 Z-0.20 F35.00 
G01 X-4.74 Y14.36 F140.00 
G01 X-4.82 Y14.21 
G01 X-4.84 Y14.15 
G01 X-4.79 Y14.15 
G01 X-4.77 Y14.19 
G01 X-4.70 Y14.34 
G01 X-4.60 Y14.47 
G01 X-4.49 Y14.59 
G01 X-4.36 Y14.68 
G01 X-4.21 Y14.76 
G01 X-4.16 Y14.77 
G01 X-4.16 Y14.83 
G01 X-4.23 Y14.80 
G01 X-4.38 Y14.73 
G01 X-4.52 Y14.63 
G01 X-4.64 Y14.50 
G00 Z1.00 
G00 X-3.39 Y12.78 
G01 Z-0.20 F35.00 
G01 X-3.24 Y12.86 F140.00 
G01 X-3.10 Y12.96 
G01 X-2.98 Y13.08 
G01 X-2.88 Y13.22 
G01 X-2.80 Y13.37 
G01 X-2.78 Y13.44 
G01 X-2.83 Y13.44 
G01 X-2.85 Y13.39 
G01 X-2.92 Y13.25 
G01 X-3.02 Y13.11 
G01 X-3.13 Y13.00 
G01 X-3.26 Y12.90 
G01 X-3.41 Y12.83 
G01 X-3.45 Y12.81 
G01 X-3.45 Y12.76 
G01 X-3.39 Y12.78 
G00 Z1.00 
G00 X-8.55 Y12.52 
G01 Z-0.20 F35.00 
G01 X-8.08 Y13.00 F140.00 
G01 X-8.08 Y13.03 
G01 X-8.13 Y13.03 
G01 X-8.13 Y13.02 
G01 X-8.57 Y12.57 
G01 X-8.59 Y12.57 
G01 X-8.59 Y12.52 
G01 X-8.55 Y12.52 
G00 Z1.00 
G00 X-4.69 Y17.28 
G01 Z-0.20 F35.00 
G01 X-4.76 Y17.11 F140.00 
G01 X-4.70 Y17.23 
G01 X-4.60 Y17.37 
G01 X-4.49 Y17.48 
G01 X-4.36 Y17.58 
G01 X-4.23 Y17.64 
G01 X-4.40 Y17.57 
G01 X-4.69 Y17.28 
G00 Z1.00 
G00 X-4.85 Y16.48 
G01 Z-0.20 F35.00 
G01 X-4.78 Y16.31 F140.00 
G01 X-4.83 Y16.44 
G01 X-4.85 Y16.61 
G01 X-4.85 Y16.77 
G01 X-4.83 Y16.93 
G01 X-4.78 Y17.06 
G01 X-4.85 Y16.90 
G01 X-4.85 Y16.48 
G00 Z1.00 
G00 X-4.40 Y15.80 
G01 Z-0.20 F35.00 
G01 X-4.23 Y15.73 F140.00 
G01 X-4.36 Y15.80 
G01 X-4.49 Y15.89 
G01 X-4.60 Y16.01 
G01 X-4.70 Y16.14 
G01 X-4.76 Y16.27 
G01 X-4.69 Y16.10 
G01 X-4.40 Y15.80 
G00 Z1.00 
G00 X-3.60 Y15.65 
G01 Z-0.20 F35.00 
G01 X-3.43 Y15.72 F140.00 
G01 X-3.57 Y15.67 
G01 X-3.73 Y15.65 
G01 X-3.89 Y15.65 
G01 X-4.05 Y15.67 
G01 X-4.19 Y15.72 
G01 X-4.02 Y15.65 
G01 X-3.60 Y15.65 
G00 Z1.00 
G00 X-2.93 Y16.10 
G01 Z-0.20 F35.00 
G01 X-2.86 Y16.27 F140.00 
G01 X-2.92 Y16.14 
G01 X-3.02 Y16.01 
G01 X-3.13 Y15.89 
G01 X-3.26 Y15.80 
G01 X-3.39 Y15.73 
G01 X-3.22 Y15.80 
G01 X-2.93 Y16.10 
G00 Z1.00 
G00 X-2.80 Y9.49 
G01 Z-0.20 F35.00 
G01 X-2.88 Y9.64 F140.00 
G01 X-2.98 Y9.78 
G01 X-3.10 Y9.90 
G01 X-3.24 Y10.00 
G01 X-3.39 Y10.08 
G01 X-3.45 Y10.10 
G01 X-3.45 Y10.05 
G01 X-3.41 Y10.03 
G01 X-3.26 Y9.96 
G01 X-3.13 Y9.86 
G01 X-3.02 Y9.75 
G01 X-2.92 Y9.61 
G01 X-2.85 Y9.47 
G01 X-2.83 Y9.42 
G01 X-2.78 Y9.42 
G01 X-2.80 Y9.49 
G00 Z1.00 
G00 X-4.82 Y8.65 
G01 Z-0.20 F35.00 
G01 X-4.74 Y8.50 F140.00 
G01 X-4.64 Y8.36 
G01 X-4.52 Y8.23 
G01 X-4.38 Y8.13 
G01 X-4.23 Y8.06 
G01 X-4.16 Y8.03 
G01 X-4.16 Y8.09 
G01 X-4.21 Y8.10 
G01 X-4.36 Y8.18 
G01 X-4.49 Y8.27 
G01 X-4.60 Y8.39 
G01 X-4.70 Y8.52 
G01 X-4.77 Y8.67 
G01 X-4.79 Y8.71 
G01 X-4.84 Y8.71 
G01 X-4.82 Y8.65 
G00 Z1.00 
G00 X-4.70 Y6.72 
G01 Z-0.20 F35.00 
G01 X-4.60 Y6.85 F140.00 
G01 X-4.49 Y6.97 
G01 X-4.36 Y7.06 
G01 X-4.23 Y7.13 
G01 X-4.40 Y7.06 
G01 X-4.69 Y6.76 
G01 X-4.76 Y6.59 
G01 X-4.70 Y6.72 
G00 Z1.00 
G00 X-4.85 Y6.09 
G01 Z-0.20 F35.00 
G01 X-4.85 Y6.25 F140.00 
G01 X-4.83 Y6.42 
G01 X-4.78 Y6.55 
G01 X-4.85 Y6.38 
G01 X-4.85 Y5.96 
G01 X-4.78 Y5.80 
G01 X-4.83 Y5.93 
G01 X-4.85 Y6.09 
G00 Z1.00 
G00 X-15.32 Y34.64 
G01 Z-0.20 F35.00 
G01 X-15.16 Y34.64 F140.00 
G01 X-14.99 Y34.61 
G01 X-14.83 Y34.55 
G01 X-14.69 Y34.45 
G01 X-14.57 Y34.33 
G01 X-14.48 Y34.19 
G01 X-14.41 Y34.03 
G01 X-14.38 Y33.87 
G01 X-14.38 Y32.17 
G01 X-14.41 Y32.01 
G01 X-14.48 Y31.85 
G01 X-14.57 Y31.71 
G01 X-14.69 Y31.59 
G01 X-14.83 Y31.49 
G01 X-14.93 Y31.45 
G01 X-14.92 Y31.45 
G01 X-14.75 Y31.53 
G01 X-14.51 Y31.77 
G01 X-14.38 Y32.09 
G01 X-14.38 Y33.95 
G01 X-14.51 Y34.27 
G01 X-14.75 Y34.51 
G01 X-15.07 Y34.65 
G01 X-15.21 Y34.65 
G01 X-15.29 Y34.67 
G01 X-15.36 Y34.71 
G01 X-15.41 Y34.76 
G01 X-15.45 Y34.83 
G01 X-15.47 Y34.91 
G01 X-15.47 Y36.27 
G01 X-15.50 Y36.33 
G01 X-15.47 Y36.25 
G01 X-15.47 Y34.62 
G01 X-15.32 Y34.64 
G00 Z1.00 
G00 X-16.22 Y34.06 
G01 Z-0.20 F35.00 
G01 X-16.17 Y34.01 F140.00 
G01 X-16.16 Y34.01 
G01 X-16.13 Y33.95 
G01 X-16.12 Y33.94 
G01 X-16.12 Y33.91 
G01 X-16.10 Y33.86 
G01 X-16.10 Y32.09 
G01 X-16.00 Y31.85 
G01 X-15.99 Y31.83 
G01 X-15.99 Y31.81 
G01 X-15.98 Y31.79 
G01 X-15.98 Y31.77 
G01 X-15.97 Y31.75 
G01 X-15.97 Y31.73 
G01 X-15.97 Y31.71 
G01 X-15.97 Y31.69 
G01 X-15.97 Y31.67 
G01 X-15.98 Y31.65 
G01 X-15.98 Y31.63 
G01 X-15.99 Y31.61 
G01 X-15.99 Y31.59 
G01 X-16.00 Y31.58 
G01 X-16.01 Y31.56 
G01 X-16.02 Y31.54 
G01 X-16.03 Y31.52 
G01 X-16.05 Y31.51 
G01 X-16.05 Y31.50 
G01 X-15.88 Y31.68 
G01 X-15.91 Y31.71 
G01 X-16.00 Y31.85 
G01 X-16.07 Y32.01 
G01 X-16.10 Y32.17 
G01 X-16.10 Y33.87 
G01 X-16.09 Y33.94 
G01 X-16.20 Y34.04 
G01 X-16.24 Y34.12 
G01 X-16.22 Y34.06 
G00 Z1.00 
G00 X-24.53 Y46.75 
G01 Z-0.20 F35.00 
G01 X-24.53 Y43.73 F140.00 
G01 X-24.51 Y43.68 
G01 X-24.53 Y43.76 
G01 X-24.53 Y46.73 
G01 X-24.51 Y46.81 
G01 X-24.53 Y46.75 
G00 Z1.00 
G00 X-24.47 Y43.59 
G01 Z-0.20 F35.00 
G01 X-19.49 Y38.61 F140.00 
G01 X-19.48 Y38.60 
G01 X-24.45 Y43.57 
G01 X-24.50 Y43.65 
G01 X-24.47 Y43.59 
G00 Z1.00 
G00 X-19.46 Y38.58 
G01 Z-0.20 F35.00 
G01 X-19.45 Y38.56 F140.00 
G01 X-19.44 Y38.55 
G01 X-19.43 Y38.53 
G01 X-19.42 Y38.51 
G01 X-19.41 Y38.50 
G01 X-19.40 Y38.48 
G01 X-19.40 Y38.46 
G01 X-19.39 Y38.44 
G01 X-19.39 Y38.42 
G01 X-19.39 Y38.40 
G01 X-19.38 Y38.38 
G01 X-19.39 Y38.36 
G01 X-19.39 Y38.34 
G01 X-19.39 Y38.32 
G01 X-19.40 Y38.30 
G01 X-19.40 Y38.28 
G01 X-19.41 Y38.27 
G01 X-19.41 Y37.93 
G01 X-19.27 Y37.61 
G01 X-19.03 Y37.37 
G01 X-18.71 Y37.24 
G01 X-17.57 Y37.24 
G01 X-17.50 Y37.22 
G01 X-17.49 Y37.22 
G01 X-17.42 Y37.18 
G01 X-17.37 Y37.12 
G01 X-16.34 Y36.09 
G01 X-16.30 Y36.02 
G01 X-16.28 Y35.94 
G01 X-16.28 Y34.21 
G01 X-16.25 Y34.15 
G01 X-16.28 Y34.24 
G01 X-16.28 Y36.03 
G01 X-17.48 Y37.24 
G01 X-18.63 Y37.24 
G01 X-18.79 Y37.27 
G01 X-18.95 Y37.34 
G01 X-19.09 Y37.43 
G01 X-19.21 Y37.55 
G01 X-19.31 Y37.69 
G01 X-19.37 Y37.85 
G01 X-19.40 Y38.02 
G01 X-19.40 Y38.18 
G01 X-19.37 Y38.35 
G01 X-19.33 Y38.45 
G01 X-19.47 Y38.59 
G01 X-19.46 Y38.58 
G00 Z1.00 
G00 X-9.65 Y24.45 
G01 Z-0.20 F35.00 
G01 X-9.21 Y24.89 F140.00 
G01 X-8.57 Y24.89 
G01 X-8.13 Y24.45 
G01 X-8.13 Y23.81 
G01 X-8.57 Y23.37 
G01 X-9.08 Y23.37 
G01 X-10.79 Y21.66 
G01 X-10.87 Y21.59 
G01 X-10.94 Y21.54 
G01 X-10.88 Y21.57 
G01 X-10.70 Y21.75 
G01 X-9.14 Y23.31 
G01 X-9.08 Y23.35 
G01 X-9.00 Y23.37 
G01 X-8.57 Y23.37 
G01 X-8.13 Y23.81 
G01 X-8.13 Y24.45 
G01 X-8.57 Y24.89 
G01 X-9.21 Y24.89 
G01 X-9.65 Y24.45 
G01 X-9.65 Y24.02 
G01 X-9.67 Y23.94 
G01 X-9.71 Y23.88 
G01 X-9.77 Y23.82 
G01 X-11.22 Y22.37 
G01 X-11.29 Y22.33 
G01 X-11.37 Y22.31 
G01 X-14.90 Y22.31 
G01 X-14.91 Y22.31 
G01 X-11.28 Y22.31 
G01 X-9.65 Y23.94 
G01 X-9.65 Y24.45 
G00 Z1.00 
G00 X-14.94 Y22.31 
G01 Z-0.20 F35.00 
G01 X-14.96 Y22.31 F140.00 
G01 X-14.98 Y22.31 
G01 X-15.00 Y22.32 
G01 X-15.02 Y22.33 
G01 X-15.04 Y22.33 
G01 X-15.06 Y22.34 
G01 X-15.09 Y22.35 
G01 X-15.39 Y22.35 
G01 X-15.67 Y22.24 
G01 X-15.86 Y22.05 
G01 X-15.92 Y22.01 
G01 X-16.00 Y21.99 
G01 X-17.02 Y21.99 
G01 X-17.10 Y22.01 
G01 X-17.16 Y22.05 
G01 X-17.22 Y22.11 
G01 X-17.35 Y22.24 
G01 X-17.63 Y22.35 
G01 X-17.93 Y22.35 
G01 X-18.21 Y22.24 
G01 X-18.43 Y22.02 
G01 X-18.54 Y21.74 
G01 X-18.54 Y21.44 
G01 X-18.43 Y21.16 
G01 X-18.21 Y20.94 
G01 X-17.93 Y20.83 
G01 X-17.63 Y20.83 
G01 X-17.35 Y20.94 
G01 X-17.16 Y21.13 
G01 X-17.10 Y21.17 
G01 X-17.02 Y21.19 
G01 X-16.00 Y21.19 
G01 X-15.92 Y21.17 
G01 X-15.86 Y21.13 
G01 X-15.80 Y21.07 
G01 X-15.67 Y20.94 
G01 X-15.39 Y20.83 
G01 X-15.09 Y20.83 
G01 X-14.81 Y20.94 
G01 X-14.59 Y21.16 
G01 X-14.54 Y21.30 
G01 X-14.53 Y21.31 
G01 X-14.57 Y21.23 
G01 X-14.65 Y21.10 
G01 X-14.75 Y21.00 
G01 X-14.88 Y20.92 
G01 X-15.02 Y20.86 
G01 X-15.17 Y20.83 
G01 X-15.31 Y20.83 
G01 X-15.46 Y20.86 
G01 X-15.60 Y20.92 
G01 X-15.73 Y21.00 
G01 X-15.83 Y21.10 
G01 X-15.89 Y21.19 
G01 X-17.13 Y21.19 
G01 X-17.19 Y21.10 
G01 X-17.29 Y21.00 
G01 X-17.42 Y20.92 
G01 X-17.56 Y20.86 
G01 X-17.71 Y20.83 
G01 X-17.85 Y20.83 
G01 X-18.00 Y20.86 
G01 X-18.14 Y20.92 
G01 X-18.27 Y21.00 
G01 X-18.37 Y21.10 
G01 X-18.45 Y21.23 
G01 X-18.51 Y21.37 
G01 X-18.54 Y21.52 
G01 X-18.54 Y21.66 
G01 X-18.51 Y21.81 
G01 X-18.45 Y21.95 
G01 X-18.37 Y22.08 
G01 X-18.27 Y22.18 
G01 X-18.14 Y22.26 
G01 X-18.00 Y22.32 
G01 X-17.85 Y22.35 
G01 X-17.71 Y22.35 
G01 X-17.56 Y22.32 
G01 X-17.42 Y22.26 
G01 X-17.29 Y22.18 
G01 X-17.19 Y22.08 
G01 X-17.13 Y21.99 
G01 X-15.89 Y21.99 
G01 X-15.83 Y22.08 
G01 X-15.73 Y22.18 
G01 X-15.60 Y22.26 
G01 X-15.46 Y22.32 
G01 X-15.31 Y22.35 
G01 X-15.17 Y22.35 
G01 X-15.02 Y22.32 
G01 X-14.98 Y22.31 
G01 X-14.94 Y22.31 
G01 X-14.94 Y22.31 
G00 Z1.00 
G00 X-14.51 Y21.37 
G01 Z-0.20 F35.00 
G01 X-14.52 Y21.33 F140.00 
G01 X-14.52 Y21.34 
G01 X-14.51 Y21.35 
G01 X-14.50 Y21.37 
G01 X-14.49 Y21.39 
G01 X-14.48 Y21.40 
G01 X-14.46 Y21.42 
G01 X-14.45 Y21.43 
G01 X-14.43 Y21.44 
G01 X-14.42 Y21.45 
G01 X-14.40 Y21.47 
G01 X-14.38 Y21.47 
G01 X-14.36 Y21.48 
G01 X-14.34 Y21.49 
G01 X-14.33 Y21.50 
G01 X-14.31 Y21.50 
G01 X-14.29 Y21.51 
G01 X-14.27 Y21.51 
G01 X-14.26 Y21.51 
G01 X-14.48 Y21.51 
G01 X-14.51 Y21.37 
G00 Z1.00 
G00 X-14.23 Y21.51 
G01 Z-0.20 F35.00 
G01 X-11.03 Y21.51 F140.00 
G01 X-10.97 Y21.53 
G01 X-11.06 Y21.51 
G01 X-14.24 Y21.51 
G01 X-14.23 Y21.51 
G00 Z1.00 
G00 X-5.95 Y3.41 
G01 Z-0.20 F35.00 
G01 X-5.95 Y5.79 F140.00 
G01 X-5.97 Y5.85 
G01 X-5.95 Y5.77 
G01 X-5.95 Y3.44 
G01 X-5.97 Y3.35 
G01 X-5.95 Y3.41 
G00 Z1.00 
G00 X-9.65 Y7.94 
G01 Z-0.20 F35.00 
G01 X-9.65 Y8.57 F140.00 
G01 X-9.21 Y9.02 
G01 X-8.57 Y9.02 
G01 X-8.13 Y8.57 
G01 X-8.13 Y8.06 
G01 X-6.10 Y6.04 
G01 X-6.03 Y5.96 
G01 X-5.98 Y5.88 
G01 X-6.01 Y5.94 
G01 X-6.14 Y6.07 
G01 X-6.19 Y6.13 
G01 X-8.07 Y8.00 
G01 X-8.11 Y8.07 
G01 X-8.13 Y8.15 
G01 X-8.13 Y8.57 
G01 X-8.57 Y9.02 
G01 X-9.21 Y9.02 
G01 X-9.65 Y8.57 
G01 X-9.65 Y7.94 
G01 X-9.21 Y7.49 
G01 X-8.78 Y7.49 
G01 X-8.71 Y7.47 
G01 X-8.70 Y7.47 
G01 X-8.64 Y7.43 
G01 X-8.58 Y7.37 
G01 X-6.81 Y5.61 
G01 X-6.77 Y5.54 
G01 X-6.75 Y5.46 
G01 X-6.75 Y3.75 
G01 X-6.77 Y3.67 
G01 X-6.81 Y3.60 
G01 X-6.82 Y3.59 
G01 X-7.18 Y3.23 
G01 X-7.19 Y3.22 
G01 X-6.75 Y3.66 
G01 X-6.75 Y5.55 
G01 X-8.70 Y7.49 
G01 X-9.21 Y7.49 
G01 X-9.65 Y7.94 
G00 Z1.00 
G00 X-7.21 Y3.20 
G01 Z-0.20 F35.00 
G01 X-7.23 Y3.18 F140.00 
G01 X-7.24 Y3.17 
G01 X-7.26 Y3.16 
G01 X-7.28 Y3.15 
G01 X-7.30 Y3.14 
G01 X-7.32 Y3.14 
G01 X-7.33 Y3.13 
G01 X-7.35 Y3.13 
G01 X-7.37 Y3.12 
G01 X-7.39 Y3.12 
G01 X-7.41 Y3.12 
G01 X-7.43 Y3.12 
G01 X-7.45 Y3.12 
G01 X-7.47 Y3.13 
G01 X-7.49 Y3.13 
G01 X-7.51 Y3.14 
G01 X-7.53 Y3.14 
G01 X-7.55 Y3.15 
G01 X-7.57 Y3.16 
G01 X-7.58 Y3.17 
G01 X-7.60 Y3.18 
G01 X-7.61 Y3.20 
G01 X-7.63 Y3.21 
G01 X-7.64 Y3.23 
G01 X-7.66 Y3.24 
G01 X-7.67 Y3.26 
G01 X-7.68 Y3.27 
G01 X-7.69 Y3.29 
G01 X-7.70 Y3.31 
G01 X-7.70 Y3.33 
G01 X-7.71 Y3.35 
G01 X-7.71 Y3.37 
G01 X-7.72 Y3.39 
G01 X-7.72 Y3.41 
G01 X-7.72 Y3.43 
G01 X-7.72 Y3.45 
G01 X-7.72 Y3.47 
G01 X-7.71 Y3.49 
G01 X-7.71 Y3.51 
G01 X-7.70 Y3.53 
G01 X-7.70 Y3.55 
G01 X-7.69 Y3.56 
G01 X-7.67 Y3.60 
G01 X-7.67 Y4.02 
G01 X-7.74 Y4.19 
G01 X-7.70 Y4.05 
G01 X-7.67 Y3.89 
G01 X-7.67 Y3.73 
G01 X-7.70 Y3.57 
G01 X-7.75 Y3.41 
G01 X-7.82 Y3.26 
G01 X-7.92 Y3.13 
G01 X-8.03 Y3.02 
G01 X-8.17 Y2.92 
G01 X-8.31 Y2.85 
G01 X-8.47 Y2.79 
G01 X-8.63 Y2.77 
G01 X-8.79 Y2.77 
G01 X-8.96 Y2.79 
G01 X-9.09 Y2.84 
G01 X-8.92 Y2.77 
G01 X-8.50 Y2.77 
G01 X-8.47 Y2.78 
G01 X-8.45 Y2.79 
G01 X-8.43 Y2.80 
G01 X-8.41 Y2.81 
G01 X-8.39 Y2.81 
G01 X-8.37 Y2.82 
G01 X-8.35 Y2.82 
G01 X-8.33 Y2.82 
G01 X-8.31 Y2.82 
G01 X-8.29 Y2.82 
G01 X-8.27 Y2.81 
G01 X-8.25 Y2.81 
G01 X-8.23 Y2.80 
G01 X-8.21 Y2.79 
G01 X-8.20 Y2.78 
G01 X-8.18 Y2.78 
G01 X-8.16 Y2.76 
G01 X-8.14 Y2.75 
G01 X-8.13 Y2.74 
G01 X-8.11 Y2.73 
G01 X-8.10 Y2.71 
G01 X-8.09 Y2.70 
G01 X-8.08 Y2.68 
G01 X-8.06 Y2.66 
G01 X-8.06 Y2.65 
G01 X-8.05 Y2.63 
G01 X-8.04 Y2.61 
G01 X-8.03 Y2.59 
G01 X-8.03 Y2.57 
G01 X-8.03 Y2.55 
G01 X-8.03 Y2.53 
G01 X-8.02 Y2.51 
G01 X-8.03 Y2.49 
G01 X-8.03 Y2.47 
G01 X-8.03 Y2.45 
G01 X-8.03 Y2.43 
G01 X-8.04 Y2.41 
G01 X-8.05 Y2.39 
G01 X-8.06 Y2.38 
G01 X-8.06 Y2.36 
G01 X-8.08 Y2.34 
G01 X-8.09 Y2.32 
G01 X-8.10 Y2.31 
G01 X-8.11 Y2.30 
G01 X-7.20 Y3.20 
G01 X-7.21 Y3.20 
G00 Z1.00 
G00 X-16.08 Y31.48 
G01 Z-0.20 F35.00 
G01 X-17.53 Y30.03 F140.00 
G01 X-17.59 Y29.99 
G01 X-17.67 Y29.97 
G01 X-17.93 Y29.97 
G01 X-18.21 Y29.86 
G01 X-18.43 Y29.64 
G01 X-18.54 Y29.36 
G01 X-18.54 Y29.06 
G01 X-18.43 Y28.78 
G01 X-18.21 Y28.56 
G01 X-17.93 Y28.45 
G01 X-17.63 Y28.45 
G01 X-17.35 Y28.56 
G01 X-17.13 Y28.78 
G01 X-17.02 Y29.06 
G01 X-17.02 Y29.32 
G01 X-17.00 Y29.39 
G01 X-17.00 Y29.40 
G01 X-16.96 Y29.46 
G01 X-16.90 Y29.52 
G01 X-15.06 Y31.37 
G01 X-15.05 Y31.37 
G01 X-17.04 Y29.38 
G01 X-17.02 Y29.28 
G01 X-17.02 Y29.14 
G01 X-17.05 Y28.99 
G01 X-17.11 Y28.85 
G01 X-17.19 Y28.72 
G01 X-17.29 Y28.62 
G01 X-17.42 Y28.54 
G01 X-17.56 Y28.48 
G01 X-17.71 Y28.45 
G01 X-17.85 Y28.45 
G01 X-18.00 Y28.48 
G01 X-18.14 Y28.54 
G01 X-18.27 Y28.62 
G01 X-18.37 Y28.72 
G01 X-18.45 Y28.85 
G01 X-18.51 Y28.99 
G01 X-18.54 Y29.14 
G01 X-18.54 Y29.28 
G01 X-18.51 Y29.43 
G01 X-18.45 Y29.57 
G01 X-18.37 Y29.70 
G01 X-18.27 Y29.80 
G01 X-18.14 Y29.88 
G01 X-18.00 Y29.94 
G01 X-17.85 Y29.97 
G01 X-17.71 Y29.97 
G01 X-17.61 Y29.95 
G01 X-16.07 Y31.49 
G01 X-16.08 Y31.48 
G00 Z1.00 
G00 X-15.03 Y31.39 
G01 Z-0.20 F35.00 
G01 X-15.01 Y31.41 F140.00 
G01 X-15.00 Y31.42 
G01 X-14.98 Y31.43 
G01 X-14.96 Y31.44 
G01 X-14.95 Y31.44 
G01 X-14.99 Y31.43 
G01 X-15.00 Y31.43 
G01 X-15.03 Y31.39 
G01 X-15.03 Y31.39 
G00 Z1.00 
G00 X-25.17 Y27.39 
G01 Z-0.20 F35.00 
G01 X-25.17 Y1.51 F140.00 
G01 X-25.14 Y1.45 
G01 X-25.17 Y1.53 
G01 X-25.17 Y27.36 
G01 X-25.14 Y27.44 
G01 X-25.17 Y27.39 
G00 Z1.00 
G00 X-9.39 Y4.87 
G01 Z-0.20 F35.00 
G01 X-9.39 Y4.88 F140.00 
G01 X-11.28 Y6.77 
G01 X-11.32 Y6.84 
G01 X-11.35 Y6.92 
G01 X-11.35 Y7.23 
G01 X-11.32 Y7.31 
G01 X-11.28 Y7.37 
G01 X-11.23 Y7.43 
G01 X-11.16 Y7.47 
G01 X-11.13 Y7.48 
G01 X-10.67 Y7.94 
G01 X-10.67 Y8.58 
G01 X-10.69 Y8.62 
G01 X-10.69 Y8.63 
G01 X-10.71 Y8.70 
G01 X-10.71 Y12.80 
G01 X-10.71 Y12.81 
G01 X-10.71 Y12.83 
G01 X-10.72 Y12.85 
G01 X-10.71 Y12.87 
G01 X-10.71 Y12.89 
G01 X-10.71 Y12.91 
G01 X-10.71 Y12.93 
G01 X-10.70 Y12.95 
G01 X-10.69 Y12.96 
G01 X-10.68 Y12.98 
G01 X-10.67 Y13.00 
G01 X-10.67 Y13.01 
G01 X-10.67 Y13.66 
G01 X-10.69 Y13.70 
G01 X-10.71 Y13.78 
G01 X-10.71 Y14.57 
G01 X-10.69 Y14.65 
G01 X-10.65 Y14.72 
G01 X-10.59 Y14.78 
G01 X-10.52 Y14.82 
G01 X-10.45 Y14.84 
G01 X-8.81 Y14.84 
G01 X-8.75 Y14.86 
G01 X-8.84 Y14.84 
G01 X-10.71 Y14.84 
G01 X-10.71 Y13.69 
G01 X-10.67 Y13.65 
G01 X-10.67 Y13.02 
G01 X-10.71 Y12.98 
G01 X-10.71 Y12.96 
G01 X-10.74 Y12.86 
G01 X-10.74 Y12.86 
G01 X-10.74 Y12.85 
G01 X-10.71 Y12.75 
G01 X-10.71 Y8.61 
G01 X-10.67 Y8.57 
G01 X-10.67 Y7.94 
G01 X-11.11 Y7.49 
G01 X-11.31 Y7.49 
G01 X-11.35 Y7.45 
G01 X-11.35 Y6.83 
G01 X-9.39 Y4.87 
G00 Z1.00 
G00 X-18.92 Y6.54 
G01 Z-0.20 F35.00 
G01 X-18.92 Y6.03 F140.00 
G01 X-19.37 Y5.59 
G01 X-20.00 Y5.59 
G01 X-20.45 Y6.03 
G01 X-20.45 Y6.67 
G01 X-20.00 Y7.11 
G01 X-19.49 Y7.11 
G01 X-16.20 Y10.41 
G01 X-16.12 Y10.48 
G01 X-16.04 Y10.53 
G01 X-16.10 Y10.50 
G01 X-16.28 Y10.32 
G01 X-19.37 Y7.23 
G01 X-19.38 Y7.22 
G01 X-19.43 Y7.17 
G01 X-19.50 Y7.13 
G01 X-19.58 Y7.11 
G01 X-20.00 Y7.11 
G01 X-20.45 Y6.67 
G01 X-20.45 Y6.03 
G01 X-20.00 Y5.59 
G01 X-19.37 Y5.59 
G01 X-18.92 Y6.03 
G01 X-18.92 Y6.46 
G01 X-18.90 Y6.54 
G01 X-18.86 Y6.60 
G01 X-18.80 Y6.66 
G01 X-15.77 Y9.70 
G01 X-15.70 Y9.74 
G01 X-15.62 Y9.76 
G01 X-11.78 Y9.76 
G01 X-11.70 Y9.74 
G01 X-11.63 Y9.70 
G01 X-11.58 Y9.64 
G01 X-11.54 Y9.57 
G01 X-11.51 Y9.49 
G01 X-11.51 Y9.28 
G01 X-11.54 Y9.20 
G01 X-11.58 Y9.14 
G01 X-11.63 Y9.08 
G01 X-11.70 Y9.04 
G01 X-11.73 Y9.03 
G01 X-12.19 Y8.57 
G01 X-12.19 Y7.93 
G01 X-12.19 Y7.92 
G01 X-12.18 Y7.90 
G01 X-12.17 Y7.88 
G01 X-12.16 Y7.87 
G01 X-12.15 Y7.85 
G01 X-12.15 Y7.83 
G01 X-12.15 Y7.81 
G01 X-12.15 Y7.79 
G01 X-12.14 Y7.77 
G01 X-12.15 Y7.75 
G01 X-12.15 Y7.73 
G01 X-12.15 Y7.72 
G01 X-12.15 Y6.59 
G01 X-12.13 Y6.53 
G01 X-12.15 Y6.61 
G01 X-12.15 Y7.67 
G01 X-12.12 Y7.77 
G01 X-12.09 Y7.83 
G01 X-12.19 Y7.94 
G01 X-12.19 Y8.57 
G01 X-11.75 Y9.02 
G01 X-11.51 Y9.02 
G01 X-11.51 Y9.76 
G01 X-15.71 Y9.76 
G01 X-18.92 Y6.54 
G00 Z1.00 
G00 X-12.09 Y6.44 
G01 Z-0.20 F35.00 
G01 X-11.94 Y6.30 F140.00 
G01 X-10.96 Y5.31 
G01 X-10.95 Y5.31 
G01 X-11.99 Y6.35 
G01 X-12.07 Y6.42 
G01 X-12.11 Y6.50 
G01 X-12.09 Y6.44 
G00 Z1.00 
G00 X-10.93 Y5.28 
G01 Z-0.20 F35.00 
G01 X-10.92 Y5.27 F140.00 
G01 X-10.91 Y5.25 
G01 X-10.90 Y5.24 
G01 X-10.89 Y5.22 
G01 X-10.88 Y5.20 
G01 X-10.87 Y5.18 
G01 X-10.86 Y5.16 
G01 X-10.86 Y5.14 
G01 X-10.86 Y5.12 
G01 X-10.86 Y5.10 
G01 X-10.85 Y5.08 
G01 X-10.86 Y5.06 
G01 X-10.86 Y5.04 
G01 X-10.86 Y5.02 
G01 X-10.86 Y5.00 
G01 X-10.87 Y4.98 
G01 X-10.88 Y4.96 
G01 X-10.89 Y4.95 
G01 X-10.90 Y4.93 
G01 X-10.91 Y4.91 
G01 X-10.92 Y4.90 
G01 X-10.93 Y4.88 
G01 X-10.94 Y4.87 
G01 X-10.96 Y4.85 
G01 X-10.97 Y4.84 
G01 X-10.99 Y4.83 
G01 X-11.01 Y4.82 
G01 X-11.03 Y4.81 
G01 X-11.04 Y4.80 
G01 X-11.06 Y4.79 
G01 X-11.08 Y4.79 
G01 X-11.10 Y4.78 
G01 X-11.12 Y4.78 
G01 X-11.14 Y4.78 
G01 X-11.16 Y4.78 
G01 X-11.18 Y4.78 
G01 X-11.20 Y4.78 
G01 X-11.22 Y4.78 
G01 X-11.24 Y4.79 
G01 X-11.26 Y4.79 
G01 X-11.28 Y4.80 
G01 X-11.30 Y4.81 
G01 X-11.40 Y4.85 
G01 X-11.82 Y4.85 
G01 X-11.98 Y4.78 
G01 X-11.85 Y4.83 
G01 X-11.69 Y4.85 
G01 X-11.53 Y4.85 
G01 X-11.36 Y4.83 
G01 X-11.21 Y4.77 
G01 X-11.06 Y4.70 
G01 X-10.93 Y4.60 
G01 X-10.81 Y4.49 
G01 X-10.72 Y4.36 
G01 X-10.64 Y4.21 
G01 X-10.59 Y4.05 
G01 X-10.57 Y3.89 
G01 X-10.57 Y3.73 
G01 X-10.59 Y3.57 
G01 X-10.64 Y3.43 
G01 X-10.57 Y3.60 
G01 X-10.57 Y4.02 
G01 X-10.61 Y4.12 
G01 X-10.62 Y4.14 
G01 X-10.62 Y4.16 
G01 X-10.63 Y4.18 
G01 X-10.63 Y4.20 
G01 X-10.64 Y4.22 
G01 X-10.64 Y4.24 
G01 X-10.64 Y4.26 
G01 X-10.64 Y4.28 
G01 X-10.64 Y4.30 
G01 X-10.63 Y4.32 
G01 X-10.63 Y4.34 
G01 X-10.62 Y4.35 
G01 X-10.62 Y4.37 
G01 X-10.61 Y4.39 
G01 X-10.60 Y4.41 
G01 X-10.59 Y4.43 
G01 X-10.58 Y4.44 
G01 X-10.56 Y4.46 
G01 X-10.55 Y4.47 
G01 X-10.54 Y4.49 
G01 X-10.52 Y4.50 
G01 X-10.51 Y4.51 
G01 X-10.49 Y4.52 
G01 X-10.47 Y4.53 
G01 X-10.45 Y4.54 
G01 X-10.43 Y4.55 
G01 X-10.42 Y4.55 
G01 X-10.40 Y4.56 
G01 X-10.38 Y4.56 
G01 X-10.36 Y4.56 
G01 X-10.34 Y4.56 
G01 X-10.32 Y4.56 
G01 X-10.30 Y4.56 
G01 X-10.28 Y4.56 
G01 X-10.26 Y4.55 
G01 X-10.24 Y4.55 
G01 X-10.22 Y4.54 
G01 X-10.20 Y4.53 
G01 X-10.18 Y4.52 
G01 X-10.17 Y4.51 
G01 X-10.15 Y4.50 
G01 X-10.13 Y4.49 
G01 X-10.13 Y4.48 
G01 X-10.94 Y5.29 
G01 X-10.93 Y5.28 
G00 Z1.00 
G00 X-10.11 Y4.46 
G01 Z-0.20 F35.00 
G01 X-9.87 Y4.22 F140.00 
G01 X-9.87 Y4.22 
G01 X-9.81 Y4.17 
G01 X-9.77 Y4.10 
G01 X-9.75 Y4.02 
G01 X-9.75 Y3.60 
G01 X-9.68 Y3.43 
G01 X-9.73 Y3.57 
G01 X-9.75 Y3.73 
G01 X-9.75 Y3.89 
G01 X-9.73 Y4.05 
G01 X-9.72 Y4.07 
G01 X-10.11 Y4.47 
G01 X-10.11 Y4.46 
G00 Z1.00 
G00 X-9.11 Y4.77 
G01 Z-0.20 F35.00 
G01 X-8.96 Y4.83 F140.00 
G01 X-8.79 Y4.85 
G01 X-8.63 Y4.85 
G01 X-8.47 Y4.83 
G01 X-8.34 Y4.78 
G01 X-8.50 Y4.85 
G01 X-8.92 Y4.85 
G01 X-9.03 Y4.81 
G01 X-9.04 Y4.80 
G01 X-9.06 Y4.79 
G01 X-9.08 Y4.78 
G01 X-9.10 Y4.78 
G01 X-9.12 Y4.78 
G01 X-9.14 Y4.78 
G01 X-9.16 Y4.77 
G01 X-9.18 Y4.78 
G01 X-9.20 Y4.78 
G01 X-9.22 Y4.78 
G01 X-9.24 Y4.78 
G01 X-9.26 Y4.79 
G01 X-9.28 Y4.80 
G01 X-9.30 Y4.81 
G01 X-9.32 Y4.82 
G01 X-9.33 Y4.83 
G01 X-9.35 Y4.84 
G01 X-9.36 Y4.85 
G01 X-9.37 Y4.86 
G01 X-9.23 Y4.72 
G01 X-9.11 Y4.77 
G00 Z1.00 
G00 X-12.19 Y13.02 
G01 Z-0.20 F35.00 
G01 X-12.19 Y13.65 F140.00 
G01 X-11.75 Y14.10 
G01 X-11.51 Y14.10 
G01 X-11.51 Y15.47 
G01 X-14.43 Y15.47 
G01 X-14.44 Y15.45 
G01 X-14.54 Y15.30 
G01 X-14.67 Y15.18 
G01 X-14.81 Y15.08 
G01 X-14.98 Y15.01 
G01 X-15.15 Y14.97 
G01 X-15.33 Y14.97 
G01 X-15.50 Y15.01 
G01 X-15.67 Y15.08 
G01 X-15.81 Y15.18 
G01 X-15.94 Y15.30 
G01 X-16.04 Y15.45 
G01 X-16.11 Y15.61 
G01 X-16.14 Y15.79 
G01 X-16.14 Y15.96 
G01 X-16.11 Y16.14 
G01 X-16.04 Y16.30 
G01 X-15.94 Y16.45 
G01 X-15.81 Y16.57 
G01 X-15.67 Y16.67 
G01 X-15.50 Y16.74 
G01 X-15.33 Y16.78 
G01 X-15.15 Y16.78 
G01 X-14.98 Y16.74 
G01 X-14.81 Y16.67 
G01 X-14.67 Y16.57 
G01 X-14.54 Y16.45 
G01 X-14.44 Y16.30 
G01 X-14.43 Y16.28 
G01 X-11.06 Y16.28 
G01 X-10.97 Y16.25 
G01 X-11.03 Y16.28 
G01 X-14.28 Y16.28 
G01 X-14.36 Y16.30 
G01 X-14.43 Y16.34 
G01 X-14.48 Y16.39 
G01 X-14.73 Y16.64 
G01 X-15.06 Y16.78 
G01 X-15.42 Y16.78 
G01 X-15.75 Y16.64 
G01 X-16.00 Y16.39 
G01 X-16.14 Y16.05 
G01 X-16.14 Y15.70 
G01 X-16.00 Y15.36 
G01 X-15.75 Y15.11 
G01 X-15.42 Y14.97 
G01 X-15.06 Y14.97 
G01 X-14.73 Y15.11 
G01 X-14.43 Y15.41 
G01 X-14.36 Y15.45 
G01 X-14.28 Y15.47 
G01 X-11.78 Y15.47 
G01 X-11.70 Y15.45 
G01 X-11.63 Y15.41 
G01 X-11.58 Y15.36 
G01 X-11.54 Y15.29 
G01 X-11.51 Y15.21 
G01 X-11.51 Y14.36 
G01 X-11.54 Y14.28 
G01 X-11.58 Y14.22 
G01 X-11.63 Y14.16 
G01 X-11.70 Y14.12 
G01 X-11.73 Y14.11 
G01 X-12.19 Y13.65 
G01 X-12.19 Y13.02 
G01 X-11.73 Y12.56 
G01 X-11.70 Y12.55 
G01 X-11.63 Y12.51 
G01 X-11.58 Y12.45 
G01 X-11.54 Y12.39 
G01 X-11.51 Y12.31 
G01 X-11.51 Y10.83 
G01 X-11.54 Y10.75 
G01 X-11.58 Y10.68 
G01 X-11.63 Y10.62 
G01 X-11.70 Y10.58 
G01 X-11.78 Y10.56 
G01 X-15.96 Y10.56 
G01 X-16.01 Y10.54 
G01 X-15.93 Y10.56 
G01 X-11.51 Y10.56 
G01 X-11.51 Y12.53 
G01 X-11.55 Y12.57 
G01 X-11.75 Y12.57 
G01 X-12.19 Y13.02 
G00 Z1.00 
G00 X-9.06 Y15.64 
G01 Z-0.20 F35.00 
G01 X-4.57 Y20.13 F140.00 
G01 X-4.57 Y20.64 
G01 X-4.13 Y21.08 
G01 X-3.49 Y21.08 
G01 X-3.05 Y20.64 
G01 X-3.05 Y20.00 
G01 X-3.49 Y19.56 
G01 X-4.00 Y19.56 
G01 X-8.57 Y14.99 
G01 X-8.64 Y14.92 
G01 X-8.72 Y14.87 
G01 X-8.66 Y14.90 
G01 X-4.06 Y19.50 
G01 X-4.00 Y19.54 
G01 X-3.92 Y19.56 
G01 X-3.49 Y19.56 
G01 X-3.49 Y19.56 
G01 X-3.44 Y19.62 
G01 X-3.43 Y19.62 
G01 X-3.40 Y19.63 
G01 X-3.36 Y19.66 
G01 X-3.29 Y19.68 
G01 X-3.21 Y19.68 
G01 X-3.19 Y19.67 
G01 X-3.13 Y19.66 
G01 X-3.06 Y19.62 
G01 X-3.00 Y19.56 
G01 X-2.99 Y19.53 
G01 X-2.96 Y19.49 
G01 X-2.94 Y19.41 
G01 X-2.94 Y18.35 
G01 X-2.96 Y18.27 
G01 X-3.00 Y18.20 
G01 X-3.06 Y18.15 
G01 X-3.42 Y17.79 
G01 X-3.49 Y17.75 
G01 X-3.56 Y17.73 
G01 X-4.02 Y17.73 
G01 X-4.19 Y17.66 
G01 X-4.05 Y17.70 
G01 X-3.89 Y17.73 
G01 X-3.73 Y17.73 
G01 X-3.57 Y17.70 
G01 X-3.52 Y17.69 
G01 X-2.94 Y18.26 
G01 X-2.94 Y21.42 
G01 X-3.62 Y22.10 
G01 X-4.00 Y22.10 
G01 X-7.93 Y18.17 
G01 X-8.01 Y18.09 
G01 X-8.09 Y18.05 
G01 X-8.03 Y18.07 
G01 X-7.84 Y18.26 
G01 X-4.06 Y22.04 
G01 X-4.00 Y22.08 
G01 X-3.92 Y22.10 
G01 X-3.70 Y22.10 
G01 X-3.62 Y22.08 
G01 X-3.56 Y22.04 
G01 X-3.50 Y21.98 
G01 X-3.00 Y21.48 
G01 X-2.96 Y21.41 
G01 X-2.94 Y21.34 
G01 X-2.94 Y21.23 
G01 X-2.96 Y21.15 
G01 X-2.99 Y21.11 
G01 X-3.00 Y21.08 
G01 X-3.06 Y21.02 
G01 X-3.13 Y20.98 
G01 X-3.18 Y20.97 
G01 X-3.21 Y20.96 
G01 X-3.29 Y20.96 
G01 X-3.36 Y20.98 
G01 X-3.40 Y21.00 
G01 X-3.43 Y21.02 
G01 X-3.49 Y21.08 
G01 X-3.49 Y21.08 
G01 X-4.13 Y21.08 
G01 X-4.57 Y20.64 
G01 X-4.57 Y20.21 
G01 X-4.59 Y20.13 
G01 X-4.63 Y20.07 
G01 X-4.69 Y20.01 
G01 X-9.00 Y15.70 
G01 X-9.07 Y15.66 
G01 X-9.14 Y15.64 
G01 X-10.45 Y15.64 
G01 X-10.52 Y15.66 
G01 X-10.59 Y15.70 
G01 X-10.65 Y15.76 
G01 X-10.69 Y15.83 
G01 X-10.71 Y15.91 
G01 X-10.71 Y15.96 
G01 X-10.73 Y16.01 
G01 X-10.71 Y15.93 
G01 X-10.71 Y15.64 
G01 X-9.06 Y15.64 
G00 Z1.00 
G00 X-10.77 Y16.10 
G01 Z-0.20 F35.00 
G01 X-10.88 Y16.22 F140.00 
G01 X-10.94 Y16.24 
G01 X-10.87 Y16.20 
G01 X-10.79 Y16.12 
G01 X-10.75 Y16.04 
G01 X-10.77 Y16.10 
G00 Z1.00 
G00 X-9.12 Y28.92 
G01 Z-0.20 F35.00 
G01 X-9.30 Y28.73 F140.00 
G01 X-10.50 Y27.53 
G01 X-10.53 Y27.47 
G01 X-10.48 Y27.55 
G01 X-9.21 Y28.82 
G01 X-9.14 Y28.90 
G01 X-9.06 Y28.94 
G01 X-9.12 Y28.92 
G00 Z1.00 
G00 X-3.49 Y23.62 
G01 Z-0.20 F35.00 
G01 X-3.05 Y23.18 F140.00 
G01 X-3.05 Y22.67 
G01 X-2.22 Y21.84 
G01 X-2.17 Y21.74 
G01 X-2.14 Y21.64 
G01 X-2.14 Y18.04 
G01 X-2.17 Y17.94 
G01 X-2.22 Y17.85 
G01 X-2.29 Y17.78 
G01 X-2.74 Y17.33 
G01 X-2.73 Y17.34 
G01 X-2.54 Y17.53 
G01 X-2.48 Y17.59 
G01 X-2.45 Y17.60 
G01 X-2.41 Y17.63 
G01 X-2.33 Y17.65 
G01 X-2.25 Y17.65 
G01 X-2.25 Y17.65 
G01 X-2.18 Y17.63 
G01 X-2.11 Y17.59 
G01 X-2.05 Y17.53 
G01 X-2.03 Y17.50 
G01 X-2.01 Y17.46 
G01 X-1.99 Y17.38 
G01 X-1.99 Y8.83 
G01 X-2.01 Y8.75 
G01 X-2.03 Y8.72 
G01 X-2.05 Y8.68 
G01 X-2.11 Y8.62 
G01 X-2.22 Y8.51 
G01 X-2.23 Y8.50 
G01 X-1.99 Y8.74 
G01 X-1.99 Y22.38 
G01 X-5.96 Y26.35 
G01 X-6.04 Y26.42 
G01 X-6.09 Y26.52 
G01 X-6.12 Y26.62 
G01 X-6.12 Y27.14 
G01 X-8.70 Y29.72 
G01 X-9.21 Y29.72 
G01 X-9.65 Y30.16 
G01 X-9.65 Y30.80 
G01 X-9.21 Y31.24 
G01 X-8.70 Y31.24 
G01 X-7.70 Y32.23 
G01 X-7.70 Y36.44 
G01 X-7.70 Y36.43 
G01 X-7.70 Y32.32 
G01 X-7.73 Y32.24 
G01 X-7.77 Y32.17 
G01 X-7.82 Y32.12 
G01 X-8.64 Y31.30 
G01 X-8.70 Y31.26 
G01 X-8.78 Y31.24 
G01 X-9.21 Y31.24 
G01 X-9.65 Y30.80 
G01 X-9.65 Y30.16 
G01 X-9.21 Y29.72 
G01 X-8.78 Y29.72 
G01 X-8.76 Y29.71 
G01 X-8.70 Y29.70 
G01 X-8.68 Y29.68 
G01 X-8.64 Y29.66 
G01 X-8.58 Y29.60 
G01 X-8.50 Y29.52 
G01 X-8.45 Y29.47 
G01 X-8.43 Y29.44 
G01 X-8.41 Y29.40 
G01 X-8.39 Y29.32 
G01 X-8.39 Y29.24 
G01 X-8.39 Y29.22 
G01 X-8.41 Y29.16 
G01 X-8.42 Y29.13 
G01 X-8.45 Y29.09 
G01 X-8.50 Y29.04 
G01 X-8.53 Y29.02 
G01 X-8.57 Y29.00 
G01 X-8.65 Y28.98 
G01 X-8.97 Y28.98 
G01 X-9.03 Y28.95 
G01 X-8.94 Y28.98 
G01 X-8.20 Y28.98 
G01 X-8.10 Y28.95 
G01 X-8.01 Y28.90 
G01 X-6.42 Y27.31 
G01 X-6.35 Y27.23 
G01 X-6.29 Y27.14 
G01 X-6.27 Y27.04 
G01 X-6.27 Y26.52 
G01 X-3.88 Y24.13 
G01 X-3.81 Y24.06 
G01 X-3.75 Y23.97 
G01 X-3.73 Y23.87 
G01 X-3.73 Y23.62 
G01 X-3.49 Y23.62 
G00 Z1.00 
G00 X-2.85 Y17.09 
G01 Z-0.20 F35.00 
G01 X-2.79 Y16.93 F140.00 
G01 X-2.77 Y16.77 
G01 X-2.77 Y16.61 
G01 X-2.79 Y16.44 
G01 X-2.84 Y16.31 
G01 X-2.77 Y16.48 
G01 X-2.77 Y16.90 
G01 X-2.80 Y16.98 
G01 X-2.81 Y16.99 
G01 X-2.82 Y17.01 
G01 X-2.82 Y17.03 
G01 X-2.83 Y17.05 
G01 X-2.83 Y17.07 
G01 X-2.83 Y17.09 
G01 X-2.83 Y17.11 
G01 X-2.83 Y17.13 
G01 X-2.83 Y17.15 
G01 X-2.83 Y17.17 
G01 X-2.82 Y17.19 
G01 X-2.82 Y17.21 
G01 X-2.81 Y17.23 
G01 X-2.80 Y17.25 
G01 X-2.79 Y17.26 
G01 X-2.78 Y17.28 
G01 X-2.77 Y17.30 
G01 X-2.76 Y17.31 
G01 X-2.75 Y17.32 
G01 X-2.89 Y17.18 
G01 X-2.85 Y17.09 
G00 Z1.00 
G00 X-4.57 Y23.18 
G01 Z-0.20 F35.00 
G01 X-4.53 Y23.22 F140.00 
G01 X-4.53 Y23.65 
G01 X-6.99 Y26.11 
G01 X-7.03 Y26.18 
G01 X-7.01 Y26.12 
G01 X-4.59 Y23.71 
G01 X-4.55 Y23.64 
G01 X-4.53 Y23.56 
G01 X-4.53 Y23.30 
G01 X-4.55 Y23.24 
G01 X-4.55 Y23.23 
G01 X-4.57 Y23.19 
G01 X-4.57 Y22.75 
G01 X-4.59 Y22.67 
G01 X-4.63 Y22.61 
G01 X-4.69 Y22.55 
G01 X-8.07 Y19.16 
G01 X-8.13 Y19.11 
G01 X-8.20 Y19.07 
G01 X-8.26 Y19.05 
G01 X-8.28 Y19.05 
G01 X-8.36 Y19.05 
G01 X-8.44 Y19.07 
G01 X-8.47 Y19.09 
G01 X-8.50 Y19.11 
G01 X-8.56 Y19.16 
G01 X-8.57 Y19.18 
G01 X-9.21 Y19.18 
G01 X-9.65 Y18.73 
G01 X-9.65 Y18.10 
G01 X-9.21 Y17.65 
G01 X-8.57 Y17.65 
G01 X-8.30 Y17.93 
G01 X-8.29 Y17.94 
G01 X-8.57 Y17.65 
G01 X-9.21 Y17.65 
G01 X-9.65 Y18.10 
G01 X-9.65 Y18.73 
G01 X-9.21 Y19.18 
G01 X-8.57 Y19.18 
G01 X-8.32 Y18.92 
G01 X-4.57 Y22.67 
G01 X-4.57 Y23.18 
G00 Z1.00 
G00 X-20.40 Y28.20 
G01 Z-0.20 F35.00 
G01 X-20.40 Y25.32 F140.00 
G01 X-20.38 Y25.26 
G01 X-20.40 Y25.35 
G01 X-20.40 Y28.21 
G01 X-20.40 Y28.20 
G00 Z1.00 
G00 X-20.54 Y28.48 
G01 Z-0.20 F35.00 
G01 X-20.58 Y28.49 F140.00 
G01 X-20.57 Y28.49 
G01 X-20.56 Y28.48 
G01 X-20.54 Y28.47 
G01 X-20.52 Y28.46 
G01 X-20.51 Y28.45 
G01 X-20.49 Y28.43 
G01 X-20.48 Y28.42 
G01 X-20.47 Y28.40 
G01 X-20.46 Y28.39 
G01 X-20.44 Y28.37 
G01 X-20.44 Y28.35 
G01 X-20.43 Y28.33 
G01 X-20.42 Y28.31 
G01 X-20.41 Y28.30 
G01 X-20.41 Y28.28 
G01 X-20.40 Y28.26 
G01 X-20.40 Y28.24 
G01 X-20.40 Y28.23 
G01 X-20.40 Y28.41 
G01 X-20.46 Y28.46 
G01 X-20.54 Y28.48 
G00 Z1.00 
G00 X-19.63 Y28.77 
G01 Z-0.20 F35.00 
G01 X-19.64 Y28.80 F140.00 
G01 X-19.64 Y28.80 
G01 X-19.63 Y28.85 
G01 X-19.63 Y28.88 
G01 X-19.61 Y28.93 
G01 X-19.60 Y28.96 
G01 X-19.56 Y29.06 
G01 X-19.56 Y29.36 
G01 X-19.67 Y29.64 
G01 X-19.89 Y29.86 
G01 X-20.03 Y29.91 
G01 X-20.04 Y29.92 
G01 X-19.96 Y29.88 
G01 X-19.83 Y29.80 
G01 X-19.73 Y29.70 
G01 X-19.65 Y29.57 
G01 X-19.59 Y29.43 
G01 X-19.56 Y29.28 
G01 X-19.56 Y29.14 
G01 X-19.59 Y28.99 
G01 X-19.65 Y28.85 
G01 X-19.67 Y28.81 
G01 X-19.63 Y28.73 
G01 X-19.63 Y28.77 
G00 Z1.00 
G00 X-8.42 Y28.17 
G01 Z-0.20 F35.00 
G01 X-8.72 Y28.17 F140.00 
G01 X-9.76 Y27.14 
G01 X-9.76 Y26.62 
G01 X-9.79 Y26.52 
G01 X-9.84 Y26.42 
G01 X-9.91 Y26.35 
G01 X-10.01 Y26.30 
G01 X-10.11 Y26.27 
G01 X-12.75 Y26.27 
G01 X-12.85 Y26.30 
G01 X-12.95 Y26.35 
G01 X-13.02 Y26.42 
G01 X-15.07 Y28.47 
G01 X-15.17 Y28.45 
G01 X-15.31 Y28.45 
G01 X-15.46 Y28.48 
G01 X-15.60 Y28.54 
G01 X-15.73 Y28.62 
G01 X-15.83 Y28.72 
G01 X-15.91 Y28.85 
G01 X-15.97 Y28.99 
G01 X-16.00 Y29.14 
G01 X-16.00 Y29.28 
G01 X-15.97 Y29.43 
G01 X-15.91 Y29.57 
G01 X-15.83 Y29.70 
G01 X-15.73 Y29.80 
G01 X-15.60 Y29.88 
G01 X-15.46 Y29.94 
G01 X-15.31 Y29.97 
G01 X-15.17 Y29.97 
G01 X-15.02 Y29.94 
G01 X-14.88 Y29.88 
G01 X-14.75 Y29.80 
G01 X-14.65 Y29.70 
G01 X-14.57 Y29.57 
G01 X-14.51 Y29.43 
G01 X-14.48 Y29.28 
G01 X-14.48 Y29.14 
G01 X-14.50 Y29.04 
G01 X-12.53 Y27.07 
G01 X-10.56 Y27.07 
G01 X-10.56 Y27.36 
G01 X-10.54 Y27.44 
G01 X-10.56 Y27.39 
G01 X-10.56 Y27.34 
G01 X-10.58 Y27.26 
G01 X-10.62 Y27.19 
G01 X-10.68 Y27.13 
G01 X-10.75 Y27.09 
G01 X-10.83 Y27.07 
G01 X-12.45 Y27.07 
G01 X-12.52 Y27.09 
G01 X-12.59 Y27.13 
G01 X-12.65 Y27.19 
G01 X-14.42 Y28.96 
G01 X-14.46 Y29.02 
G01 X-14.48 Y29.10 
G01 X-14.48 Y29.36 
G01 X-14.59 Y29.64 
G01 X-14.81 Y29.86 
G01 X-15.09 Y29.97 
G01 X-15.39 Y29.97 
G01 X-15.67 Y29.86 
G01 X-15.89 Y29.64 
G01 X-16.00 Y29.36 
G01 X-16.00 Y29.06 
G01 X-15.89 Y28.78 
G01 X-15.67 Y28.56 
G01 X-15.39 Y28.45 
G01 X-15.13 Y28.45 
G01 X-15.05 Y28.43 
G01 X-14.99 Y28.39 
G01 X-14.93 Y28.33 
G01 X-13.06 Y26.46 
G01 X-12.95 Y26.35 
G01 X-12.89 Y26.29 
G01 X-12.88 Y26.26 
G01 X-12.85 Y26.22 
G01 X-12.83 Y26.15 
G01 X-12.83 Y26.07 
G01 X-12.85 Y25.99 
G01 X-12.87 Y25.96 
G01 X-12.89 Y25.92 
G01 X-12.95 Y25.86 
G01 X-12.98 Y25.85 
G01 X-13.02 Y25.82 
G01 X-13.10 Y25.80 
G01 X-19.34 Y25.80 
G01 X-19.41 Y25.82 
G01 X-19.48 Y25.86 
G01 X-19.54 Y25.92 
G01 X-19.58 Y25.99 
G01 X-19.60 Y26.07 
G01 X-19.60 Y28.65 
G01 X-19.62 Y28.71 
G01 X-19.60 Y28.63 
G01 X-19.60 Y25.80 
G01 X-10.33 Y25.80 
G01 X-9.65 Y26.48 
G01 X-9.65 Y26.99 
G01 X-9.21 Y27.43 
G01 X-8.57 Y27.43 
G01 X-8.13 Y26.99 
G01 X-8.13 Y26.35 
G01 X-8.57 Y25.91 
G01 X-9.08 Y25.91 
G01 X-9.84 Y25.15 
G01 X-9.91 Y25.08 
G01 X-9.99 Y25.03 
G01 X-9.93 Y25.06 
G01 X-9.75 Y25.24 
G01 X-9.14 Y25.85 
G01 X-9.08 Y25.89 
G01 X-9.00 Y25.91 
G01 X-8.57 Y25.91 
G01 X-8.13 Y26.35 
G01 X-8.13 Y26.99 
G01 X-8.57 Y27.43 
G01 X-8.77 Y27.43 
G01 X-8.85 Y27.45 
G01 X-8.89 Y27.48 
G01 X-8.92 Y27.49 
G01 X-8.97 Y27.55 
G01 X-9.00 Y27.59 
G01 X-9.01 Y27.62 
G01 X-9.03 Y27.68 
G01 X-9.03 Y27.70 
G01 X-9.03 Y27.78 
G01 X-9.01 Y27.85 
G01 X-8.99 Y27.89 
G01 X-8.97 Y27.92 
G01 X-8.92 Y27.98 
G01 X-8.84 Y28.06 
G01 X-8.78 Y28.11 
G01 X-8.75 Y28.13 
G01 X-8.71 Y28.15 
G01 X-8.66 Y28.17 
G01 X-8.64 Y28.17 
G01 X-8.51 Y28.17 
G01 X-8.43 Y28.15 
G01 X-8.36 Y28.11 
G01 X-8.30 Y28.06 
G01 X-7.13 Y26.88 
G01 X-7.09 Y26.81 
G01 X-7.07 Y26.73 
G01 X-7.07 Y26.27 
G01 X-7.05 Y26.21 
G01 X-7.07 Y26.30 
G01 X-7.07 Y26.82 
G01 X-8.42 Y28.17 
G00 Z1.00 
G00 X-20.34 Y25.17 
G01 Z-0.20 F35.00 
G01 X-20.23 Y25.06 F140.00 
G01 X-20.17 Y25.03 
G01 X-20.25 Y25.08 
G01 X-20.32 Y25.15 
G01 X-20.37 Y25.23 
G01 X-20.34 Y25.17 
G00 Z1.00 
G00 X-20.08 Y25.00 
G01 Z-0.20 F35.00 
G01 X-10.08 Y25.00 F140.00 
G01 X-10.02 Y25.02 
G01 X-10.11 Y25.00 
G01 X-20.06 Y25.00 
G01 X-20.14 Y25.02 
G01 X-20.08 Y25.00 
G00 Z1.00 
G00 X-8.28 Y17.95 
G01 Z-0.20 F35.00 
G01 X-8.27 Y17.96 F140.00 
G01 X-8.26 Y17.97 
G01 X-8.24 Y17.98 
G01 X-8.22 Y17.99 
G01 X-8.20 Y18.00 
G01 X-8.19 Y18.01 
G01 X-8.17 Y18.02 
G01 X-8.12 Y18.04 
G01 X-8.20 Y18.01 
G01 X-8.21 Y18.01 
G01 X-8.28 Y17.95 
G00 Z1.00 
G00 X-9.29 Y41.83 
G01 Z-0.20 F35.00 
G01 X-6.29 Y41.83 F140.00 
G01 X-6.21 Y41.80 
G01 X-6.14 Y41.76 
G01 X-6.08 Y41.71 
G01 X-5.91 Y41.53 
G01 X-5.90 Y41.53 
G01 X-6.20 Y41.83 
G01 X-9.26 Y41.83 
G01 X-9.35 Y41.85 
G01 X-9.29 Y41.83 
G00 Z1.00 
G00 X-10.71 Y30.20 
G01 Z-0.20 F35.00 
G01 X-10.71 Y30.21 F140.00 
G01 X-10.71 Y36.26 
G01 X-10.69 Y36.34 
G01 X-10.65 Y36.41 
G01 X-10.59 Y36.46 
G01 X-9.31 Y37.74 
G01 X-9.18 Y37.87 
G01 X-9.16 Y37.93 
G01 X-9.20 Y37.85 
G01 X-9.28 Y37.78 
G01 X-10.71 Y36.35 
G01 X-10.71 Y30.20 
G00 Z1.00 
G00 X-8.48 Y40.98 
G01 Z-0.20 F35.00 
G01 X-8.61 Y40.85 F140.00 
G01 X-8.61 Y40.85 
G01 X-8.67 Y40.80 
G01 X-9.74 Y39.73 
G01 X-9.87 Y39.60 
G01 X-9.89 Y39.54 
G01 X-9.85 Y39.62 
G01 X-8.58 Y40.89 
G01 X-8.50 Y40.96 
G01 X-8.42 Y41.01 
G01 X-8.48 Y40.98 
G00 Z1.00 
G00 X-8.09 Y40.24 
G01 Z-0.20 F35.00 
G01 X-9.12 Y39.20 F140.00 
G01 X-9.12 Y38.05 
G01 X-9.15 Y37.96 
G01 X-9.12 Y38.02 
G01 X-9.12 Y39.12 
G01 X-9.10 Y39.19 
G01 X-9.06 Y39.26 
G01 X-9.01 Y39.32 
G01 X-8.21 Y40.12 
G01 X-8.15 Y40.18 
G01 X-8.08 Y40.22 
G01 X-8.00 Y40.24 
G01 X-7.02 Y40.24 
G01 X-6.94 Y40.22 
G01 X-6.87 Y40.18 
G01 X-6.81 Y40.12 
G01 X-6.77 Y40.05 
G01 X-6.75 Y39.97 
G01 X-6.75 Y39.70 
G01 X-6.75 Y39.69 
G01 X-6.75 Y40.24 
G01 X-8.09 Y40.24 
G00 Z1.00 
G00 X-6.24 Y41.03 
G01 Z-0.20 F35.00 
G01 X-6.27 Y41.04 F140.00 
G01 X-8.34 Y41.04 
G01 X-8.39 Y41.02 
G01 X-8.31 Y41.04 
G01 X-6.30 Y41.04 
G01 X-6.23 Y41.02 
G01 X-6.24 Y41.03 
G00 Z1.00 
G00 X-9.93 Y39.45 
G01 Z-0.20 F35.00 
G01 X-9.93 Y38.35 F140.00 
G01 X-9.95 Y38.28 
G01 X-9.99 Y38.21 
G01 X-10.04 Y38.15 
G01 X-11.45 Y36.74 
G01 X-11.48 Y36.68 
G01 X-11.43 Y36.76 
G01 X-9.93 Y38.27 
G01 X-9.93 Y39.42 
G01 X-9.90 Y39.51 
G01 X-9.93 Y39.45 
G00 Z1.00 
G00 X-11.51 Y36.59 
G01 Z-0.20 F35.00 
G01 X-11.51 Y30.88 F140.00 
G01 X-11.51 Y30.87 
G01 X-11.51 Y36.57 
G01 X-11.49 Y36.65 
G01 X-11.51 Y36.59 
G00 Z1.00 
G00 X-11.51 Y30.84 
G01 Z-0.20 F35.00 
G01 X-11.51 Y30.82 F140.00 
G01 X-11.52 Y30.80 
G01 X-11.52 Y30.78 
G01 X-11.53 Y30.77 
G01 X-11.54 Y30.75 
G01 X-11.55 Y30.73 
G01 X-11.55 Y30.71 
G01 X-11.57 Y30.69 
G01 X-11.58 Y30.68 
G01 X-11.59 Y30.66 
G01 X-11.60 Y30.65 
G01 X-11.62 Y30.63 
G01 X-11.63 Y30.62 
G01 X-11.65 Y30.61 
G01 X-11.67 Y30.60 
G01 X-11.68 Y30.59 
G01 X-11.69 Y30.59 
G01 X-11.65 Y30.60 
G01 X-11.51 Y30.63 
G01 X-11.51 Y30.85 
G01 X-11.51 Y30.84 
G00 Z1.00 
G00 X-10.70 Y30.09 
G01 Z-0.20 F35.00 
G01 X-10.67 Y29.95 F140.00 
G01 X-10.67 Y28.47 
G01 X-10.70 Y28.33 
G01 X-10.76 Y28.19 
G01 X-10.84 Y28.06 
G01 X-10.94 Y27.96 
G01 X-11.07 Y27.87 
G01 X-11.21 Y27.82 
G01 X-11.36 Y27.79 
G01 X-11.50 Y27.79 
G01 X-11.65 Y27.82 
G01 X-11.79 Y27.87 
G01 X-11.92 Y27.96 
G01 X-12.02 Y28.06 
G01 X-12.10 Y28.19 
G01 X-12.16 Y28.33 
G01 X-12.19 Y28.47 
G01 X-12.19 Y29.95 
G01 X-12.16 Y30.09 
G01 X-12.10 Y30.23 
G01 X-12.02 Y30.36 
G01 X-11.92 Y30.46 
G01 X-11.79 Y30.55 
G01 X-11.71 Y30.58 
G01 X-11.72 Y30.58 
G01 X-11.86 Y30.52 
G01 X-12.08 Y30.30 
G01 X-12.19 Y30.02 
G01 X-12.19 Y28.40 
G01 X-12.08 Y28.12 
G01 X-11.86 Y27.90 
G01 X-11.58 Y27.79 
G01 X-11.28 Y27.79 
G01 X-11.00 Y27.90 
G01 X-10.78 Y28.12 
G01 X-10.67 Y28.40 
G01 X-10.67 Y30.02 
G01 X-10.68 Y30.05 
G01 X-10.69 Y30.07 
G01 X-10.69 Y30.09 
G01 X-10.70 Y30.11 
G01 X-10.71 Y30.13 
G01 X-10.71 Y30.15 
G01 X-10.71 Y30.17 
G01 X-10.71 Y30.18 
G01 X-10.71 Y30.13 
G01 X-10.70 Y30.09 
G00 Z1.00 
G00 X-10.08 Y43.67 
G01 Z-0.20 F35.00 
G01 X-10.10 Y43.69 F140.00 
G01 X-10.11 Y43.70 
G01 X-10.12 Y43.72 
G01 X-10.13 Y43.74 
G01 X-10.14 Y43.76 
G01 X-10.14 Y43.77 
G01 X-10.15 Y43.79 
G01 X-10.15 Y43.81 
G01 X-10.16 Y43.83 
G01 X-10.16 Y43.85 
G01 X-10.16 Y43.87 
G01 X-10.16 Y43.89 
G01 X-10.16 Y43.91 
G01 X-10.15 Y43.93 
G01 X-10.15 Y43.95 
G01 X-10.14 Y43.97 
G01 X-10.14 Y43.99 
G01 X-10.13 Y44.01 
G01 X-10.01 Y44.30 
G01 X-10.01 Y44.60 
G01 X-10.12 Y44.88 
G01 X-10.34 Y45.10 
G01 X-10.62 Y45.21 
G01 X-12.24 Y45.21 
G01 X-12.52 Y45.10 
G01 X-12.74 Y44.88 
G01 X-12.85 Y44.60 
G01 X-12.85 Y44.30 
G01 X-12.74 Y44.02 
G01 X-12.52 Y43.80 
G01 X-12.24 Y43.69 
G01 X-11.32 Y43.69 
G01 X-11.24 Y43.67 
G01 X-11.18 Y43.63 
G01 X-11.12 Y43.57 
G01 X-9.62 Y42.07 
G01 X-9.44 Y41.89 
G01 X-9.38 Y41.86 
G01 X-9.45 Y41.91 
G01 X-9.53 Y41.98 
G01 X-11.24 Y43.69 
G01 X-12.17 Y43.69 
G01 X-12.31 Y43.72 
G01 X-12.45 Y43.78 
G01 X-12.58 Y43.86 
G01 X-12.68 Y43.96 
G01 X-12.77 Y44.09 
G01 X-12.82 Y44.23 
G01 X-12.85 Y44.38 
G01 X-12.85 Y44.52 
G01 X-12.82 Y44.67 
G01 X-12.77 Y44.81 
G01 X-12.68 Y44.94 
G01 X-12.58 Y45.04 
G01 X-12.45 Y45.12 
G01 X-12.31 Y45.18 
G01 X-12.17 Y45.21 
G01 X-10.69 Y45.21 
G01 X-10.55 Y45.18 
G01 X-10.41 Y45.12 
G01 X-10.28 Y45.04 
G01 X-10.18 Y44.94 
G01 X-10.09 Y44.81 
G01 X-10.04 Y44.67 
G01 X-10.01 Y44.52 
G01 X-10.01 Y44.38 
G01 X-10.04 Y44.23 
G01 X-10.09 Y44.09 
G01 X-10.18 Y43.96 
G01 X-10.28 Y43.86 
G01 X-10.08 Y43.66 
G01 X-10.08 Y43.67 
G00 Z1.00 
G00 X-7.84 Y36.71 
G01 Z-0.20 F35.00 
G01 X-7.88 Y36.72 F140.00 
G01 X-7.87 Y36.72 
G01 X-7.86 Y36.71 
G01 X-7.84 Y36.70 
G01 X-7.82 Y36.69 
G01 X-7.81 Y36.68 
G01 X-7.79 Y36.66 
G01 X-7.78 Y36.65 
G01 X-7.77 Y36.63 
G01 X-7.76 Y36.62 
G01 X-7.74 Y36.60 
G01 X-7.74 Y36.58 
G01 X-7.73 Y36.56 
G01 X-7.72 Y36.54 
G01 X-7.71 Y36.53 
G01 X-7.71 Y36.51 
G01 X-7.70 Y36.49 
G01 X-7.70 Y36.47 
G01 X-7.70 Y36.46 
G01 X-7.70 Y36.66 
G01 X-7.72 Y36.68 
G01 X-7.84 Y36.71 
G00 Z1.00 
G00 X-2.25 Y8.48 
G01 Z-0.20 F35.00 
G01 X-2.27 Y8.45 F140.00 
G01 X-2.28 Y8.45 
G01 X-2.29 Y8.44 
G01 X-2.32 Y8.43 
G01 X-2.34 Y8.41 
G01 X-2.35 Y8.41 
G01 X-2.36 Y8.41 
G01 X-2.39 Y8.40 
G01 X-2.42 Y8.39 
G01 X-2.43 Y8.39 
G01 X-2.44 Y8.39 
G01 X-2.47 Y8.39 
G01 X-2.50 Y8.39 
G01 X-2.51 Y8.40 
G01 X-2.52 Y8.40 
G01 X-2.55 Y8.41 
G01 X-2.58 Y8.41 
G01 X-2.59 Y8.42 
G01 X-2.59 Y8.42 
G01 X-2.62 Y8.44 
G01 X-2.65 Y8.45 
G01 X-2.65 Y8.46 
G01 X-2.66 Y8.46 
G01 X-2.68 Y8.49 
G01 X-2.70 Y8.51 
G01 X-2.71 Y8.52 
G01 X-2.71 Y8.52 
G01 X-2.73 Y8.55 
G01 X-2.74 Y8.58 
G01 X-2.75 Y8.59 
G01 X-2.75 Y8.60 
G01 X-2.76 Y8.63 
G01 X-2.77 Y8.66 
G01 X-2.77 Y8.67 
G01 X-2.77 Y8.67 
G01 X-2.77 Y8.71 
G01 X-2.77 Y8.71 
G01 X-2.83 Y8.71 
G01 X-2.85 Y8.67 
G01 X-2.92 Y8.52 
G01 X-3.02 Y8.39 
G01 X-3.13 Y8.27 
G01 X-3.26 Y8.18 
G01 X-3.41 Y8.10 
G01 X-3.45 Y8.09 
G01 X-3.45 Y8.02 
G01 X-3.45 Y8.02 
G01 X-3.42 Y8.03 
G01 X-3.41 Y8.02 
G01 X-3.40 Y8.02 
G01 X-3.37 Y8.02 
G01 X-3.34 Y8.01 
G01 X-3.33 Y8.00 
G01 X-3.32 Y8.00 
G01 X-3.29 Y7.99 
G01 X-3.27 Y7.97 
G01 X-3.26 Y7.97 
G01 X-3.25 Y7.96 
G01 X-3.23 Y7.94 
G01 X-3.21 Y7.92 
G01 X-3.20 Y7.91 
G01 X-3.20 Y7.91 
G01 X-3.18 Y7.88 
G01 X-3.16 Y7.85 
G01 X-3.16 Y7.84 
G01 X-3.16 Y7.84 
G01 X-3.15 Y7.81 
G01 X-3.14 Y7.78 
G01 X-3.14 Y7.77 
G01 X-3.14 Y7.76 
G01 X-3.14 Y7.73 
G01 X-3.13 Y7.70 
G01 X-3.14 Y7.69 
G01 X-3.14 Y7.68 
G01 X-3.14 Y7.65 
G01 X-3.15 Y7.62 
G01 X-3.15 Y7.61 
G01 X-3.16 Y7.60 
G01 X-3.17 Y7.57 
G01 X-3.19 Y7.55 
G01 X-3.19 Y7.54 
G01 X-3.20 Y7.53 
G01 X-3.22 Y7.51 
G01 X-3.23 Y7.49 
G01 X-2.23 Y8.49 
G01 X-2.25 Y8.48 
G00 Z1.00 
G00 X-3.25 Y7.48 
G01 Z-0.20 F35.00 
G01 X-3.45 Y7.27 F140.00 
G01 X-3.52 Y7.23 
G01 X-3.60 Y7.21 
G01 X-4.02 Y7.21 
G01 X-4.19 Y7.14 
G01 X-4.05 Y7.19 
G01 X-3.89 Y7.21 
G01 X-3.73 Y7.21 
G01 X-3.57 Y7.19 
G01 X-3.55 Y7.18 
G01 X-3.24 Y7.48 
G01 X-3.25 Y7.48 
G00 Z1.00 
G00 X-2.85 Y6.57 
G01 Z-0.20 F35.00 
G01 X-2.79 Y6.42 F140.00 
G01 X-2.77 Y6.25 
G01 X-2.77 Y6.09 
G01 X-2.79 Y5.93 
G01 X-2.84 Y5.80 
G01 X-2.77 Y5.96 
G01 X-2.77 Y6.38 
G01 X-2.81 Y6.49 
G01 X-2.82 Y6.50 
G01 X-2.83 Y6.52 
G01 X-2.84 Y6.54 
G01 X-2.84 Y6.56 
G01 X-2.84 Y6.58 
G01 X-2.84 Y6.60 
G01 X-2.85 Y6.62 
G01 X-2.84 Y6.64 
G01 X-2.84 Y6.66 
G01 X-2.84 Y6.68 
G01 X-2.84 Y6.70 
G01 X-2.83 Y6.72 
G01 X-2.82 Y6.74 
G01 X-2.81 Y6.76 
G01 X-2.80 Y6.78 
G01 X-2.79 Y6.79 
G01 X-2.78 Y6.81 
G01 X-2.77 Y6.82 
G01 X-2.76 Y6.83 
G01 X-2.90 Y6.69 
G01 X-2.85 Y6.57 
G00 Z1.00 
G00 X-10.72 Y3.22 
G01 Z-0.20 F35.00 
G01 X-10.65 Y3.39 F140.00 
G01 X-10.72 Y3.26 
G01 X-10.81 Y3.13 
G01 X-10.93 Y3.02 
G01 X-11.06 Y2.92 
G01 X-11.19 Y2.86 
G01 X-11.02 Y2.93 
G01 X-10.72 Y3.22 
G00 Z1.00 
G00 X-11.40 Y2.77 
G01 Z-0.20 F35.00 
G01 X-11.23 Y2.84 F140.00 
G01 X-11.36 Y2.79 
G01 X-11.53 Y2.77 
G01 X-11.69 Y2.77 
G01 X-11.85 Y2.79 
G01 X-11.98 Y2.84 
G01 X-11.82 Y2.77 
G01 X-11.40 Y2.77 
G00 Z1.00 
G00 X-23.62 Y29.14 
G01 Z-0.20 F35.00 
G01 X-23.62 Y29.28 F140.00 
G01 X-23.59 Y29.43 
G01 X-23.53 Y29.57 
G01 X-23.45 Y29.70 
G01 X-23.35 Y29.80 
G01 X-23.22 Y29.88 
G01 X-23.08 Y29.94 
G01 X-22.93 Y29.97 
G01 X-22.79 Y29.97 
G01 X-22.64 Y29.94 
G01 X-22.50 Y29.88 
G01 X-22.37 Y29.80 
G01 X-22.27 Y29.70 
G01 X-22.19 Y29.57 
G01 X-22.13 Y29.43 
G01 X-22.10 Y29.28 
G01 X-22.10 Y29.14 
G01 X-22.13 Y28.99 
G01 X-22.19 Y28.85 
G01 X-22.27 Y28.72 
G01 X-22.37 Y28.62 
G01 X-22.50 Y28.54 
G01 X-22.64 Y28.48 
G01 X-22.79 Y28.45 
G01 X-22.93 Y28.45 
G01 X-23.03 Y28.47 
G01 X-24.36 Y27.14 
G01 X-24.36 Y1.99 
G01 X-8.42 Y1.99 
G01 X-8.12 Y2.29 
G01 X-8.13 Y2.28 
G01 X-8.30 Y2.11 
G01 X-8.36 Y2.05 
G01 X-8.40 Y2.03 
G01 X-8.43 Y2.01 
G01 X-8.51 Y1.99 
G01 X-24.10 Y1.99 
G01 X-24.18 Y2.01 
G01 X-24.25 Y2.05 
G01 X-24.30 Y2.11 
G01 X-24.34 Y2.18 
G01 X-24.36 Y2.25 
G01 X-24.36 Y27.05 
G01 X-24.34 Y27.13 
G01 X-24.30 Y27.20 
G01 X-24.25 Y27.26 
G01 X-23.11 Y28.39 
G01 X-23.05 Y28.43 
G01 X-22.97 Y28.45 
G01 X-22.71 Y28.45 
G01 X-22.43 Y28.56 
G01 X-22.21 Y28.78 
G01 X-22.10 Y29.06 
G01 X-22.10 Y29.36 
G01 X-22.21 Y29.64 
G01 X-22.43 Y29.86 
G01 X-22.71 Y29.97 
G01 X-23.01 Y29.97 
G01 X-23.29 Y29.86 
G01 X-23.51 Y29.64 
G01 X-23.62 Y29.36 
G01 X-23.62 Y29.10 
G01 X-23.64 Y29.02 
G01 X-23.68 Y28.96 
G01 X-23.74 Y28.90 
G01 X-25.11 Y27.53 
G01 X-25.13 Y27.47 
G01 X-25.09 Y27.55 
G01 X-23.60 Y29.04 
G01 X-23.62 Y29.14 
G00 Z1.00 
G00 X-21.08 Y29.14 
G01 Z-0.20 F35.00 
G01 X-21.08 Y29.28 F140.00 
G01 X-21.05 Y29.43 
G01 X-20.99 Y29.57 
G01 X-20.97 Y29.61 
G01 X-21.01 Y29.69 
G01 X-21.00 Y29.62 
G01 X-21.00 Y29.62 
G01 X-21.01 Y29.54 
G01 X-21.01 Y29.54 
G01 X-21.08 Y29.36 
G01 X-21.08 Y29.06 
G01 X-20.97 Y28.78 
G01 X-20.75 Y28.56 
G01 X-20.61 Y28.51 
G01 X-20.60 Y28.50 
G01 X-20.68 Y28.54 
G01 X-20.81 Y28.62 
G01 X-20.91 Y28.72 
G01 X-20.99 Y28.85 
G01 X-21.05 Y28.99 
G01 X-21.08 Y29.14 
G00 Z1.00 
G00 X-20.10 Y29.94 
G01 Z-0.20 F35.00 
G01 X-20.06 Y29.93 F140.00 
G01 X-20.07 Y29.93 
G01 X-20.08 Y29.94 
G01 X-20.10 Y29.95 
G01 X-20.12 Y29.96 
G01 X-20.13 Y29.97 
G01 X-20.15 Y29.99 
G01 X-20.16 Y30.00 
G01 X-20.17 Y30.02 
G01 X-20.18 Y30.03 
G01 X-20.20 Y30.05 
G01 X-20.20 Y30.07 
G01 X-20.21 Y30.09 
G01 X-20.22 Y30.11 
G01 X-20.23 Y30.12 
G01 X-20.23 Y30.14 
G01 X-20.24 Y30.16 
G01 X-20.24 Y30.18 
G01 X-20.24 Y30.19 
G01 X-20.24 Y30.01 
G01 X-20.18 Y29.96 
G01 X-20.10 Y29.94 
G00 Z1.00 
G00 X-20.24 Y30.22 
G01 Z-0.20 F35.00 
G01 X-20.24 Y31.13 F140.00 
G01 X-20.24 Y31.14 
G01 X-20.24 Y30.21 
G01 X-20.24 Y30.22 
G00 Z1.00 
G00 X-20.24 Y31.17 
G01 Z-0.20 F35.00 
G01 X-20.24 Y31.19 F140.00 
G01 X-20.23 Y31.21 
G01 X-20.23 Y31.23 
G01 X-20.22 Y31.25 
G01 X-20.21 Y31.27 
G01 X-20.20 Y31.29 
G01 X-20.20 Y31.31 
G01 X-20.18 Y31.32 
G01 X-20.17 Y31.34 
G01 X-20.16 Y31.36 
G01 X-20.15 Y31.37 
G01 X-20.13 Y31.38 
G01 X-20.12 Y31.40 
G01 X-20.10 Y31.41 
G01 X-20.08 Y31.42 
G01 X-20.07 Y31.43 
G01 X-20.06 Y31.43 
G01 X-20.07 Y31.43 
G01 X-20.23 Y31.40 
G01 X-20.24 Y31.17 
G01 X-20.24 Y31.17 
G00 Z1.00 
G00 X-21.08 Y31.85 
G01 Z-0.20 F35.00 
G01 X-21.15 Y32.01 F140.00 
G01 X-21.18 Y32.17 
G01 X-21.18 Y33.87 
G01 X-21.15 Y34.03 
G01 X-21.08 Y34.19 
G01 X-20.99 Y34.33 
G01 X-20.87 Y34.45 
G01 X-20.73 Y34.55 
G01 X-20.57 Y34.61 
G01 X-20.40 Y34.64 
G01 X-20.23 Y34.64 
G01 X-20.07 Y34.61 
G01 X-19.91 Y34.55 
G01 X-19.77 Y34.45 
G01 X-19.65 Y34.33 
G01 X-19.56 Y34.19 
G01 X-19.49 Y34.03 
G01 X-19.46 Y33.87 
G01 X-19.46 Y32.17 
G01 X-19.49 Y32.01 
G01 X-19.56 Y31.85 
G01 X-19.65 Y31.71 
G01 X-19.77 Y31.59 
G01 X-19.91 Y31.49 
G01 X-20.04 Y31.44 
G01 X-20.03 Y31.44 
G01 X-19.83 Y31.53 
G01 X-19.59 Y31.77 
G01 X-19.46 Y32.09 
G01 X-19.46 Y33.95 
G01 X-19.59 Y34.27 
G01 X-19.83 Y34.51 
G01 X-20.15 Y34.65 
G01 X-20.49 Y34.65 
G01 X-20.81 Y34.51 
G01 X-21.05 Y34.27 
G01 X-21.18 Y33.95 
G01 X-21.18 Y32.09 
G01 X-21.07 Y31.81 
G01 X-21.06 Y31.79 
G01 X-21.06 Y31.77 
G01 X-21.05 Y31.76 
G01 X-21.04 Y31.74 
G01 X-21.04 Y31.72 
G01 X-21.04 Y31.70 
G01 X-21.04 Y31.69 
G01 X-21.04 Y31.78 
G01 X-21.08 Y31.85 
G00 Z1.00 
G00 X-21.04 Y31.66 
G01 Z-0.20 F35.00 
G01 X-21.04 Y29.77 F140.00 
G01 X-21.02 Y29.71 
G01 X-21.04 Y29.79 
G01 X-21.04 Y31.67 
G01 X-21.04 Y31.66 
G00 Z1.00 
G00 X-21.99 Y7.07 
G01 Z-0.20 F35.00 
G01 X-21.99 Y3.73 F140.00 
G01 X-21.97 Y3.67 
G01 X-21.99 Y3.76 
G01 X-21.99 Y7.04 
G01 X-21.97 Y7.12 
G01 X-21.99 Y7.07 
G00 Z1.00 
G00 X-20.40 Y20.58 
G01 Z-0.20 F35.00 
G01 X-20.40 Y9.33 F140.00 
G01 X-20.43 Y9.26 
G01 X-20.45 Y9.22 
G01 X-20.45 Y8.78 
G01 X-20.47 Y8.70 
G01 X-20.51 Y8.64 
G01 X-20.57 Y8.58 
G01 X-21.93 Y7.21 
G01 X-21.96 Y7.15 
G01 X-21.91 Y7.23 
G01 X-20.45 Y8.70 
G01 X-20.45 Y9.21 
G01 X-20.40 Y9.25 
G01 X-20.40 Y20.59 
G01 X-20.40 Y20.58 
G00 Z1.00 
G00 X-21.19 Y4.21 
G01 Z-0.20 F35.00 
G01 X-12.78 Y4.21 F140.00 
G01 X-12.79 Y4.21 
G01 X-20.92 Y4.21 
G01 X-21.00 Y4.23 
G01 X-21.07 Y4.27 
G01 X-21.13 Y4.33 
G01 X-21.17 Y4.40 
G01 X-21.19 Y4.48 
G01 X-21.19 Y6.73 
G01 X-21.17 Y6.81 
G01 X-21.13 Y6.88 
G01 X-21.07 Y6.94 
G01 X-19.94 Y8.07 
G01 X-19.87 Y8.11 
G01 X-19.79 Y8.13 
G01 X-19.37 Y8.13 
G01 X-18.92 Y8.57 
G01 X-18.92 Y9.21 
G01 X-19.38 Y9.66 
G01 X-19.41 Y9.67 
G01 X-19.48 Y9.71 
G01 X-19.54 Y9.77 
G01 X-19.58 Y9.84 
G01 X-19.60 Y9.92 
G01 X-19.60 Y21.03 
G01 X-19.62 Y21.09 
G01 X-19.60 Y21.01 
G01 X-19.60 Y9.65 
G01 X-19.37 Y9.65 
G01 X-18.92 Y9.21 
G01 X-18.92 Y8.57 
G01 X-19.37 Y8.13 
G01 X-19.88 Y8.13 
G01 X-21.19 Y6.82 
G01 X-21.19 Y4.21 
G00 Z1.00 
G00 X-21.93 Y3.58 
G01 Z-0.20 F35.00 
G01 X-21.82 Y3.47 F140.00 
G01 X-21.76 Y3.44 
G01 X-21.84 Y3.49 
G01 X-21.91 Y3.56 
G01 X-21.96 Y3.64 
G01 X-21.93 Y3.58 
G00 Z1.00 
G00 X-21.67 Y3.41 
G01 Z-0.20 F35.00 
G01 X-12.79 Y3.41 F140.00 
G01 X-12.78 Y3.41 
G01 X-21.64 Y3.41 
G01 X-21.73 Y3.43 
G01 X-21.67 Y3.41 
G00 Z1.00 
G00 X-12.75 Y3.41 
G01 Z-0.20 F35.00 
G01 X-12.73 Y3.41 F140.00 
G01 X-12.71 Y3.40 
G01 X-12.69 Y3.40 
G01 X-12.67 Y3.39 
G01 X-12.65 Y3.39 
G01 X-12.64 Y3.38 
G01 X-12.62 Y3.37 
G01 X-12.60 Y3.36 
G01 X-12.59 Y3.35 
G01 X-12.57 Y3.33 
G01 X-12.56 Y3.32 
G01 X-12.54 Y3.30 
G01 X-12.53 Y3.29 
G01 X-12.52 Y3.27 
G01 X-12.51 Y3.26 
G01 X-12.50 Y3.24 
G01 X-12.49 Y3.22 
G01 X-12.49 Y3.22 
G01 X-12.20 Y2.93 
G01 X-12.03 Y2.86 
G01 X-12.15 Y2.92 
G01 X-12.29 Y3.02 
G01 X-12.40 Y3.13 
G01 X-12.50 Y3.26 
G01 X-12.57 Y3.41 
G01 X-12.76 Y3.41 
G01 X-12.75 Y3.41 
G00 Z1.00 
G00 X-12.50 Y4.36 
G01 Z-0.20 F35.00 
G01 X-12.40 Y4.49 F140.00 
G01 X-12.29 Y4.60 
G01 X-12.15 Y4.70 
G01 X-12.03 Y4.76 
G01 X-12.20 Y4.69 
G01 X-12.49 Y4.40 
G01 X-12.49 Y4.40 
G01 X-12.50 Y4.38 
G01 X-12.51 Y4.36 
G01 X-12.52 Y4.35 
G01 X-12.53 Y4.33 
G01 X-12.54 Y4.32 
G01 X-12.56 Y4.30 
G01 X-12.57 Y4.29 
G01 X-12.59 Y4.27 
G01 X-12.60 Y4.26 
G01 X-12.62 Y4.25 
G01 X-12.64 Y4.24 
G01 X-12.65 Y4.23 
G01 X-12.67 Y4.23 
G01 X-12.69 Y4.22 
G01 X-12.71 Y4.22 
G01 X-12.73 Y4.21 
G01 X-12.75 Y4.21 
G01 X-12.76 Y4.21 
G01 X-12.57 Y4.21 
G01 X-12.50 Y4.36 
G00 Z1.00 
G00 X-20.54 Y20.86 
G01 Z-0.20 F35.00 
G01 X-20.58 Y20.87 F140.00 
G01 X-20.57 Y20.87 
G01 X-20.56 Y20.86 
G01 X-20.54 Y20.85 
G01 X-20.52 Y20.84 
G01 X-20.51 Y20.83 
G01 X-20.49 Y20.81 
G01 X-20.48 Y20.80 
G01 X-20.47 Y20.78 
G01 X-20.46 Y20.77 
G01 X-20.44 Y20.75 
G01 X-20.44 Y20.73 
G01 X-20.43 Y20.71 
G01 X-20.42 Y20.69 
G01 X-20.41 Y20.68 
G01 X-20.41 Y20.66 
G01 X-20.40 Y20.64 
G01 X-20.40 Y20.62 
G01 X-20.40 Y20.61 
G01 X-20.40 Y20.79 
G01 X-20.46 Y20.84 
G01 X-20.54 Y20.86 
G00 Z1.00 
G00 X-21.08 Y21.52 
G01 Z-0.20 F35.00 
G01 X-21.08 Y21.66 F140.00 
G01 X-21.05 Y21.81 
G01 X-20.99 Y21.95 
G01 X-20.91 Y22.08 
G01 X-20.81 Y22.18 
G01 X-20.68 Y22.26 
G01 X-20.54 Y22.32 
G01 X-20.39 Y22.35 
G01 X-20.25 Y22.35 
G01 X-20.10 Y22.32 
G01 X-19.96 Y22.26 
G01 X-19.83 Y22.18 
G01 X-19.73 Y22.08 
G01 X-19.65 Y21.95 
G01 X-19.59 Y21.81 
G01 X-19.56 Y21.66 
G01 X-19.56 Y21.52 
G01 X-19.59 Y21.37 
G01 X-19.65 Y21.23 
G01 X-19.67 Y21.19 
G01 X-19.63 Y21.11 
G01 X-19.63 Y21.15 
G01 X-19.64 Y21.18 
G01 X-19.63 Y21.23 
G01 X-19.63 Y21.26 
G01 X-19.61 Y21.31 
G01 X-19.60 Y21.34 
G01 X-19.56 Y21.44 
G01 X-19.56 Y21.74 
G01 X-19.67 Y22.02 
G01 X-19.89 Y22.24 
G01 X-20.17 Y22.35 
G01 X-20.47 Y22.35 
G01 X-20.75 Y22.24 
G01 X-20.97 Y22.02 
G01 X-21.08 Y21.74 
G01 X-21.08 Y21.44 
G01 X-20.97 Y21.16 
G01 X-20.75 Y20.94 
G01 X-20.61 Y20.89 
G01 X-20.60 Y20.88 
G01 X-20.68 Y20.92 
G01 X-20.81 Y21.00 
G01 X-20.91 Y21.10 
G01 X-20.99 Y21.23 
G01 X-21.05 Y21.37 
G01 X-21.08 Y21.52 
G00 Z1.00 
G00 X-12.19 Y39.77 
G01 Z-0.20 F35.00 
G01 X-12.19 Y40.11 F140.00 
G01 X-12.16 Y40.25 
G01 X-12.10 Y40.39 
G01 X-12.02 Y40.52 
G01 X-11.92 Y40.62 
G01 X-11.79 Y40.71 
G01 X-11.65 Y40.76 
G01 X-11.50 Y40.79 
G01 X-11.36 Y40.79 
G01 X-11.21 Y40.76 
G01 X-11.07 Y40.71 
G01 X-10.94 Y40.62 
G01 X-10.84 Y40.52 
G01 X-10.76 Y40.39 
G01 X-10.70 Y40.25 
G01 X-10.67 Y40.11 
G01 X-10.67 Y38.63 
G01 X-10.70 Y38.49 
G01 X-10.76 Y38.35 
G01 X-10.84 Y38.22 
G01 X-10.94 Y38.12 
G01 X-11.07 Y38.03 
G01 X-11.21 Y37.98 
G01 X-11.36 Y37.95 
G01 X-11.50 Y37.95 
G01 X-11.65 Y37.98 
G01 X-11.79 Y38.03 
G01 X-11.92 Y38.12 
G01 X-12.02 Y38.22 
G01 X-12.10 Y38.35 
G01 X-12.16 Y38.49 
G01 X-12.19 Y38.63 
G01 X-12.19 Y38.97 
G01 X-15.61 Y38.97 
G01 X-15.70 Y38.99 
G01 X-15.64 Y38.97 
G01 X-12.46 Y38.97 
G01 X-12.38 Y38.95 
G01 X-12.31 Y38.91 
G01 X-12.25 Y38.85 
G01 X-12.21 Y38.78 
G01 X-12.19 Y38.70 
G01 X-12.19 Y38.56 
G01 X-12.08 Y38.28 
G01 X-11.86 Y38.06 
G01 X-11.58 Y37.95 
G01 X-11.28 Y37.95 
G01 X-11.00 Y38.06 
G01 X-10.78 Y38.28 
G01 X-10.67 Y38.56 
G01 X-10.67 Y40.18 
G01 X-10.78 Y40.46 
G01 X-11.00 Y40.68 
G01 X-11.28 Y40.79 
G01 X-11.58 Y40.79 
G01 X-11.86 Y40.68 
G01 X-12.08 Y40.46 
G01 X-12.19 Y40.18 
G01 X-12.19 Y40.04 
G01 X-12.21 Y39.96 
G01 X-12.25 Y39.89 
G01 X-12.31 Y39.83 
G01 X-12.38 Y39.79 
G01 X-12.46 Y39.77 
G01 X-15.30 Y39.77 
G01 X-15.38 Y39.79 
G01 X-15.45 Y39.83 
G01 X-15.51 Y39.89 
G01 X-20.07 Y44.45 
G01 X-20.08 Y44.46 
G01 X-15.39 Y39.77 
G01 X-12.19 Y39.77 
G00 Z1.00 
G00 X-20.38 Y43.63 
G01 Z-0.20 F35.00 
G01 X-15.91 Y39.16 F140.00 
G01 X-15.91 Y39.16 
G01 X-15.79 Y39.03 
G01 X-15.73 Y39.00 
G01 X-15.80 Y39.05 
G01 X-20.39 Y43.63 
G01 X-20.38 Y43.63 
G00 Z1.00 
G00 X-22.33 Y45.21 
G01 Z-0.20 F35.00 
G01 X-20.85 Y45.21 F140.00 
G01 X-20.71 Y45.18 
G01 X-20.57 Y45.12 
G01 X-20.44 Y45.04 
G01 X-20.34 Y44.94 
G01 X-20.25 Y44.81 
G01 X-20.20 Y44.67 
G01 X-20.17 Y44.55 
G01 X-20.09 Y44.47 
G01 X-20.10 Y44.48 
G01 X-20.11 Y44.50 
G01 X-20.12 Y44.51 
G01 X-20.14 Y44.53 
G01 X-20.14 Y44.55 
G01 X-20.15 Y44.57 
G01 X-20.16 Y44.58 
G01 X-20.28 Y44.88 
G01 X-20.50 Y45.10 
G01 X-20.78 Y45.21 
G01 X-22.40 Y45.21 
G01 X-22.68 Y45.10 
G01 X-22.90 Y44.88 
G01 X-23.01 Y44.60 
G01 X-23.01 Y44.30 
G01 X-22.90 Y44.02 
G01 X-22.68 Y43.80 
G01 X-22.40 Y43.69 
G01 X-20.78 Y43.69 
G01 X-20.75 Y43.70 
G01 X-20.73 Y43.71 
G01 X-20.71 Y43.72 
G01 X-20.69 Y43.72 
G01 X-20.67 Y43.73 
G01 X-20.65 Y43.73 
G01 X-20.63 Y43.73 
G01 X-20.61 Y43.73 
G01 X-20.59 Y43.73 
G01 X-20.57 Y43.73 
G01 X-20.55 Y43.73 
G01 X-20.53 Y43.72 
G01 X-20.51 Y43.72 
G01 X-20.50 Y43.71 
G01 X-20.48 Y43.70 
G01 X-20.46 Y43.69 
G01 X-20.44 Y43.68 
G01 X-20.43 Y43.67 
G01 X-20.41 Y43.66 
G01 X-20.40 Y43.65 
G01 X-20.55 Y43.79 
G01 X-20.57 Y43.78 
G01 X-20.71 Y43.72 
G01 X-20.85 Y43.69 
G01 X-22.33 Y43.69 
G01 X-22.47 Y43.72 
G01 X-22.61 Y43.78 
G01 X-22.74 Y43.86 
G01 X-22.84 Y43.96 
G01 X-22.93 Y44.09 
G01 X-22.98 Y44.23 
G01 X-23.01 Y44.38 
G01 X-23.01 Y44.52 
G01 X-22.98 Y44.67 
G01 X-22.93 Y44.81 
G01 X-22.84 Y44.94 
G01 X-22.74 Y45.04 
G01 X-22.61 Y45.12 
G01 X-22.47 Y45.18 
G01 X-22.33 Y45.21 
G00 Z1.00 
G00 X-16.83 Y16.27 
G01 Z-0.20 F35.00 
G01 X-17.39 Y16.83 F140.00 
G01 X-17.48 Y16.83 
G01 X-17.48 Y16.78 
G01 X-17.41 Y16.78 
G01 X-16.88 Y16.25 
G01 X-16.88 Y16.18 
G01 X-16.83 Y16.18 
G01 X-16.83 Y16.27 
G00 Z1.00 
G00 X-18.68 Y16.25 
G01 Z-0.20 F35.00 
G01 X-18.15 Y16.78 F140.00 
G01 X-18.08 Y16.78 
G01 X-18.08 Y16.83 
G01 X-18.17 Y16.83 
G01 X-18.73 Y16.27 
G01 X-18.73 Y16.18 
G01 X-18.68 Y16.18 
G01 X-18.68 Y16.25 
G00 Z1.00 
G00 X-18.68 Y15.50 
G01 Z-0.20 F35.00 
G01 X-18.68 Y15.57 F140.00 
G01 X-18.73 Y15.57 
G01 X-18.73 Y15.48 
G01 X-18.17 Y14.92 
G01 X-18.08 Y14.92 
G01 X-18.08 Y14.97 
G01 X-18.15 Y14.97 
G01 X-18.68 Y15.50 
G00 Z1.00 
G00 X-17.39 Y14.92 
G01 Z-0.20 F35.00 
G01 X-16.83 Y15.48 F140.00 
G01 X-16.83 Y15.57 
G01 X-16.88 Y15.57 
G01 X-16.88 Y15.50 
G01 X-17.41 Y14.97 
G01 X-17.48 Y14.97 
G01 X-17.48 Y14.92 
G01 X-17.39 Y14.92 
G00 Z1.00 
G00 X-10.62 Y18.75 
G01 Z-0.20 F35.00 
G01 X-11.09 Y19.23 F140.00 
G01 X-11.13 Y19.23 
G01 X-11.13 Y19.18 
G01 X-11.11 Y19.18 
G01 X-10.67 Y18.73 
G01 X-10.67 Y18.72 
G01 X-10.62 Y18.72 
G01 X-10.62 Y18.75 
G00 Z1.00 
G00 X-12.19 Y18.73 
G01 Z-0.20 F35.00 
G01 X-11.75 Y19.18 F140.00 
G01 X-11.73 Y19.18 
G01 X-11.73 Y19.23 
G01 X-11.77 Y19.23 
G01 X-12.24 Y18.75 
G01 X-12.24 Y18.72 
G01 X-12.19 Y18.72 
G01 X-12.19 Y18.73 
G00 Z1.00 
G00 X-12.19 Y18.10 
G01 Z-0.20 F35.00 
G01 X-12.19 Y18.11 F140.00 
G01 X-12.24 Y18.11 
G01 X-12.24 Y18.08 
G01 X-11.77 Y17.60 
G01 X-11.73 Y17.60 
G01 X-11.73 Y17.65 
G01 X-11.75 Y17.65 
G01 X-12.19 Y18.10 
G00 Z1.00 
G00 X-11.09 Y17.60 
G01 Z-0.20 F35.00 
G01 X-10.62 Y18.08 F140.00 
G01 X-10.62 Y18.11 
G01 X-10.67 Y18.11 
G01 X-10.67 Y18.10 
G01 X-11.11 Y17.65 
G01 X-11.13 Y17.65 
G01 X-11.13 Y17.60 
G01 X-11.09 Y17.60 
G00 Z1.00 
G00 X-23.17 Y22.34 
G01 Z-0.20 F35.00 
G01 X-23.29 Y22.29 F140.00 
G01 X-23.39 Y22.21 
G01 X-23.48 Y22.12 
G01 X-23.56 Y22.02 
G01 X-23.61 Y21.90 
G01 X-23.62 Y21.89 
G01 X-23.56 Y21.89 
G01 X-23.53 Y21.95 
G01 X-23.45 Y22.08 
G01 X-23.35 Y22.18 
G01 X-23.22 Y22.26 
G01 X-23.16 Y22.29 
G01 X-23.16 Y22.35 
G01 X-23.17 Y22.34 
G00 Z1.00 
G00 X-22.24 Y21.06 
G01 Z-0.20 F35.00 
G01 X-22.16 Y21.16 F140.00 
G01 X-22.11 Y21.28 
G01 X-22.10 Y21.29 
G01 X-22.16 Y21.29 
G01 X-22.19 Y21.23 
G01 X-22.27 Y21.10 
G01 X-22.37 Y21.00 
G01 X-22.50 Y20.92 
G01 X-22.56 Y20.89 
G01 X-22.56 Y20.83 
G01 X-22.55 Y20.84 
G01 X-22.43 Y20.89 
G01 X-22.33 Y20.97 
G01 X-22.24 Y21.06 
G00 Z1.00 
G00 X-22.11 Y21.90 
G01 Z-0.20 F35.00 
G01 X-22.16 Y22.02 F140.00 
G01 X-22.24 Y22.12 
G01 X-22.33 Y22.21 
G01 X-22.43 Y22.29 
G01 X-22.55 Y22.34 
G01 X-22.56 Y22.35 
G01 X-22.56 Y22.29 
G01 X-22.50 Y22.26 
G01 X-22.37 Y22.18 
G01 X-22.27 Y22.08 
G01 X-22.19 Y21.95 
G01 X-22.16 Y21.89 
G01 X-22.10 Y21.89 
G01 X-22.11 Y21.90 
G00 Z1.00 
G00 X-23.61 Y21.28 
G01 Z-0.20 F35.00 
G01 X-23.56 Y21.16 F140.00 
G01 X-23.48 Y21.06 
G01 X-23.39 Y20.97 
G01 X-23.29 Y20.89 
G01 X-23.17 Y20.84 
G01 X-23.16 Y20.83 
G01 X-23.16 Y20.89 
G01 X-23.22 Y20.92 
G01 X-23.35 Y21.00 
G01 X-23.45 Y21.10 
G01 X-23.53 Y21.23 
G01 X-23.56 Y21.29 
G01 X-23.62 Y21.29 
G01 X-23.61 Y21.28 
G00 Z1.00 
G00 X-3.30 Y37.36 
G01 Z-0.20 F35.00 
G01 X-3.30 Y38.29 F140.00 
G01 X-3.42 Y38.41 
G01 X-3.50 Y38.49 
G01 X-3.55 Y38.58 
G01 X-3.58 Y38.68 
G01 X-3.58 Y39.20 
G01 X-5.89 Y41.51 
G01 X-5.88 Y41.51 
G01 X-5.87 Y41.49 
G01 X-5.86 Y41.47 
G01 X-5.84 Y41.46 
G01 X-5.84 Y41.44 
G01 X-5.83 Y41.42 
G01 X-5.82 Y41.40 
G01 X-5.81 Y41.38 
G01 X-5.81 Y41.36 
G01 X-5.80 Y41.34 
G01 X-5.80 Y41.32 
G01 X-5.80 Y41.30 
G01 X-5.80 Y41.28 
G01 X-5.80 Y41.26 
G01 X-5.81 Y41.25 
G01 X-5.81 Y41.23 
G01 X-5.82 Y41.21 
G01 X-5.83 Y41.19 
G01 X-5.84 Y41.17 
G01 X-5.84 Y41.15 
G01 X-5.86 Y41.14 
G01 X-5.87 Y41.12 
G01 X-5.88 Y41.10 
G01 X-5.89 Y41.09 
G01 X-5.91 Y41.08 
G01 X-5.92 Y41.06 
G01 X-5.94 Y41.05 
G01 X-5.96 Y41.04 
G01 X-5.97 Y41.03 
G01 X-5.99 Y41.02 
G01 X-6.01 Y41.02 
G01 X-6.03 Y41.01 
G01 X-6.05 Y41.01 
G01 X-6.07 Y41.00 
G01 X-6.09 Y41.00 
G01 X-6.11 Y41.00 
G01 X-6.13 Y41.00 
G01 X-6.15 Y41.00 
G01 X-6.17 Y41.01 
G01 X-6.19 Y41.01 
G01 X-6.10 Y40.96 
G01 X-6.03 Y40.89 
G01 X-5.98 Y40.79 
G01 X-5.95 Y40.69 
G01 X-5.95 Y31.16 
G01 X-5.59 Y30.80 
G01 X-5.59 Y30.16 
G01 X-5.69 Y30.06 
G01 X-5.66 Y30.00 
G01 X-5.63 Y29.90 
G01 X-5.63 Y29.06 
G01 X-3.37 Y26.80 
G01 X-2.86 Y26.80 
G01 X-2.41 Y26.35 
G01 X-2.41 Y25.72 
G01 X-2.86 Y25.27 
G01 X-3.49 Y25.27 
G01 X-3.94 Y25.72 
G01 X-3.94 Y26.23 
G01 X-6.28 Y28.57 
G01 X-6.35 Y28.65 
G01 X-6.41 Y28.74 
G01 X-6.43 Y28.84 
G01 X-6.43 Y29.68 
G01 X-6.47 Y29.72 
G01 X-6.67 Y29.72 
G01 X-7.11 Y30.16 
G01 X-7.11 Y30.80 
G01 X-6.75 Y31.16 
G01 X-6.75 Y39.67 
G01 X-6.75 Y39.66 
G01 X-6.75 Y39.64 
G01 X-6.76 Y39.62 
G01 X-6.76 Y39.60 
G01 X-6.77 Y39.58 
G01 X-6.77 Y39.56 
G01 X-6.78 Y39.55 
G01 X-6.79 Y39.53 
G01 X-6.80 Y39.51 
G01 X-6.81 Y39.49 
G01 X-6.83 Y39.48 
G01 X-6.84 Y39.46 
G01 X-6.86 Y39.45 
G01 X-6.87 Y39.44 
G01 X-6.89 Y39.43 
G01 X-6.90 Y39.42 
G01 X-6.92 Y39.41 
G01 X-6.94 Y39.40 
G01 X-6.96 Y39.39 
G01 X-6.98 Y39.39 
G01 X-7.00 Y39.38 
G01 X-7.02 Y39.38 
G01 X-7.04 Y39.38 
G01 X-7.06 Y39.37 
G01 X-7.08 Y39.38 
G01 X-7.10 Y39.38 
G01 X-7.12 Y39.38 
G01 X-7.14 Y39.39 
G01 X-7.15 Y39.39 
G01 X-7.17 Y39.40 
G01 X-7.19 Y39.41 
G01 X-7.47 Y39.52 
G01 X-7.77 Y39.52 
G01 X-8.05 Y39.41 
G01 X-8.27 Y39.19 
G01 X-8.38 Y38.91 
G01 X-8.38 Y37.29 
G01 X-8.27 Y37.01 
G01 X-8.05 Y36.79 
G01 X-7.91 Y36.73 
G01 X-7.90 Y36.73 
G01 X-7.98 Y36.76 
G01 X-8.11 Y36.85 
G01 X-8.21 Y36.95 
G01 X-8.29 Y37.08 
G01 X-8.35 Y37.22 
G01 X-8.38 Y37.36 
G01 X-8.38 Y38.84 
G01 X-8.35 Y38.98 
G01 X-8.29 Y39.12 
G01 X-8.21 Y39.25 
G01 X-8.11 Y39.35 
G01 X-7.98 Y39.44 
G01 X-7.84 Y39.49 
G01 X-7.69 Y39.52 
G01 X-7.55 Y39.52 
G01 X-7.40 Y39.49 
G01 X-7.26 Y39.44 
G01 X-7.13 Y39.35 
G01 X-7.03 Y39.25 
G01 X-6.95 Y39.12 
G01 X-6.89 Y38.98 
G01 X-6.86 Y38.84 
G01 X-6.86 Y37.36 
G01 X-6.89 Y37.22 
G01 X-6.95 Y37.08 
G01 X-6.97 Y37.05 
G01 X-6.93 Y36.98 
G01 X-6.90 Y36.88 
G01 X-6.90 Y32.01 
G01 X-6.93 Y31.91 
G01 X-6.98 Y31.82 
G01 X-7.06 Y31.75 
G01 X-8.13 Y30.67 
G01 X-8.13 Y30.29 
G01 X-5.39 Y27.55 
G01 X-5.34 Y27.46 
G01 X-5.31 Y27.36 
G01 X-5.31 Y26.84 
G01 X-1.27 Y22.79 
G01 X-1.21 Y22.70 
G01 X-1.19 Y22.60 
G01 X-1.19 Y8.52 
G01 X-1.21 Y8.42 
G01 X-1.27 Y8.33 
G01 X-1.34 Y8.25 
G01 X-2.75 Y6.85 
G01 X-2.74 Y6.85 
G01 X-1.41 Y8.19 
G01 X-1.34 Y8.23 
G01 X-1.26 Y8.25 
G01 X-1.18 Y8.25 
G01 X-1.10 Y8.23 
G01 X-1.03 Y8.19 
G01 X-0.98 Y8.13 
G01 X-0.94 Y8.06 
G01 X-0.91 Y7.98 
G01 X-0.91 Y1.18 
G01 X-0.94 Y1.10 
G01 X-0.98 Y1.03 
G01 X-1.03 Y0.98 
G01 X-1.10 Y0.94 
G01 X-1.18 Y0.91 
G01 X-7.66 Y0.91 
G01 X-7.74 Y0.93 
G01 X-7.74 Y0.94 
G01 X-7.81 Y0.98 
G01 X-7.87 Y1.03 
G01 X-7.91 Y1.10 
G01 X-7.93 Y1.18 
G01 X-7.93 Y1.26 
G01 X-7.91 Y1.33 
G01 X-7.91 Y1.34 
G01 X-7.87 Y1.41 
G01 X-7.81 Y1.46 
G01 X-6.01 Y3.26 
G01 X-5.98 Y3.32 
G01 X-6.03 Y3.25 
G01 X-7.93 Y1.34 
G01 X-8.01 Y1.27 
G01 X-8.10 Y1.21 
G01 X-8.20 Y1.19 
G01 X-24.82 Y1.19 
G01 X-24.92 Y1.21 
G01 X-25.01 Y1.27 
G01 X-25.09 Y1.34 
G01 X-25.13 Y1.42 
G01 X-25.10 Y1.35 
G01 X-25.09 Y1.34 
G01 X-25.09 Y1.32 
G01 X-25.08 Y1.30 
G01 X-25.08 Y1.28 
G01 X-25.07 Y1.26 
G01 X-25.07 Y1.24 
G01 X-25.07 Y1.22 
G01 X-25.07 Y1.20 
G01 X-25.07 Y1.18 
G01 X-25.08 Y1.16 
G01 X-25.08 Y1.14 
G01 X-25.09 Y1.12 
G01 X-25.09 Y1.10 
G01 X-25.10 Y1.08 
G01 X-25.11 Y1.07 
G01 X-25.12 Y1.05 
G01 X-25.13 Y1.03 
G01 X-25.15 Y1.02 
G01 X-25.16 Y1.00 
G01 X-25.18 Y0.99 
G01 X-25.19 Y0.98 
G01 X-25.21 Y0.97 
G01 X-25.22 Y0.95 
G01 X-25.24 Y0.95 
G01 X-25.26 Y0.94 
G01 X-25.28 Y0.93 
G01 X-25.30 Y0.92 
G01 X-25.32 Y0.92 
G01 X-25.34 Y0.91 
G01 X-25.36 Y0.91 
G01 X-25.38 Y0.91 
G01 X-25.40 Y0.91 
G01 X-27.70 Y0.91 
G01 X-27.78 Y0.94 
G01 X-27.85 Y0.98 
G01 X-27.90 Y1.03 
G01 X-27.94 Y1.10 
G01 X-27.96 Y1.18 
G01 X-27.96 Y47.07 
G01 X-27.94 Y47.15 
G01 X-27.90 Y47.22 
G01 X-27.85 Y47.27 
G01 X-27.78 Y47.31 
G01 X-27.70 Y47.33 
G01 X-24.77 Y47.33 
G01 X-24.75 Y47.34 
G01 X-24.73 Y47.33 
G01 X-24.71 Y47.33 
G01 X-24.69 Y47.33 
G01 X-24.67 Y47.33 
G01 X-24.65 Y47.32 
G01 X-24.63 Y47.31 
G01 X-24.61 Y47.30 
G01 X-24.59 Y47.30 
G01 X-24.58 Y47.28 
G01 X-24.56 Y47.27 
G01 X-24.55 Y47.26 
G01 X-24.53 Y47.25 
G01 X-24.52 Y47.23 
G01 X-24.50 Y47.22 
G01 X-24.49 Y47.20 
G01 X-24.48 Y47.18 
G01 X-24.47 Y47.17 
G01 X-24.46 Y47.15 
G01 X-24.46 Y47.13 
G01 X-24.45 Y47.11 
G01 X-24.45 Y47.09 
G01 X-24.44 Y47.07 
G01 X-24.44 Y47.05 
G01 X-24.44 Y47.03 
G01 X-24.44 Y47.01 
G01 X-24.44 Y46.99 
G01 X-24.45 Y46.97 
G01 X-24.45 Y46.95 
G01 X-24.46 Y46.93 
G01 X-24.46 Y46.91 
G01 X-24.47 Y46.90 
G01 X-24.50 Y46.84 
G01 X-24.45 Y46.92 
G01 X-24.38 Y46.99 
G01 X-24.28 Y47.05 
G01 X-24.18 Y47.07 
G01 X-5.98 Y47.07 
G01 X-5.88 Y47.05 
G01 X-5.79 Y46.99 
G01 X-5.71 Y46.92 
G01 X-4.10 Y45.31 
G01 X-4.07 Y45.32 
G01 X-3.90 Y45.35 
G01 X-3.72 Y45.35 
G01 X-3.55 Y45.32 
G01 X-3.38 Y45.25 
G01 X-3.24 Y45.15 
G01 X-3.11 Y45.02 
G01 X-3.01 Y44.88 
G01 X-2.94 Y44.71 
G01 X-2.91 Y44.54 
G01 X-2.91 Y44.36 
G01 X-2.94 Y44.19 
G01 X-3.01 Y44.02 
G01 X-3.11 Y43.88 
G01 X-3.24 Y43.75 
G01 X-3.38 Y43.65 
G01 X-3.55 Y43.58 
G01 X-3.72 Y43.55 
G01 X-3.90 Y43.55 
G01 X-4.07 Y43.58 
G01 X-4.24 Y43.65 
G01 X-4.38 Y43.75 
G01 X-4.51 Y43.88 
G01 X-4.61 Y44.02 
G01 X-4.68 Y44.19 
G01 X-4.71 Y44.36 
G01 X-4.71 Y44.54 
G01 X-4.68 Y44.71 
G01 X-4.67 Y44.74 
G01 X-6.20 Y46.27 
G01 X-23.73 Y46.27 
G01 X-23.73 Y43.98 
G01 X-18.70 Y38.95 
G01 X-18.63 Y38.96 
G01 X-16.93 Y38.96 
G01 X-16.77 Y38.93 
G01 X-16.61 Y38.86 
G01 X-16.47 Y38.77 
G01 X-16.35 Y38.65 
G01 X-16.25 Y38.51 
G01 X-16.19 Y38.35 
G01 X-16.16 Y38.18 
G01 X-16.16 Y38.02 
G01 X-16.19 Y37.85 
G01 X-16.25 Y37.69 
G01 X-16.35 Y37.55 
G01 X-16.47 Y37.43 
G01 X-16.51 Y37.40 
G01 X-15.63 Y36.52 
G01 X-15.55 Y36.44 
G01 X-15.51 Y36.36 
G01 X-15.53 Y36.42 
G01 X-15.67 Y36.56 
G01 X-16.26 Y37.15 
G01 X-16.31 Y37.20 
G01 X-16.32 Y37.21 
G01 X-16.36 Y37.27 
G01 X-16.38 Y37.35 
G01 X-16.38 Y37.43 
G01 X-16.36 Y37.51 
G01 X-16.32 Y37.58 
G01 X-16.29 Y37.61 
G01 X-16.15 Y37.93 
G01 X-16.15 Y38.27 
G01 X-16.29 Y38.59 
G01 X-16.53 Y38.83 
G01 X-16.85 Y38.96 
G01 X-18.62 Y38.96 
G01 X-18.70 Y38.98 
G01 X-18.77 Y39.02 
G01 X-18.83 Y39.08 
G01 X-23.67 Y43.92 
G01 X-23.71 Y43.99 
G01 X-23.73 Y44.07 
G01 X-23.73 Y46.01 
G01 X-23.71 Y46.08 
G01 X-23.67 Y46.15 
G01 X-23.61 Y46.21 
G01 X-23.54 Y46.25 
G01 X-23.46 Y46.27 
G01 X-6.29 Y46.27 
G01 X-6.21 Y46.25 
G01 X-6.14 Y46.21 
G01 X-6.08 Y46.15 
G01 X-5.83 Y45.90 
G01 X-5.77 Y45.84 
G01 X-5.73 Y45.77 
G01 X-5.71 Y45.70 
G01 X-5.71 Y45.62 
G01 X-5.73 Y45.54 
G01 X-5.77 Y45.47 
G01 X-5.83 Y45.41 
G01 X-5.90 Y45.37 
G01 X-5.98 Y45.35 
G01 X-6.72 Y45.35 
G01 X-7.25 Y44.82 
G01 X-7.25 Y44.08 
G01 X-6.72 Y43.55 
G01 X-6.70 Y43.55 
G01 X-6.62 Y43.53 
G01 X-6.55 Y43.49 
G01 X-6.50 Y43.43 
G01 X-6.46 Y43.36 
G01 X-6.43 Y43.28 
G01 X-6.43 Y42.89 
G01 X-6.46 Y42.82 
G01 X-6.50 Y42.75 
G01 X-6.55 Y42.69 
G01 X-6.62 Y42.65 
G01 X-6.70 Y42.63 
G01 X-8.95 Y42.63 
G01 X-9.03 Y42.65 
G01 X-9.10 Y42.69 
G01 X-9.12 Y42.71 
G01 X-10.05 Y43.64 
G01 X-10.06 Y43.65 
G01 X-9.04 Y42.63 
G01 X-6.43 Y42.63 
G01 X-6.43 Y43.55 
G01 X-6.72 Y43.55 
G01 X-7.25 Y44.08 
G01 X-7.25 Y44.82 
G01 X-6.72 Y45.35 
G01 X-5.98 Y45.35 
G01 X-5.45 Y44.82 
G01 X-5.45 Y44.08 
G01 X-5.63 Y43.89 
G01 X-5.63 Y42.39 
G01 X-2.85 Y39.62 
G01 X-2.80 Y39.52 
G01 X-2.79 Y39.48 
G01 X-2.76 Y39.49 
G01 X-2.61 Y39.52 
G01 X-2.47 Y39.52 
G01 X-2.32 Y39.49 
G01 X-2.18 Y39.44 
G01 X-2.05 Y39.35 
G01 X-1.95 Y39.25 
G01 X-1.87 Y39.12 
G01 X-1.81 Y38.98 
G01 X-1.78 Y38.84 
G01 X-1.78 Y37.36 
G01 X-1.81 Y37.22 
G01 X-1.87 Y37.08 
G01 X-1.95 Y36.95 
G01 X-2.05 Y36.85 
G01 X-2.18 Y36.76 
G01 X-2.32 Y36.71 
G01 X-2.47 Y36.68 
G01 X-2.61 Y36.68 
G01 X-2.76 Y36.71 
G01 X-2.90 Y36.76 
G01 X-3.03 Y36.85 
G01 X-3.13 Y36.95 
G01 X-3.21 Y37.08 
G01 X-3.27 Y37.22 
G01 X-3.30 Y37.36 
G00 Z1.00 
G00 X-3.94 Y28.26 
G01 Z-0.20 F35.00 
G01 X-3.94 Y28.77 F140.00 
G01 X-4.69 Y29.52 
G01 X-4.77 Y29.60 
G01 X-4.82 Y29.69 
G01 X-4.85 Y29.79 
G01 X-4.85 Y36.71 
G01 X-4.86 Y36.71 
G01 X-5.01 Y36.68 
G01 X-5.15 Y36.68 
G01 X-5.30 Y36.71 
G01 X-5.44 Y36.76 
G01 X-5.57 Y36.85 
G01 X-5.67 Y36.95 
G01 X-5.75 Y37.08 
G01 X-5.81 Y37.22 
G01 X-5.84 Y37.36 
G01 X-5.84 Y38.84 
G01 X-5.81 Y38.98 
G01 X-5.75 Y39.12 
G01 X-5.67 Y39.25 
G01 X-5.57 Y39.35 
G01 X-5.44 Y39.44 
G01 X-5.30 Y39.49 
G01 X-5.15 Y39.52 
G01 X-5.01 Y39.52 
G01 X-4.86 Y39.49 
G01 X-4.72 Y39.44 
G01 X-4.59 Y39.35 
G01 X-4.49 Y39.25 
G01 X-4.41 Y39.12 
G01 X-4.35 Y38.98 
G01 X-4.32 Y38.84 
G01 X-4.32 Y37.59 
G01 X-4.12 Y37.39 
G01 X-4.07 Y37.30 
G01 X-4.04 Y37.20 
G01 X-4.04 Y30.01 
G01 X-3.37 Y29.34 
G01 X-2.86 Y29.34 
G01 X-2.41 Y28.89 
G01 X-2.41 Y28.26 
G01 X-2.86 Y27.81 
G01 X-3.49 Y27.81 
G01 X-3.94 Y28.26 
G00 Z1.00 
G00 Z2.00 
M05
M02
