(.../pcb-gcode-3.6.0.4/pcb-gcode.ulp)
(Copyright 2005 - 2012 by John Johnson)
(See readme.txt for licensing terms.)
(This file generated from the board:)
(.../Copperclad_CooperBuffer_Amp2.brd)
(Current profile is .../pcb-gcode-3.6.0.4/profiles/imodela.pp  )
(This file generated 8/3/16 4:05 PM)
(Settings from pcb-machine.h)
(  Tool Size)
(0.20 )
(Z Axis Settings)
(  High     Up        Down     Drill)
(2.00 	1.00 	-0.20 	-1.80 )
(spindle on time = 1.0000)
(milling depth = -0.2000)
(text depth = -0.1270)
(tool change at 0.00 0.00 10.00 )
(feed rate xy = F80.00 )
(feed rate z  = F60.00 )
(Settings from pcb-defaults.h)
(isolate min = 0.0010)
(isolate max = 0.2000)
(isolate step = 0.2000)
(Generated bottom outlines, bottom drill, )
(Unit of measure: mm)
(Metric Mode)
G21
(Absolute Coordinates)
G90
G00 X0.00 Y0.00 
M03
G04 P 1
G00 Z1.00 
G00 X-4.85 Y15.34 
G01 Z-0.20 F60.00 
G01 X-4.85 Y15.50 F80.00 
G01 X-4.83 Y15.66 
G01 X-4.78 Y15.79 
G01 X-4.85 Y15.63 
G01 X-4.85 Y15.21 
G01 X-4.78 Y15.04 
G01 X-4.83 Y15.17 
G01 X-4.85 Y15.34 
G00 Z1.00 
G00 X-4.70 Y15.96 
G01 Z-0.20 F60.00 
G01 X-4.60 Y16.10 F80.00 
G01 X-4.49 Y16.21 
G01 X-4.36 Y16.31 
G01 X-4.23 Y16.37 
G01 X-4.40 Y16.30 
G01 X-4.69 Y16.01 
G01 X-4.76 Y15.84 
G01 X-4.70 Y15.96 
G00 Z1.00 
G00 X-4.40 Y14.53 
G01 Z-0.20 F60.00 
G01 X-4.23 Y14.46 F80.00 
G01 X-4.36 Y14.53 
G01 X-4.49 Y14.62 
G01 X-4.60 Y14.74 
G01 X-4.70 Y14.87 
G01 X-4.76 Y15.00 
G01 X-4.69 Y14.83 
G01 X-4.40 Y14.53 
G00 Z1.00 
G00 X-3.60 Y14.38 
G01 Z-0.20 F60.00 
G01 X-3.43 Y14.45 F80.00 
G01 X-3.57 Y14.40 
G01 X-3.73 Y14.38 
G01 X-3.89 Y14.38 
G01 X-4.05 Y14.40 
G01 X-4.19 Y14.45 
G01 X-4.02 Y14.38 
G01 X-3.60 Y14.38 
G00 Z1.00 
G00 X-2.93 Y14.83 
G01 Z-0.20 F60.00 
G01 X-2.86 Y15.00 F80.00 
G01 X-2.92 Y14.87 
G01 X-3.02 Y14.74 
G01 X-3.13 Y14.62 
G01 X-3.26 Y14.53 
G01 X-3.39 Y14.46 
G01 X-3.22 Y14.53 
G01 X-2.93 Y14.83 
G00 Z1.00 
G00 X-20.10 Y30.16 
G01 Z-0.20 F60.00 
G01 X-20.10 Y30.17 F80.00 
G01 X-20.10 Y31.08 
G01 X-20.08 Y31.16 
G01 X-20.04 Y31.23 
G01 X-19.98 Y31.29 
G01 X-19.91 Y31.33 
G01 X-19.83 Y31.35 
G01 X-18.17 Y31.35 
G01 X-18.11 Y31.37 
G01 X-18.20 Y31.35 
G01 X-20.10 Y31.35 
G01 X-20.10 Y30.16 
G00 Z1.00 
G00 X-11.15 Y40.58 
G01 Z-0.20 F60.00 
G01 X-11.15 Y39.50 F80.00 
G01 X-11.17 Y39.43 
G01 X-11.21 Y39.36 
G01 X-11.27 Y39.30 
G01 X-18.36 Y32.21 
G01 X-18.43 Y32.17 
G01 X-18.50 Y32.15 
G01 X-19.83 Y32.15 
G01 X-19.91 Y32.17 
G01 X-19.98 Y32.21 
G01 X-20.04 Y32.27 
G01 X-20.08 Y32.34 
G01 X-20.10 Y32.42 
G01 X-20.10 Y32.77 
G01 X-20.10 Y32.78 
G01 X-20.10 Y32.15 
G01 X-18.42 Y32.15 
G01 X-11.15 Y39.42 
G01 X-11.15 Y40.55 
G01 X-11.13 Y40.64 
G01 X-11.15 Y40.58 
G00 Z1.00 
G00 X-18.02 Y31.41 
G01 Z-0.20 F60.00 
G01 X-10.41 Y39.02 F80.00 
G01 X-10.38 Y39.08 
G01 X-10.43 Y39.00 
G01 X-10.50 Y38.93 
G01 X-17.93 Y31.50 
G01 X-18.00 Y31.43 
G01 X-18.08 Y31.38 
G01 X-18.02 Y31.41 
G00 Z1.00 
G00 X-10.98 Y40.84 
G01 Z-0.20 F60.00 
G01 X-11.09 Y40.73 F80.00 
G01 X-11.12 Y40.67 
G01 X-11.07 Y40.75 
G01 X-11.00 Y40.82 
G01 X-10.92 Y40.87 
G01 X-10.98 Y40.84 
G00 Z1.00 
G00 X-22.47 Y13.65 
G01 Z-0.20 F60.00 
G01 X-21.91 Y14.21 F80.00 
G01 X-21.91 Y14.30 
G01 X-21.96 Y14.30 
G01 X-21.96 Y14.23 
G01 X-22.49 Y13.70 
G01 X-22.56 Y13.70 
G01 X-22.56 Y13.65 
G01 X-22.47 Y13.65 
G00 Z1.00 
G00 X-23.76 Y14.23 
G01 Z-0.20 F60.00 
G01 X-23.76 Y14.30 F80.00 
G01 X-23.81 Y14.30 
G01 X-23.81 Y14.21 
G01 X-23.25 Y13.65 
G01 X-23.16 Y13.65 
G01 X-23.16 Y13.70 
G01 X-23.23 Y13.70 
G01 X-23.76 Y14.23 
G00 Z1.00 
G00 X-23.76 Y14.98 
G01 Z-0.20 F60.00 
G01 X-23.23 Y15.51 F80.00 
G01 X-23.16 Y15.51 
G01 X-23.16 Y15.56 
G01 X-23.25 Y15.56 
G01 X-23.81 Y15.00 
G01 X-23.81 Y14.91 
G01 X-23.76 Y14.91 
G01 X-23.76 Y14.98 
G00 Z1.00 
G00 X-21.91 Y15.00 
G01 Z-0.20 F60.00 
G01 X-22.47 Y15.56 F80.00 
G01 X-22.56 Y15.56 
G01 X-22.56 Y15.51 
G01 X-22.49 Y15.51 
G01 X-21.96 Y14.98 
G01 X-21.96 Y14.91 
G01 X-21.91 Y14.91 
G01 X-21.91 Y15.00 
G00 Z1.00 
G00 X-7.25 Y44.82 
G01 Z-0.20 F60.00 
G01 X-6.72 Y45.35 F80.00 
G01 X-6.40 Y45.35 
G01 X-6.40 Y46.55 
G01 X-6.38 Y46.64 
G01 X-6.40 Y46.58 
G01 X-6.40 Y45.62 
G01 X-6.42 Y45.54 
G01 X-6.46 Y45.47 
G01 X-6.52 Y45.41 
G01 X-6.59 Y45.37 
G01 X-6.67 Y45.35 
G01 X-6.72 Y45.35 
G01 X-7.31 Y44.77 
G01 X-7.35 Y44.72 
G01 X-7.36 Y44.71 
G01 X-7.43 Y44.67 
G01 X-7.51 Y44.65 
G01 X-9.80 Y44.65 
G01 X-9.81 Y44.65 
G01 X-7.25 Y44.65 
G01 X-7.25 Y44.82 
G00 Z1.00 
G00 X-10.15 Y43.85 
G01 Z-0.20 F60.00 
G01 X-7.11 Y43.85 F80.00 
G01 X-7.04 Y43.83 
G01 X-7.03 Y43.83 
G01 X-6.96 Y43.79 
G01 X-6.91 Y43.73 
G01 X-6.72 Y43.55 
G01 X-5.97 Y43.55 
G01 X-5.89 Y43.53 
G01 X-5.89 Y43.53 
G01 X-5.82 Y43.49 
G01 X-5.76 Y43.43 
G01 X-5.72 Y43.36 
G01 X-5.70 Y43.28 
G01 X-5.70 Y43.20 
G01 X-5.72 Y43.13 
G01 X-5.72 Y43.13 
G01 X-5.76 Y43.06 
G01 X-5.82 Y43.00 
G01 X-7.86 Y40.96 
G01 X-7.93 Y40.92 
G01 X-8.00 Y40.90 
G01 X-10.83 Y40.90 
G01 X-10.89 Y40.88 
G01 X-10.80 Y40.90 
G01 X-7.92 Y40.90 
G01 X-4.66 Y44.15 
G01 X-4.68 Y44.19 
G01 X-4.71 Y44.36 
G01 X-4.71 Y44.54 
G01 X-4.68 Y44.71 
G01 X-4.61 Y44.88 
G01 X-4.51 Y45.02 
G01 X-4.38 Y45.15 
G01 X-4.24 Y45.25 
G01 X-4.07 Y45.32 
G01 X-3.90 Y45.35 
G01 X-3.72 Y45.35 
G01 X-3.55 Y45.32 
G01 X-3.38 Y45.25 
G01 X-3.24 Y45.15 
G01 X-3.11 Y45.02 
G01 X-3.01 Y44.88 
G01 X-2.94 Y44.71 
G01 X-2.91 Y44.54 
G01 X-2.91 Y44.36 
G01 X-2.94 Y44.19 
G01 X-3.01 Y44.02 
G01 X-3.11 Y43.88 
G01 X-3.24 Y43.75 
G01 X-3.38 Y43.65 
G01 X-3.55 Y43.58 
G01 X-3.72 Y43.55 
G01 X-3.90 Y43.55 
G01 X-4.07 Y43.58 
G01 X-4.09 Y43.59 
G01 X-7.43 Y40.25 
G01 X-7.50 Y40.18 
G01 X-7.60 Y40.13 
G01 X-7.70 Y40.10 
G01 X-10.35 Y40.10 
G01 X-10.35 Y39.20 
G01 X-10.37 Y39.11 
G01 X-10.35 Y39.17 
G01 X-10.35 Y39.83 
G01 X-10.33 Y39.91 
G01 X-10.29 Y39.98 
G01 X-10.23 Y40.04 
G01 X-10.16 Y40.08 
G01 X-10.08 Y40.10 
G01 X-8.92 Y40.10 
G01 X-8.84 Y40.08 
G01 X-8.77 Y40.04 
G01 X-8.71 Y39.98 
G01 X-8.67 Y39.91 
G01 X-8.65 Y39.83 
G01 X-8.65 Y39.75 
G01 X-8.67 Y39.68 
G01 X-8.71 Y39.61 
G01 X-8.77 Y39.55 
G01 X-15.84 Y32.48 
G01 X-15.87 Y32.42 
G01 X-15.82 Y32.50 
G01 X-8.57 Y39.75 
G01 X-8.50 Y39.82 
G01 X-8.40 Y39.87 
G01 X-8.30 Y39.90 
G01 X-3.70 Y39.90 
G01 X-3.60 Y39.87 
G01 X-3.50 Y39.82 
G01 X-3.43 Y39.75 
G01 X-3.38 Y39.65 
G01 X-3.35 Y39.55 
G01 X-3.35 Y35.67 
G01 X-1.75 Y34.07 
G01 X-1.68 Y34.00 
G01 X-1.63 Y33.92 
G01 X-1.66 Y33.98 
G01 X-1.80 Y34.12 
G01 X-2.54 Y34.86 
G01 X-2.58 Y34.90 
G01 X-2.60 Y34.92 
G01 X-2.64 Y34.99 
G01 X-2.66 Y35.06 
G01 X-2.66 Y35.14 
G01 X-2.64 Y35.22 
G01 X-2.60 Y35.29 
G01 X-2.54 Y35.35 
G01 X-2.47 Y35.39 
G01 X-2.39 Y35.41 
G01 X-2.39 Y35.41 
G01 X-2.11 Y35.52 
G01 X-1.89 Y35.74 
G01 X-1.78 Y36.02 
G01 X-1.78 Y37.64 
G01 X-1.89 Y37.92 
G01 X-1.98 Y38.01 
G01 X-2.04 Y38.06 
G01 X-2.05 Y38.09 
G01 X-2.08 Y38.14 
G01 X-2.10 Y38.21 
G01 X-2.10 Y42.75 
G01 X-2.08 Y42.82 
G01 X-2.04 Y42.89 
G01 X-1.98 Y42.95 
G01 X-1.79 Y43.14 
G01 X-1.66 Y43.27 
G01 X-1.63 Y43.33 
G01 X-1.68 Y43.25 
G01 X-1.75 Y43.18 
G01 X-2.10 Y42.83 
G01 X-2.10 Y38.11 
G01 X-2.05 Y38.08 
G01 X-1.95 Y37.98 
G01 X-1.87 Y37.85 
G01 X-1.81 Y37.71 
G01 X-1.78 Y37.57 
G01 X-1.78 Y36.09 
G01 X-1.81 Y35.95 
G01 X-1.87 Y35.81 
G01 X-1.95 Y35.68 
G01 X-2.05 Y35.58 
G01 X-2.18 Y35.49 
G01 X-2.32 Y35.44 
G01 X-2.47 Y35.41 
G01 X-2.61 Y35.41 
G01 X-2.76 Y35.44 
G01 X-2.90 Y35.49 
G01 X-3.03 Y35.58 
G01 X-3.13 Y35.68 
G01 X-3.21 Y35.81 
G01 X-3.27 Y35.95 
G01 X-3.30 Y36.09 
G01 X-3.30 Y37.57 
G01 X-3.27 Y37.71 
G01 X-3.21 Y37.85 
G01 X-3.13 Y37.98 
G01 X-3.03 Y38.08 
G01 X-2.90 Y38.16 
G01 X-2.90 Y43.05 
G01 X-2.87 Y43.15 
G01 X-2.82 Y43.25 
G01 X-2.40 Y43.67 
G01 X-2.40 Y45.33 
G01 X-3.17 Y46.10 
G01 X-5.60 Y46.10 
G01 X-5.60 Y44.97 
G01 X-5.45 Y44.82 
G01 X-5.45 Y44.08 
G01 X-5.98 Y43.55 
G01 X-6.72 Y43.55 
G01 X-7.02 Y43.85 
G01 X-10.16 Y43.85 
G01 X-10.15 Y43.85 
G00 Z1.00 
G00 X-12.17 Y45.21 
G01 Z-0.20 F60.00 
G01 X-10.69 Y45.21 F80.00 
G01 X-10.55 Y45.18 
G01 X-10.41 Y45.12 
G01 X-10.28 Y45.04 
G01 X-10.18 Y44.94 
G01 X-10.09 Y44.81 
G01 X-10.04 Y44.67 
G01 X-10.03 Y44.65 
G01 X-9.84 Y44.65 
G01 X-9.84 Y44.65 
G01 X-9.86 Y44.65 
G01 X-9.88 Y44.66 
G01 X-9.90 Y44.66 
G01 X-9.92 Y44.67 
G01 X-9.94 Y44.67 
G01 X-9.96 Y44.68 
G01 X-9.98 Y44.69 
G01 X-9.99 Y44.70 
G01 X-10.01 Y44.71 
G01 X-10.03 Y44.73 
G01 X-10.04 Y44.74 
G01 X-10.05 Y44.76 
G01 X-10.07 Y44.77 
G01 X-10.08 Y44.79 
G01 X-10.09 Y44.80 
G01 X-10.10 Y44.82 
G01 X-10.11 Y44.84 
G01 X-10.11 Y44.86 
G01 X-10.12 Y44.88 
G01 X-10.34 Y45.10 
G01 X-10.62 Y45.21 
G01 X-12.24 Y45.21 
G01 X-12.52 Y45.10 
G01 X-12.74 Y44.88 
G01 X-12.85 Y44.60 
G01 X-12.85 Y44.30 
G01 X-12.74 Y44.02 
G01 X-12.52 Y43.80 
G01 X-12.24 Y43.69 
G01 X-10.62 Y43.69 
G01 X-10.30 Y43.82 
G01 X-10.29 Y43.83 
G01 X-10.27 Y43.83 
G01 X-10.25 Y43.84 
G01 X-10.23 Y43.84 
G01 X-10.21 Y43.85 
G01 X-10.19 Y43.85 
G01 X-10.18 Y43.85 
G01 X-10.30 Y43.85 
G01 X-10.41 Y43.78 
G01 X-10.55 Y43.72 
G01 X-10.69 Y43.69 
G01 X-12.17 Y43.69 
G01 X-12.31 Y43.72 
G01 X-12.45 Y43.78 
G01 X-12.58 Y43.86 
G01 X-12.68 Y43.96 
G01 X-12.77 Y44.09 
G01 X-12.82 Y44.23 
G01 X-12.85 Y44.38 
G01 X-12.85 Y44.52 
G01 X-12.82 Y44.67 
G01 X-12.77 Y44.81 
G01 X-12.68 Y44.94 
G01 X-12.58 Y45.04 
G01 X-12.45 Y45.12 
G01 X-12.31 Y45.18 
G01 X-12.17 Y45.21 
G00 Z1.00 
G00 X-22.33 Y45.21 
G01 Z-0.20 F60.00 
G01 X-20.85 Y45.21 F80.00 
G01 X-20.71 Y45.18 
G01 X-20.57 Y45.12 
G01 X-20.44 Y45.04 
G01 X-20.34 Y44.94 
G01 X-20.25 Y44.81 
G01 X-20.20 Y44.67 
G01 X-20.17 Y44.52 
G01 X-20.17 Y44.38 
G01 X-20.20 Y44.23 
G01 X-20.25 Y44.09 
G01 X-20.34 Y43.96 
G01 X-20.44 Y43.86 
G01 X-20.57 Y43.78 
G01 X-20.71 Y43.72 
G01 X-20.85 Y43.69 
G01 X-21.10 Y43.69 
G01 X-21.10 Y41.15 
G01 X-13.46 Y41.15 
G01 X-13.46 Y41.38 
G01 X-13.43 Y41.52 
G01 X-13.37 Y41.66 
G01 X-13.29 Y41.79 
G01 X-13.19 Y41.89 
G01 X-13.06 Y41.98 
G01 X-12.92 Y42.03 
G01 X-12.77 Y42.06 
G01 X-12.63 Y42.06 
G01 X-12.48 Y42.03 
G01 X-12.34 Y41.98 
G01 X-12.21 Y41.89 
G01 X-12.11 Y41.79 
G01 X-12.03 Y41.66 
G01 X-11.97 Y41.52 
G01 X-11.94 Y41.38 
G01 X-11.94 Y39.90 
G01 X-11.97 Y39.76 
G01 X-12.03 Y39.62 
G01 X-12.11 Y39.49 
G01 X-12.21 Y39.39 
G01 X-12.34 Y39.30 
G01 X-12.48 Y39.25 
G01 X-12.63 Y39.22 
G01 X-12.77 Y39.22 
G01 X-12.92 Y39.25 
G01 X-13.06 Y39.30 
G01 X-13.19 Y39.39 
G01 X-13.29 Y39.49 
G01 X-13.37 Y39.62 
G01 X-13.43 Y39.76 
G01 X-13.46 Y39.90 
G01 X-13.46 Y40.35 
G01 X-21.55 Y40.35 
G01 X-21.64 Y40.37 
G01 X-21.58 Y40.35 
G01 X-13.73 Y40.35 
G01 X-13.65 Y40.33 
G01 X-13.58 Y40.29 
G01 X-13.52 Y40.23 
G01 X-13.48 Y40.16 
G01 X-13.46 Y40.08 
G01 X-13.46 Y39.83 
G01 X-13.35 Y39.55 
G01 X-13.13 Y39.33 
G01 X-12.85 Y39.22 
G01 X-12.55 Y39.22 
G01 X-12.27 Y39.33 
G01 X-12.05 Y39.55 
G01 X-11.94 Y39.83 
G01 X-11.94 Y41.45 
G01 X-12.05 Y41.73 
G01 X-12.27 Y41.95 
G01 X-12.55 Y42.06 
G01 X-12.85 Y42.06 
G01 X-13.13 Y41.95 
G01 X-13.35 Y41.73 
G01 X-13.46 Y41.45 
G01 X-13.46 Y41.42 
G01 X-13.48 Y41.34 
G01 X-13.52 Y41.27 
G01 X-13.58 Y41.21 
G01 X-13.65 Y41.17 
G01 X-13.73 Y41.15 
G01 X-20.83 Y41.15 
G01 X-20.91 Y41.17 
G01 X-20.98 Y41.21 
G01 X-21.04 Y41.27 
G01 X-21.08 Y41.34 
G01 X-21.10 Y41.42 
G01 X-21.10 Y43.42 
G01 X-21.08 Y43.50 
G01 X-21.04 Y43.57 
G01 X-20.98 Y43.63 
G01 X-20.91 Y43.67 
G01 X-20.83 Y43.69 
G01 X-20.78 Y43.69 
G01 X-20.50 Y43.80 
G01 X-20.28 Y44.02 
G01 X-20.17 Y44.30 
G01 X-20.17 Y44.60 
G01 X-20.28 Y44.88 
G01 X-20.50 Y45.10 
G01 X-20.78 Y45.21 
G01 X-22.40 Y45.21 
G01 X-22.68 Y45.10 
G01 X-22.90 Y44.88 
G01 X-23.01 Y44.60 
G01 X-23.01 Y44.30 
G01 X-22.90 Y44.02 
G01 X-22.68 Y43.80 
G01 X-22.40 Y43.69 
G01 X-22.17 Y43.69 
G01 X-22.09 Y43.67 
G01 X-22.02 Y43.63 
G01 X-21.96 Y43.57 
G01 X-21.92 Y43.50 
G01 X-21.90 Y43.42 
G01 X-21.90 Y40.67 
G01 X-21.88 Y40.61 
G01 X-21.90 Y40.70 
G01 X-21.90 Y43.69 
G01 X-22.33 Y43.69 
G01 X-22.47 Y43.72 
G01 X-22.61 Y43.78 
G01 X-22.74 Y43.86 
G01 X-22.84 Y43.96 
G01 X-22.93 Y44.09 
G01 X-22.98 Y44.23 
G01 X-23.01 Y44.38 
G01 X-23.01 Y44.52 
G01 X-22.98 Y44.67 
G01 X-22.93 Y44.81 
G01 X-22.84 Y44.94 
G01 X-22.74 Y45.04 
G01 X-22.61 Y45.12 
G01 X-22.47 Y45.18 
G01 X-22.33 Y45.21 
G00 Z1.00 
G00 X-21.08 Y29.14 
G01 Z-0.20 F60.00 
G01 X-21.08 Y29.28 F80.00 
G01 X-21.05 Y29.43 
G01 X-20.99 Y29.57 
G01 X-20.91 Y29.70 
G01 X-20.90 Y29.71 
G01 X-20.90 Y33.17 
G01 X-20.95 Y33.20 
G01 X-21.09 Y33.34 
G01 X-21.20 Y33.50 
G01 X-21.24 Y33.60 
G01 X-21.43 Y33.60 
G01 X-21.42 Y33.60 
G01 X-21.40 Y33.60 
G01 X-21.38 Y33.59 
G01 X-21.36 Y33.59 
G01 X-21.34 Y33.58 
G01 X-21.32 Y33.58 
G01 X-21.31 Y33.57 
G01 X-21.29 Y33.56 
G01 X-21.27 Y33.55 
G01 X-21.25 Y33.54 
G01 X-21.24 Y33.52 
G01 X-21.22 Y33.51 
G01 X-21.21 Y33.49 
G01 X-21.20 Y33.48 
G01 X-21.19 Y33.46 
G01 X-21.18 Y33.45 
G01 X-21.17 Y33.43 
G01 X-21.16 Y33.41 
G01 X-21.16 Y33.41 
G01 X-20.96 Y33.21 
G01 X-20.92 Y33.14 
G01 X-20.90 Y33.07 
G01 X-20.90 Y29.79 
G01 X-20.92 Y29.71 
G01 X-20.96 Y29.65 
G01 X-20.97 Y29.64 
G01 X-21.08 Y29.36 
G01 X-21.08 Y29.06 
G01 X-20.97 Y28.78 
G01 X-20.75 Y28.56 
G01 X-20.47 Y28.45 
G01 X-20.17 Y28.45 
G01 X-19.89 Y28.56 
G01 X-19.67 Y28.78 
G01 X-19.56 Y29.06 
G01 X-19.56 Y29.36 
G01 X-19.67 Y29.64 
G01 X-19.89 Y29.86 
G01 X-19.89 Y29.86 
G01 X-19.91 Y29.86 
G01 X-19.93 Y29.87 
G01 X-19.95 Y29.88 
G01 X-19.96 Y29.89 
G01 X-19.98 Y29.90 
G01 X-19.99 Y29.92 
G01 X-20.01 Y29.93 
G01 X-20.02 Y29.95 
G01 X-20.04 Y29.96 
G01 X-20.05 Y29.98 
G01 X-20.06 Y29.99 
G01 X-20.07 Y30.01 
G01 X-20.08 Y30.03 
G01 X-20.08 Y30.05 
G01 X-20.09 Y30.07 
G01 X-20.09 Y30.09 
G01 X-20.10 Y30.11 
G01 X-20.10 Y30.13 
G01 X-20.10 Y30.14 
G01 X-20.10 Y29.94 
G01 X-19.96 Y29.88 
G01 X-19.83 Y29.80 
G01 X-19.73 Y29.70 
G01 X-19.65 Y29.57 
G01 X-19.59 Y29.43 
G01 X-19.56 Y29.28 
G01 X-19.56 Y29.14 
G01 X-19.59 Y28.99 
G01 X-19.65 Y28.85 
G01 X-19.73 Y28.72 
G01 X-19.83 Y28.62 
G01 X-19.96 Y28.54 
G01 X-20.10 Y28.48 
G01 X-20.25 Y28.45 
G01 X-20.39 Y28.45 
G01 X-20.54 Y28.48 
G01 X-20.68 Y28.54 
G01 X-20.81 Y28.62 
G01 X-20.91 Y28.72 
G01 X-20.99 Y28.85 
G01 X-21.05 Y28.99 
G01 X-21.08 Y29.14 
G00 Z1.00 
G00 X-21.72 Y33.60 
G01 Z-0.20 F60.00 
G01 X-21.46 Y33.60 F80.00 
G01 X-21.45 Y33.60 
G01 X-21.73 Y33.60 
G01 X-21.72 Y33.60 
G00 Z1.00 
G00 X-2.69 Y15.99 
G01 Z-0.20 F60.00 
G01 X-1.79 Y16.89 F80.00 
G01 X-1.66 Y17.02 
G01 X-1.63 Y17.08 
G01 X-1.68 Y17.00 
G01 X-1.75 Y16.93 
G01 X-2.70 Y15.98 
G01 X-2.69 Y15.99 
G00 Z1.00 
G00 X-2.85 Y15.82 
G01 Z-0.20 F60.00 
G01 X-2.79 Y15.66 F80.00 
G01 X-2.77 Y15.50 
G01 X-2.77 Y15.34 
G01 X-2.79 Y15.17 
G01 X-2.84 Y15.04 
G01 X-2.77 Y15.21 
G01 X-2.77 Y15.62 
G01 X-2.78 Y15.64 
G01 X-2.78 Y15.66 
G01 X-2.79 Y15.68 
G01 X-2.79 Y15.70 
G01 X-2.80 Y15.72 
G01 X-2.80 Y15.74 
G01 X-2.80 Y15.76 
G01 X-2.80 Y15.78 
G01 X-2.80 Y15.80 
G01 X-2.79 Y15.82 
G01 X-2.79 Y15.84 
G01 X-2.78 Y15.86 
G01 X-2.78 Y15.87 
G01 X-2.77 Y15.89 
G01 X-2.76 Y15.91 
G01 X-2.75 Y15.93 
G01 X-2.74 Y15.94 
G01 X-2.72 Y15.96 
G01 X-2.72 Y15.97 
G01 X-2.85 Y15.83 
G01 X-2.85 Y15.82 
G00 Z1.00 
G00 X-3.30 Y16.52 
G01 Z-0.20 F60.00 
G01 X-3.31 Y16.50 F80.00 
G01 X-3.33 Y16.49 
G01 X-3.35 Y16.48 
G01 X-3.37 Y16.47 
G01 X-3.38 Y16.46 
G01 X-3.40 Y16.46 
G01 X-3.42 Y16.45 
G01 X-3.44 Y16.45 
G01 X-3.46 Y16.44 
G01 X-3.48 Y16.44 
G01 X-3.50 Y16.44 
G01 X-3.52 Y16.44 
G01 X-3.54 Y16.44 
G01 X-3.56 Y16.45 
G01 X-3.58 Y16.45 
G01 X-3.60 Y16.46 
G01 X-3.60 Y16.46 
G01 X-4.02 Y16.46 
G01 X-4.19 Y16.39 
G01 X-4.05 Y16.43 
G01 X-3.89 Y16.46 
G01 X-3.73 Y16.46 
G01 X-3.57 Y16.43 
G01 X-3.43 Y16.39 
G01 X-3.29 Y16.52 
G01 X-3.30 Y16.52 
G00 Z1.00 
G00 X-18.54 Y29.14 
G01 Z-0.20 F60.00 
G01 X-18.54 Y29.28 F80.00 
G01 X-18.51 Y29.43 
G01 X-18.45 Y29.57 
G01 X-18.37 Y29.70 
G01 X-18.27 Y29.80 
G01 X-18.14 Y29.88 
G01 X-18.00 Y29.94 
G01 X-17.85 Y29.97 
G01 X-17.71 Y29.97 
G01 X-17.61 Y29.95 
G01 X-15.90 Y31.67 
G01 X-15.90 Y32.30 
G01 X-15.88 Y32.39 
G01 X-15.90 Y32.33 
G01 X-15.90 Y31.75 
G01 X-15.92 Y31.68 
G01 X-15.96 Y31.61 
G01 X-15.99 Y31.58 
G01 X-17.48 Y30.09 
G01 X-17.51 Y30.06 
G01 X-17.54 Y30.03 
G01 X-17.60 Y29.99 
G01 X-17.68 Y29.97 
G01 X-17.93 Y29.97 
G01 X-18.21 Y29.86 
G01 X-18.43 Y29.64 
G01 X-18.54 Y29.36 
G01 X-18.54 Y29.06 
G01 X-18.43 Y28.78 
G01 X-18.21 Y28.56 
G01 X-17.93 Y28.45 
G01 X-17.63 Y28.45 
G01 X-17.35 Y28.56 
G01 X-17.13 Y28.78 
G01 X-17.02 Y29.06 
G01 X-17.02 Y29.33 
G01 X-17.00 Y29.41 
G01 X-16.96 Y29.47 
G01 X-15.39 Y31.04 
G01 X-15.32 Y31.08 
G01 X-15.25 Y31.10 
G01 X-15.17 Y31.10 
G01 X-15.09 Y31.08 
G01 X-15.02 Y31.04 
G01 X-14.96 Y30.98 
G01 X-14.92 Y30.91 
G01 X-14.90 Y30.83 
G01 X-14.90 Y28.42 
G01 X-14.88 Y28.36 
G01 X-14.90 Y28.45 
G01 X-14.90 Y31.80 
G01 X-14.87 Y31.90 
G01 X-14.82 Y32.00 
G01 X-13.57 Y33.25 
G01 X-13.50 Y33.32 
G01 X-13.40 Y33.37 
G01 X-13.30 Y33.40 
G01 X-8.65 Y33.40 
G01 X-8.65 Y34.80 
G01 X-8.62 Y34.90 
G01 X-8.57 Y35.00 
G01 X-8.15 Y35.42 
G01 X-8.15 Y35.62 
G01 X-8.21 Y35.68 
G01 X-8.29 Y35.81 
G01 X-8.35 Y35.95 
G01 X-8.38 Y36.09 
G01 X-8.38 Y37.57 
G01 X-8.35 Y37.71 
G01 X-8.29 Y37.85 
G01 X-8.21 Y37.98 
G01 X-8.11 Y38.08 
G01 X-7.98 Y38.17 
G01 X-7.84 Y38.22 
G01 X-7.69 Y38.25 
G01 X-7.55 Y38.25 
G01 X-7.40 Y38.22 
G01 X-7.26 Y38.17 
G01 X-7.13 Y38.08 
G01 X-7.03 Y37.98 
G01 X-6.95 Y37.85 
G01 X-6.89 Y37.71 
G01 X-6.86 Y37.57 
G01 X-6.86 Y36.09 
G01 X-6.89 Y35.95 
G01 X-6.95 Y35.81 
G01 X-7.03 Y35.68 
G01 X-7.13 Y35.58 
G01 X-7.26 Y35.49 
G01 X-7.35 Y35.46 
G01 X-7.35 Y35.20 
G01 X-7.38 Y35.10 
G01 X-7.43 Y35.00 
G01 X-7.50 Y34.93 
G01 X-7.85 Y34.58 
G01 X-7.85 Y30.95 
G01 X-7.88 Y30.85 
G01 X-7.93 Y30.75 
G01 X-8.00 Y30.68 
G01 X-8.13 Y30.55 
G01 X-8.13 Y30.16 
G01 X-8.57 Y29.72 
G01 X-9.21 Y29.72 
G01 X-9.65 Y30.16 
G01 X-9.65 Y30.80 
G01 X-9.21 Y31.24 
G01 X-8.65 Y31.24 
G01 X-8.65 Y32.60 
G01 X-13.08 Y32.60 
G01 X-14.10 Y31.58 
G01 X-14.10 Y28.90 
G01 X-10.70 Y28.90 
G01 X-10.60 Y28.87 
G01 X-10.50 Y28.82 
G01 X-10.43 Y28.75 
G01 X-9.18 Y27.50 
G01 X-9.13 Y27.40 
G01 X-9.10 Y27.30 
G01 X-9.10 Y23.45 
G01 X-9.13 Y23.35 
G01 X-9.18 Y23.25 
G01 X-9.25 Y23.18 
G01 X-12.35 Y20.08 
G01 X-12.35 Y17.17 
G01 X-9.18 Y14.00 
G01 X-9.13 Y13.92 
G01 X-9.16 Y13.98 
G01 X-12.29 Y17.11 
G01 X-12.33 Y17.18 
G01 X-12.35 Y17.25 
G01 X-12.35 Y17.56 
G01 X-12.33 Y17.64 
G01 X-12.30 Y17.68 
G01 X-12.29 Y17.71 
G01 X-12.23 Y17.76 
G01 X-12.19 Y17.79 
G01 X-12.16 Y17.80 
G01 X-12.08 Y17.82 
G01 X-12.00 Y17.82 
G01 X-11.93 Y17.80 
G01 X-11.89 Y17.78 
G01 X-11.86 Y17.76 
G01 X-11.80 Y17.71 
G01 X-11.75 Y17.65 
G01 X-11.11 Y17.65 
G01 X-10.67 Y18.10 
G01 X-10.67 Y18.43 
G01 X-10.65 Y18.51 
G01 X-10.61 Y18.57 
G01 X-10.55 Y18.63 
G01 X-7.14 Y22.04 
G01 X-7.07 Y22.08 
G01 X-7.00 Y22.10 
G01 X-4.21 Y22.10 
G01 X-3.49 Y22.10 
G01 X-3.05 Y22.54 
G01 X-3.05 Y23.26 
G01 X-3.05 Y23.30 
G01 X-3.05 Y23.30 
G01 X-3.03 Y23.38 
G01 X-3.00 Y23.41 
G01 X-2.99 Y23.44 
G01 X-2.95 Y23.48 
G01 X-2.89 Y23.54 
G01 X-2.86 Y23.56 
G01 X-2.82 Y23.58 
G01 X-2.75 Y23.60 
G01 X-2.71 Y23.60 
G01 X-2.67 Y23.60 
G01 X-2.66 Y23.60 
G01 X-2.59 Y23.58 
G01 X-2.55 Y23.56 
G01 X-2.52 Y23.54 
G01 X-2.46 Y23.48 
G01 X-2.44 Y23.45 
G01 X-2.42 Y23.41 
G01 X-2.40 Y23.33 
G01 X-2.40 Y23.30 
G01 X-2.40 Y23.25 
G01 X-2.40 Y17.50 
G01 X-2.42 Y17.43 
G01 X-2.46 Y17.36 
G01 X-2.48 Y17.34 
G01 X-3.27 Y16.55 
G01 X-3.28 Y16.54 
G01 X-2.40 Y17.42 
G01 X-2.40 Y24.03 
G01 X-3.15 Y23.28 
G01 X-3.05 Y23.18 
G01 X-3.05 Y22.54 
G01 X-3.49 Y22.10 
G01 X-4.13 Y22.10 
G01 X-7.08 Y22.10 
G01 X-10.67 Y18.51 
G01 X-10.67 Y18.10 
G01 X-11.11 Y17.65 
G01 X-11.75 Y17.65 
G01 X-12.19 Y18.10 
G01 X-12.19 Y18.73 
G01 X-11.75 Y19.18 
G01 X-11.14 Y19.18 
G01 X-7.57 Y22.75 
G01 X-7.50 Y22.82 
G01 X-7.40 Y22.87 
G01 X-7.30 Y22.90 
G01 X-4.57 Y22.90 
G01 X-4.57 Y23.18 
G01 X-4.13 Y23.62 
G01 X-3.95 Y23.62 
G01 X-2.40 Y25.17 
G01 X-2.40 Y33.58 
G01 X-4.07 Y35.25 
G01 X-4.12 Y35.35 
G01 X-4.15 Y35.45 
G01 X-4.15 Y39.10 
G01 X-8.08 Y39.10 
G01 X-15.10 Y32.08 
G01 X-15.10 Y31.45 
G01 X-15.13 Y31.35 
G01 X-15.18 Y31.25 
G01 X-15.25 Y31.18 
G01 X-17.04 Y29.39 
G01 X-17.02 Y29.28 
G01 X-17.02 Y29.14 
G01 X-17.05 Y28.99 
G01 X-17.11 Y28.85 
G01 X-17.19 Y28.72 
G01 X-17.29 Y28.62 
G01 X-17.42 Y28.54 
G01 X-17.56 Y28.48 
G01 X-17.71 Y28.45 
G01 X-17.85 Y28.45 
G01 X-18.00 Y28.48 
G01 X-18.14 Y28.54 
G01 X-18.27 Y28.62 
G01 X-18.37 Y28.72 
G01 X-18.45 Y28.85 
G01 X-18.51 Y28.99 
G01 X-18.54 Y29.14 
G00 Z1.00 
G00 X-3.94 Y28.26 
G01 Z-0.20 F60.00 
G01 X-3.94 Y28.87 F80.00 
G01 X-4.75 Y29.68 
G01 X-4.82 Y29.75 
G01 X-4.87 Y29.85 
G01 X-4.90 Y29.95 
G01 X-4.90 Y34.83 
G01 X-5.25 Y35.18 
G01 X-5.32 Y35.25 
G01 X-5.37 Y35.35 
G01 X-5.40 Y35.45 
G01 X-5.40 Y35.48 
G01 X-5.44 Y35.49 
G01 X-5.57 Y35.58 
G01 X-5.67 Y35.68 
G01 X-5.75 Y35.81 
G01 X-5.81 Y35.95 
G01 X-5.84 Y36.09 
G01 X-5.84 Y37.57 
G01 X-5.81 Y37.71 
G01 X-5.75 Y37.85 
G01 X-5.67 Y37.98 
G01 X-5.57 Y38.08 
G01 X-5.44 Y38.17 
G01 X-5.30 Y38.22 
G01 X-5.15 Y38.25 
G01 X-5.01 Y38.25 
G01 X-4.86 Y38.22 
G01 X-4.72 Y38.17 
G01 X-4.59 Y38.08 
G01 X-4.49 Y37.98 
G01 X-4.41 Y37.85 
G01 X-4.35 Y37.71 
G01 X-4.32 Y37.57 
G01 X-4.32 Y36.09 
G01 X-4.35 Y35.95 
G01 X-4.41 Y35.81 
G01 X-4.49 Y35.68 
G01 X-4.55 Y35.62 
G01 X-4.18 Y35.25 
G01 X-4.13 Y35.15 
G01 X-4.10 Y35.05 
G01 X-4.10 Y30.17 
G01 X-3.27 Y29.34 
G01 X-2.86 Y29.34 
G01 X-2.41 Y28.89 
G01 X-2.41 Y28.26 
G01 X-2.86 Y27.81 
G01 X-3.49 Y27.81 
G01 X-3.94 Y28.26 
G00 Z1.00 
G00 X-11.94 Y31.22 
G01 Z-0.20 F60.00 
G01 X-11.94 Y30.90 F80.00 
G01 X-10.70 Y30.90 
G01 X-10.60 Y30.87 
G01 X-10.50 Y30.82 
G01 X-10.43 Y30.75 
G01 X-10.38 Y30.65 
G01 X-10.35 Y30.55 
G01 X-10.35 Y29.92 
G01 X-9.33 Y28.90 
G01 X-6.47 Y28.90 
G01 X-6.50 Y28.93 
G01 X-6.57 Y29.00 
G01 X-6.62 Y29.10 
G01 X-6.65 Y29.20 
G01 X-6.65 Y29.72 
G01 X-6.67 Y29.72 
G01 X-7.11 Y30.16 
G01 X-7.11 Y30.80 
G01 X-6.67 Y31.24 
G01 X-6.03 Y31.24 
G01 X-5.59 Y30.80 
G01 X-5.59 Y30.16 
G01 X-5.85 Y29.90 
G01 X-5.85 Y29.42 
G01 X-5.38 Y28.95 
G01 X-3.23 Y26.80 
G01 X-2.86 Y26.80 
G01 X-2.41 Y26.35 
G01 X-2.41 Y25.72 
G01 X-2.86 Y25.27 
G01 X-3.49 Y25.27 
G01 X-3.94 Y25.72 
G01 X-3.94 Y26.35 
G01 X-3.93 Y26.36 
G01 X-5.67 Y28.11 
G01 X-5.70 Y28.10 
G01 X-9.55 Y28.10 
G01 X-9.65 Y28.13 
G01 X-9.75 Y28.18 
G01 X-9.82 Y28.25 
G01 X-11.00 Y29.43 
G01 X-11.07 Y29.50 
G01 X-11.12 Y29.60 
G01 X-11.15 Y29.70 
G01 X-11.15 Y30.10 
G01 X-11.94 Y30.10 
G01 X-11.94 Y29.74 
G01 X-11.97 Y29.60 
G01 X-12.03 Y29.46 
G01 X-12.11 Y29.33 
G01 X-12.21 Y29.23 
G01 X-12.34 Y29.14 
G01 X-12.48 Y29.09 
G01 X-12.63 Y29.06 
G01 X-12.77 Y29.06 
G01 X-12.92 Y29.09 
G01 X-13.06 Y29.14 
G01 X-13.19 Y29.23 
G01 X-13.29 Y29.33 
G01 X-13.37 Y29.46 
G01 X-13.43 Y29.60 
G01 X-13.46 Y29.74 
G01 X-13.46 Y31.22 
G01 X-13.43 Y31.36 
G01 X-13.37 Y31.50 
G01 X-13.29 Y31.63 
G01 X-13.19 Y31.73 
G01 X-13.06 Y31.82 
G01 X-12.92 Y31.87 
G01 X-12.77 Y31.90 
G01 X-12.63 Y31.90 
G01 X-12.48 Y31.87 
G01 X-12.34 Y31.82 
G01 X-12.21 Y31.73 
G01 X-12.11 Y31.63 
G01 X-12.03 Y31.50 
G01 X-11.97 Y31.36 
G01 X-11.94 Y31.22 
G00 Z1.00 
G00 X-1.60 Y17.17 
G01 Z-0.20 F60.00 
G01 X-1.60 Y33.83 F80.00 
G01 X-1.62 Y33.89 
G01 X-1.60 Y33.80 
G01 X-1.60 Y17.20 
G01 X-1.62 Y17.11 
G01 X-1.60 Y17.17 
G00 Z1.00 
G00 X-13.89 Y3.57 
G01 Z-0.20 F60.00 
G01 X-13.92 Y3.73 F80.00 
G01 X-13.92 Y3.89 
G01 X-13.89 Y4.05 
G01 X-13.85 Y4.19 
G01 X-13.92 Y4.02 
G01 X-13.92 Y3.59 
G01 X-13.91 Y3.57 
G01 X-13.91 Y3.55 
G01 X-13.91 Y3.53 
G01 X-13.91 Y3.51 
G01 X-13.91 Y3.49 
G01 X-13.92 Y3.47 
G01 X-13.92 Y3.45 
G01 X-13.93 Y3.43 
G01 X-13.94 Y3.41 
G01 X-13.95 Y3.40 
G01 X-13.95 Y3.38 
G01 X-13.97 Y3.36 
G01 X-13.98 Y3.34 
G01 X-13.99 Y3.33 
G01 X-14.00 Y3.32 
G01 X-13.86 Y3.46 
G01 X-13.89 Y3.57 
G00 Z1.00 
G00 X-13.45 Y2.73 
G01 Z-0.20 F60.00 
G01 X-13.43 Y2.75 F80.00 
G01 X-13.42 Y2.76 
G01 X-13.40 Y2.77 
G01 X-13.38 Y2.78 
G01 X-13.36 Y2.79 
G01 X-13.34 Y2.79 
G01 X-13.33 Y2.80 
G01 X-13.31 Y2.80 
G01 X-13.29 Y2.81 
G01 X-13.27 Y2.81 
G01 X-13.25 Y2.81 
G01 X-13.23 Y2.81 
G01 X-13.21 Y2.81 
G01 X-13.19 Y2.80 
G01 X-13.17 Y2.80 
G01 X-13.15 Y2.79 
G01 X-13.13 Y2.79 
G01 X-13.11 Y2.78 
G01 X-13.09 Y2.77 
G01 X-12.67 Y2.77 
G01 X-12.50 Y2.84 
G01 X-12.63 Y2.79 
G01 X-12.80 Y2.77 
G01 X-12.96 Y2.77 
G01 X-13.12 Y2.79 
G01 X-13.28 Y2.85 
G01 X-13.32 Y2.87 
G01 X-13.45 Y2.73 
G01 X-13.45 Y2.73 
G00 Z1.00 
G00 X-14.52 Y1.66 
G01 Z-0.20 F60.00 
G01 X-14.38 Y1.80 F80.00 
G01 X-13.47 Y2.71 
G01 X-13.47 Y2.71 
G01 X-14.43 Y1.75 
G01 X-14.50 Y1.68 
G01 X-14.58 Y1.63 
G01 X-14.52 Y1.66 
G00 Z1.00 
G00 X-25.90 Y7.33 
G01 Z-0.20 F60.00 
G01 X-25.90 Y1.92 F80.00 
G01 X-25.88 Y1.86 
G01 X-25.90 Y1.95 
G01 X-25.90 Y7.30 
G01 X-25.88 Y7.39 
G01 X-25.90 Y7.33 
G00 Z1.00 
G00 X-23.62 Y21.52 
G01 Z-0.20 F60.00 
G01 X-23.62 Y21.66 F80.00 
G01 X-23.59 Y21.81 
G01 X-23.53 Y21.95 
G01 X-23.45 Y22.08 
G01 X-23.35 Y22.18 
G01 X-23.22 Y22.26 
G01 X-23.08 Y22.32 
G01 X-22.93 Y22.35 
G01 X-22.79 Y22.35 
G01 X-22.64 Y22.32 
G01 X-22.50 Y22.26 
G01 X-22.37 Y22.18 
G01 X-22.27 Y22.08 
G01 X-22.19 Y21.95 
G01 X-22.13 Y21.81 
G01 X-22.10 Y21.66 
G01 X-22.10 Y21.52 
G01 X-22.13 Y21.37 
G01 X-22.19 Y21.23 
G01 X-22.27 Y21.10 
G01 X-22.37 Y21.00 
G01 X-22.50 Y20.92 
G01 X-22.64 Y20.86 
G01 X-22.79 Y20.83 
G01 X-22.85 Y20.83 
G01 X-24.60 Y19.08 
G01 X-24.60 Y8.17 
G01 X-24.55 Y8.12 
G01 X-23.54 Y7.11 
G01 X-23.18 Y7.11 
G01 X-22.73 Y6.67 
G01 X-22.73 Y6.03 
G01 X-23.18 Y5.59 
G01 X-23.81 Y5.59 
G01 X-24.26 Y6.03 
G01 X-24.26 Y6.67 
G01 X-24.24 Y6.68 
G01 X-24.87 Y7.31 
G01 X-25.10 Y7.08 
G01 X-25.10 Y2.40 
G01 X-14.92 Y2.40 
G01 X-14.01 Y3.31 
G01 X-14.02 Y3.30 
G01 X-14.86 Y2.46 
G01 X-14.93 Y2.42 
G01 X-15.00 Y2.40 
G01 X-24.83 Y2.40 
G01 X-24.91 Y2.42 
G01 X-24.98 Y2.46 
G01 X-25.04 Y2.52 
G01 X-25.08 Y2.59 
G01 X-25.10 Y2.67 
G01 X-25.10 Y6.83 
G01 X-25.08 Y6.91 
G01 X-25.04 Y6.98 
G01 X-24.98 Y7.04 
G01 X-24.91 Y7.08 
G01 X-24.83 Y7.10 
G01 X-24.75 Y7.10 
G01 X-24.68 Y7.08 
G01 X-24.61 Y7.04 
G01 X-24.55 Y6.98 
G01 X-24.32 Y6.75 
G01 X-24.28 Y6.68 
G01 X-24.26 Y6.60 
G01 X-24.26 Y6.03 
G01 X-23.81 Y5.59 
G01 X-23.18 Y5.59 
G01 X-22.73 Y6.03 
G01 X-22.73 Y6.67 
G01 X-23.18 Y7.11 
G01 X-23.46 Y7.11 
G01 X-23.54 Y7.13 
G01 X-23.60 Y7.17 
G01 X-23.66 Y7.23 
G01 X-24.52 Y8.09 
G01 X-24.54 Y8.11 
G01 X-24.58 Y8.18 
G01 X-24.60 Y8.25 
G01 X-24.60 Y19.00 
G01 X-24.58 Y19.07 
G01 X-24.54 Y19.14 
G01 X-24.51 Y19.17 
G01 X-22.97 Y20.71 
G01 X-22.94 Y20.74 
G01 X-22.91 Y20.77 
G01 X-22.85 Y20.81 
G01 X-22.77 Y20.83 
G01 X-22.71 Y20.83 
G01 X-22.43 Y20.94 
G01 X-22.39 Y20.98 
G01 X-22.36 Y21.00 
G01 X-22.32 Y21.02 
G01 X-22.31 Y21.02 
G01 X-22.25 Y21.04 
G01 X-22.17 Y21.04 
G01 X-22.11 Y21.02 
G01 X-22.09 Y21.02 
G01 X-22.06 Y21.00 
G01 X-22.02 Y20.98 
G01 X-21.96 Y20.92 
G01 X-21.94 Y20.89 
G01 X-21.92 Y20.85 
G01 X-21.92 Y20.84 
G01 X-21.90 Y20.77 
G01 X-21.90 Y20.17 
G01 X-21.88 Y20.11 
G01 X-21.90 Y20.20 
G01 X-21.90 Y24.08 
G01 X-25.50 Y27.68 
G01 X-25.57 Y27.75 
G01 X-25.62 Y27.83 
G01 X-25.59 Y27.77 
G01 X-25.41 Y27.59 
G01 X-21.96 Y24.14 
G01 X-21.92 Y24.07 
G01 X-21.90 Y24.00 
G01 X-21.90 Y22.41 
G01 X-21.92 Y22.34 
G01 X-21.92 Y22.33 
G01 X-21.94 Y22.30 
G01 X-21.96 Y22.26 
G01 X-22.02 Y22.20 
G01 X-22.06 Y22.18 
G01 X-22.09 Y22.16 
G01 X-22.10 Y22.16 
G01 X-22.17 Y22.14 
G01 X-22.25 Y22.14 
G01 X-22.31 Y22.16 
G01 X-22.32 Y22.16 
G01 X-22.36 Y22.18 
G01 X-22.39 Y22.20 
G01 X-22.43 Y22.24 
G01 X-22.71 Y22.35 
G01 X-23.01 Y22.35 
G01 X-23.29 Y22.24 
G01 X-23.51 Y22.02 
G01 X-23.62 Y21.74 
G01 X-23.62 Y21.44 
G01 X-23.62 Y21.44 
G01 X-23.61 Y21.42 
G01 X-23.61 Y21.40 
G01 X-23.61 Y21.38 
G01 X-23.61 Y21.36 
G01 X-23.60 Y21.34 
G01 X-23.61 Y21.32 
G01 X-23.61 Y21.30 
G01 X-23.61 Y21.28 
G01 X-23.61 Y21.26 
G01 X-23.62 Y21.24 
G01 X-23.63 Y21.22 
G01 X-23.64 Y21.20 
G01 X-23.64 Y21.19 
G01 X-23.66 Y21.17 
G01 X-23.67 Y21.15 
G01 X-23.68 Y21.14 
G01 X-23.69 Y21.13 
G01 X-23.55 Y21.27 
G01 X-23.59 Y21.37 
G01 X-23.62 Y21.52 
G00 Z1.00 
G00 X-25.40 Y7.95 
G01 Z-0.20 F60.00 
G01 X-25.40 Y19.30 F80.00 
G01 X-25.38 Y19.39 
G01 X-25.40 Y19.33 
G01 X-25.40 Y8.00 
G01 X-25.42 Y7.93 
G01 X-25.46 Y7.86 
G01 X-25.52 Y7.80 
G01 X-25.84 Y7.48 
G01 X-25.87 Y7.42 
G01 X-25.82 Y7.50 
G01 X-25.39 Y7.92 
G01 X-25.40 Y7.95 
G00 Z1.00 
G00 X-25.84 Y1.77 
G01 Z-0.20 F60.00 
G01 X-25.73 Y1.66 F80.00 
G01 X-25.67 Y1.63 
G01 X-25.75 Y1.68 
G01 X-25.82 Y1.75 
G01 X-25.87 Y1.83 
G01 X-25.84 Y1.77 
G00 Z1.00 
G00 X-25.58 Y1.60 
G01 Z-0.20 F60.00 
G01 X-14.67 Y1.60 F80.00 
G01 X-14.61 Y1.62 
G01 X-14.70 Y1.60 
G01 X-25.55 Y1.60 
G01 X-25.64 Y1.62 
G01 X-25.58 Y1.60 
G00 Z1.00 
G00 X-23.71 Y21.11 
G01 Z-0.20 F60.00 
G01 X-25.34 Y19.48 F80.00 
G01 X-25.37 Y19.42 
G01 X-25.32 Y19.50 
G01 X-23.70 Y21.11 
G01 X-23.71 Y21.11 
G00 Z1.00 
G00 X-20.10 Y32.81 
G01 Z-0.20 F60.00 
G01 X-20.10 Y32.83 F80.00 
G01 X-20.09 Y32.85 
G01 X-20.09 Y32.87 
G01 X-20.08 Y32.89 
G01 X-20.08 Y32.91 
G01 X-20.07 Y32.92 
G01 X-20.06 Y32.94 
G01 X-20.05 Y32.96 
G01 X-20.04 Y32.98 
G01 X-20.02 Y32.99 
G01 X-20.01 Y33.01 
G01 X-19.99 Y33.02 
G01 X-19.98 Y33.03 
G01 X-19.96 Y33.04 
G01 X-19.95 Y33.05 
G01 X-19.93 Y33.06 
G01 X-19.92 Y33.07 
G01 X-20.03 Y33.02 
G01 X-20.10 Y33.01 
G01 X-20.10 Y32.80 
G01 X-20.10 Y32.81 
G00 Z1.00 
G00 X-25.65 Y28.27 
G01 Z-0.20 F60.00 
G01 X-25.65 Y27.92 F80.00 
G01 X-25.63 Y27.86 
G01 X-25.65 Y27.95 
G01 X-25.65 Y28.27 
G01 X-25.65 Y28.27 
G00 Z1.00 
G00 X-11.02 Y3.73 
G01 Z-0.20 F60.00 
G01 X-11.02 Y3.89 F80.00 
G01 X-11.00 Y4.05 
G01 X-10.95 Y4.19 
G01 X-11.02 Y4.02 
G01 X-11.02 Y3.60 
G01 X-10.95 Y3.43 
G01 X-11.00 Y3.57 
G01 X-11.02 Y3.73 
G00 Z1.00 
G00 X-2.80 Y12.94 
G01 Z-0.20 F60.00 
G01 X-2.88 Y13.09 F80.00 
G01 X-2.98 Y13.23 
G01 X-3.10 Y13.36 
G01 X-3.24 Y13.46 
G01 X-3.39 Y13.53 
G01 X-3.45 Y13.56 
G01 X-3.45 Y13.50 
G01 X-3.41 Y13.49 
G01 X-3.26 Y13.41 
G01 X-3.13 Y13.32 
G01 X-3.02 Y13.20 
G01 X-2.92 Y13.07 
G01 X-2.85 Y12.92 
G01 X-2.83 Y12.88 
G01 X-2.78 Y12.88 
G01 X-2.80 Y12.94 
G00 Z1.00 
G00 X-4.16 Y11.49 
G01 Z-0.20 F60.00 
G01 X-4.16 Y11.54 F80.00 
G01 X-4.21 Y11.56 
G01 X-4.36 Y11.63 
G01 X-4.49 Y11.73 
G01 X-4.60 Y11.84 
G01 X-4.70 Y11.98 
G01 X-4.77 Y12.12 
G01 X-4.79 Y12.17 
G01 X-4.84 Y12.17 
G01 X-4.82 Y12.10 
G01 X-4.74 Y11.95 
G01 X-4.68 Y11.86 
G01 X-4.67 Y11.84 
G01 X-4.65 Y11.82 
G01 X-4.64 Y11.80 
G01 X-4.63 Y11.79 
G01 X-4.63 Y11.78 
G01 X-4.62 Y11.75 
G01 X-4.61 Y11.73 
G01 X-4.61 Y11.72 
G01 X-4.60 Y11.72 
G01 X-4.58 Y11.71 
G01 X-4.56 Y11.71 
G01 X-4.54 Y11.70 
G01 X-4.53 Y11.69 
G01 X-4.51 Y11.68 
G01 X-4.49 Y11.67 
G01 X-4.48 Y11.66 
G01 X-4.38 Y11.59 
G01 X-4.23 Y11.51 
G01 X-4.16 Y11.49 
G00 Z1.00 
G00 X-3.39 Y11.51 
G01 Z-0.20 F60.00 
G01 X-3.24 Y11.59 F80.00 
G01 X-3.10 Y11.69 
G01 X-2.98 Y11.81 
G01 X-2.88 Y11.95 
G01 X-2.80 Y12.10 
G01 X-2.78 Y12.17 
G01 X-2.83 Y12.17 
G01 X-2.85 Y12.12 
G01 X-2.92 Y11.98 
G01 X-3.02 Y11.84 
G01 X-3.13 Y11.73 
G01 X-3.26 Y11.63 
G01 X-3.41 Y11.56 
G01 X-3.45 Y11.54 
G01 X-3.45 Y11.49 
G01 X-3.39 Y11.51 
G00 Z1.00 
G00 X-4.23 Y13.53 
G01 Z-0.20 F60.00 
G01 X-4.38 Y13.46 F80.00 
G01 X-4.52 Y13.36 
G01 X-4.64 Y13.23 
G01 X-4.74 Y13.09 
G01 X-4.82 Y12.94 
G01 X-4.84 Y12.88 
G01 X-4.79 Y12.88 
G01 X-4.77 Y12.92 
G01 X-4.70 Y13.07 
G01 X-4.60 Y13.20 
G01 X-4.49 Y13.32 
G01 X-4.36 Y13.41 
G01 X-4.21 Y13.49 
G01 X-4.16 Y13.50 
G01 X-4.16 Y13.56 
G01 X-4.23 Y13.53 
G00 Z1.00 
G00 X-15.27 Y5.91 
G01 Z-0.20 F60.00 
G01 X-15.16 Y6.02 F80.00 
G01 X-15.13 Y6.08 
G01 X-15.18 Y6.00 
G01 X-15.25 Y5.93 
G01 X-15.33 Y5.88 
G01 X-15.27 Y5.91 
G00 Z1.00 
G00 X-22.73 Y3.95 
G01 Z-0.20 F60.00 
G01 X-22.73 Y3.49 F80.00 
G01 X-23.18 Y3.05 
G01 X-23.81 Y3.05 
G01 X-24.26 Y3.49 
G01 X-24.26 Y4.13 
G01 X-23.81 Y4.57 
G01 X-23.25 Y4.57 
G01 X-21.32 Y6.50 
G01 X-21.25 Y6.57 
G01 X-21.17 Y6.62 
G01 X-21.23 Y6.59 
G01 X-21.41 Y6.41 
G01 X-23.19 Y4.63 
G01 X-23.25 Y4.59 
G01 X-23.33 Y4.57 
G01 X-23.81 Y4.57 
G01 X-24.26 Y4.13 
G01 X-24.26 Y3.49 
G01 X-23.81 Y3.05 
G01 X-23.18 Y3.05 
G01 X-22.73 Y3.49 
G01 X-22.73 Y3.86 
G01 X-22.71 Y3.94 
G01 X-22.67 Y4.01 
G01 X-22.61 Y4.07 
G01 X-20.89 Y5.79 
G01 X-20.82 Y5.83 
G01 X-20.75 Y5.85 
G01 X-15.42 Y5.85 
G01 X-15.36 Y5.87 
G01 X-15.45 Y5.85 
G01 X-20.83 Y5.85 
G01 X-22.73 Y3.95 
G00 Z1.00 
G00 X-10.57 Y2.93 
G01 Z-0.20 F60.00 
G01 X-10.40 Y2.86 F80.00 
G01 X-10.53 Y2.92 
G01 X-10.66 Y3.02 
G01 X-10.78 Y3.13 
G01 X-10.87 Y3.26 
G01 X-10.94 Y3.39 
G01 X-10.87 Y3.22 
G01 X-10.57 Y2.93 
G00 Z1.00 
G00 X-9.92 Y2.77 
G01 Z-0.20 F60.00 
G01 X-9.91 Y2.77 F80.00 
G01 X-10.06 Y2.77 
G01 X-10.23 Y2.79 
G01 X-10.36 Y2.84 
G01 X-10.19 Y2.77 
G01 X-9.92 Y2.77 
G00 Z1.00 
G00 X-1.60 Y43.42 
G01 Z-0.20 F60.00 
G01 X-1.60 Y45.58 F80.00 
G01 X-1.62 Y45.64 
G01 X-1.60 Y45.55 
G01 X-1.60 Y43.45 
G01 X-1.62 Y43.36 
G01 X-1.60 Y43.42 
G00 Z1.00 
G00 X-4.90 Y11.22 
G01 Z-0.20 F60.00 
G01 X-4.92 Y11.24 F80.00 
G01 X-4.93 Y11.25 
G01 X-4.94 Y11.26 
G01 X-4.95 Y11.29 
G01 X-4.96 Y11.31 
G01 X-4.96 Y11.32 
G01 X-4.97 Y11.34 
G01 X-4.97 Y11.36 
G01 X-5.00 Y11.36 
G01 X-5.01 Y11.37 
G01 X-5.03 Y11.37 
G01 X-5.05 Y11.39 
G01 X-5.07 Y11.40 
G01 X-5.08 Y11.41 
G01 X-5.10 Y11.41 
G01 X-5.11 Y11.43 
G01 X-5.12 Y11.44 
G01 X-4.89 Y11.21 
G01 X-4.90 Y11.22 
G00 Z1.00 
G00 X-9.33 Y2.35 
G01 Z-0.20 F60.00 
G01 X-2.92 Y2.35 F80.00 
G01 X-2.86 Y2.37 
G01 X-2.95 Y2.35 
G01 X-9.30 Y2.35 
G01 X-9.39 Y2.37 
G01 X-9.33 Y2.35 
G00 Z1.00 
G00 X-9.61 Y2.56 
G01 Z-0.20 F60.00 
G01 X-9.59 Y2.52 F80.00 
G01 X-9.48 Y2.41 
G01 X-9.42 Y2.38 
G01 X-9.50 Y2.43 
G01 X-9.57 Y2.50 
G01 X-9.61 Y2.57 
G01 X-9.61 Y2.56 
G00 Z1.00 
G00 X-9.74 Y2.79 
G01 Z-0.20 F60.00 
G01 X-9.89 Y2.77 F80.00 
G01 X-9.88 Y2.77 
G01 X-9.86 Y2.77 
G01 X-9.84 Y2.76 
G01 X-9.82 Y2.76 
G01 X-9.80 Y2.75 
G01 X-9.78 Y2.75 
G01 X-9.76 Y2.74 
G01 X-9.74 Y2.73 
G01 X-9.73 Y2.72 
G01 X-9.71 Y2.71 
G01 X-9.70 Y2.69 
G01 X-9.68 Y2.68 
G01 X-9.67 Y2.66 
G01 X-9.65 Y2.65 
G01 X-9.64 Y2.63 
G01 X-9.63 Y2.62 
G01 X-9.63 Y2.61 
G01 X-9.65 Y2.70 
G01 X-9.65 Y2.82 
G01 X-9.74 Y2.79 
G00 Z1.00 
G00 X-8.59 Y3.15 
G01 Z-0.20 F60.00 
G01 X-8.61 Y3.15 F80.00 
G01 X-8.63 Y3.16 
G01 X-8.65 Y3.16 
G01 X-8.67 Y3.17 
G01 X-8.69 Y3.17 
G01 X-8.71 Y3.18 
G01 X-8.72 Y3.19 
G01 X-8.74 Y3.20 
G01 X-8.76 Y3.21 
G01 X-8.77 Y3.23 
G01 X-8.79 Y3.24 
G01 X-8.80 Y3.26 
G01 X-8.81 Y3.27 
G01 X-8.82 Y3.29 
G01 X-8.84 Y3.30 
G01 X-8.84 Y3.32 
G01 X-8.85 Y3.34 
G01 X-8.86 Y3.36 
G01 X-8.87 Y3.39 
G01 X-8.85 Y3.30 
G01 X-8.85 Y3.15 
G01 X-8.58 Y3.15 
G01 X-8.59 Y3.15 
G00 Z1.00 
G00 X-8.91 Y3.48 
G01 Z-0.20 F60.00 
G01 X-8.92 Y3.50 F80.00 
G01 X-8.92 Y3.52 
G01 X-8.93 Y3.53 
G01 X-8.93 Y3.55 
G01 X-8.94 Y3.57 
G01 X-8.94 Y3.59 
G01 X-8.94 Y3.61 
G01 X-8.94 Y3.63 
G01 X-8.94 Y4.02 
G01 X-9.01 Y4.19 
G01 X-8.97 Y4.05 
G01 X-8.94 Y3.89 
G01 X-8.94 Y3.73 
G01 X-8.97 Y3.57 
G01 X-8.97 Y3.54 
G01 X-8.93 Y3.50 
G01 X-8.88 Y3.42 
G01 X-8.91 Y3.48 
G00 Z1.00 
G00 X-4.33 Y9.60 
G01 Z-0.20 F60.00 
G01 X-2.17 Y9.60 F80.00 
G01 X-2.09 Y9.58 
G01 X-2.02 Y9.54 
G01 X-1.96 Y9.48 
G01 X-1.92 Y9.41 
G01 X-1.90 Y9.33 
G01 X-1.90 Y4.50 
G01 X-1.92 Y4.43 
G01 X-1.96 Y4.36 
G01 X-2.02 Y4.30 
G01 X-3.11 Y3.21 
G01 X-3.18 Y3.17 
G01 X-3.25 Y3.15 
G01 X-8.55 Y3.15 
G01 X-8.56 Y3.15 
G01 X-3.17 Y3.15 
G01 X-1.90 Y4.42 
G01 X-1.90 Y9.60 
G01 X-4.30 Y9.60 
G01 X-4.39 Y9.62 
G01 X-4.33 Y9.60 
G00 Z1.00 
G00 X-1.42 Y10.40 
G01 Z-0.20 F60.00 
G01 X-4.00 Y10.40 F80.00 
G01 X-4.07 Y10.42 
G01 X-4.14 Y10.46 
G01 X-4.16 Y10.48 
G01 X-4.87 Y11.19 
G01 X-4.88 Y11.20 
G01 X-4.08 Y10.40 
G01 X-1.45 Y10.40 
G01 X-1.36 Y10.38 
G01 X-1.42 Y10.40 
G00 Z1.00 
G00 X-6.34 Y11.52 
G01 Z-0.20 F60.00 
G01 X-4.61 Y9.79 F80.00 
G01 X-4.48 Y9.66 
G01 X-4.42 Y9.63 
G01 X-4.50 Y9.68 
G01 X-4.57 Y9.75 
G01 X-6.32 Y11.50 
G01 X-6.37 Y11.58 
G01 X-6.34 Y11.52 
G00 Z1.00 
G00 X-4.57 Y20.64 
G01 Z-0.20 F60.00 
G01 X-4.13 Y21.08 F80.00 
G01 X-3.49 Y21.08 
G01 X-3.05 Y20.64 
G01 X-3.05 Y20.00 
G01 X-3.49 Y19.56 
G01 X-4.12 Y19.56 
G01 X-5.60 Y18.08 
G01 X-5.60 Y11.92 
G01 X-5.14 Y11.45 
G01 X-5.14 Y11.46 
G01 X-5.54 Y11.86 
G01 X-5.58 Y11.93 
G01 X-5.60 Y12.00 
G01 X-5.60 Y18.00 
G01 X-5.58 Y18.07 
G01 X-5.54 Y18.14 
G01 X-5.48 Y18.20 
G01 X-4.18 Y19.50 
G01 X-4.12 Y19.54 
G01 X-4.04 Y19.56 
G01 X-3.49 Y19.56 
G01 X-3.05 Y20.00 
G01 X-3.05 Y20.64 
G01 X-3.49 Y21.08 
G01 X-4.13 Y21.08 
G01 X-4.57 Y20.64 
G01 X-4.57 Y20.33 
G01 X-4.59 Y20.25 
G01 X-4.63 Y20.19 
G01 X-4.69 Y20.13 
G01 X-6.21 Y18.61 
G01 X-6.34 Y18.48 
G01 X-6.37 Y18.42 
G01 X-6.32 Y18.50 
G01 X-6.25 Y18.57 
G01 X-4.57 Y20.25 
G01 X-4.57 Y20.64 
G00 Z1.00 
G00 X-6.40 Y18.33 
G01 Z-0.20 F60.00 
G01 X-6.40 Y11.67 F80.00 
G01 X-6.38 Y11.61 
G01 X-6.40 Y11.70 
G01 X-6.40 Y18.30 
G01 X-6.38 Y18.39 
G01 X-6.40 Y18.33 
G00 Z1.00 
G00 X-11.09 Y11.25 
G01 Z-0.20 F60.00 
G01 X-10.62 Y11.73 F80.00 
G01 X-10.62 Y11.76 
G01 X-10.67 Y11.76 
G01 X-10.67 Y11.75 
G01 X-11.11 Y11.30 
G01 X-11.13 Y11.30 
G01 X-11.13 Y11.25 
G01 X-11.09 Y11.25 
G00 Z1.00 
G00 X-12.19 Y11.75 
G01 Z-0.20 F60.00 
G01 X-12.19 Y11.76 F80.00 
G01 X-12.24 Y11.76 
G01 X-12.24 Y11.73 
G01 X-11.77 Y11.25 
G01 X-11.73 Y11.25 
G01 X-11.73 Y11.30 
G01 X-11.75 Y11.30 
G01 X-12.19 Y11.75 
G00 Z1.00 
G00 X-12.19 Y12.38 
G01 Z-0.20 F60.00 
G01 X-11.75 Y12.83 F80.00 
G01 X-11.73 Y12.83 
G01 X-11.73 Y12.88 
G01 X-11.77 Y12.88 
G01 X-12.24 Y12.40 
G01 X-12.24 Y12.37 
G01 X-12.19 Y12.37 
G01 X-12.19 Y12.38 
G00 Z1.00 
G00 X-10.62 Y12.40 
G01 Z-0.20 F60.00 
G01 X-11.09 Y12.88 F80.00 
G01 X-11.13 Y12.88 
G01 X-11.13 Y12.83 
G01 X-11.11 Y12.83 
G01 X-10.67 Y12.38 
G01 X-10.67 Y12.37 
G01 X-10.62 Y12.37 
G01 X-10.62 Y12.40 
G00 Z1.00 
G00 X-14.48 Y8.45 
G01 Z-0.20 F60.00 
G01 X-14.48 Y7.94 F80.00 
G01 X-14.92 Y7.49 
G01 X-15.10 Y7.49 
G01 X-15.10 Y6.20 
G01 X-15.12 Y6.11 
G01 X-15.10 Y6.17 
G01 X-15.10 Y7.23 
G01 X-15.08 Y7.31 
G01 X-15.04 Y7.38 
G01 X-14.98 Y7.44 
G01 X-14.48 Y7.94 
G01 X-14.48 Y8.37 
G01 X-14.46 Y8.44 
G01 X-14.46 Y8.45 
G01 X-14.42 Y8.51 
G01 X-14.36 Y8.57 
G01 X-14.06 Y8.87 
G01 X-13.99 Y8.91 
G01 X-13.92 Y8.93 
G01 X-13.83 Y8.93 
G01 X-13.76 Y8.91 
G01 X-13.69 Y8.87 
G01 X-13.63 Y8.81 
G01 X-10.46 Y5.64 
G01 X-10.42 Y5.57 
G01 X-10.40 Y5.50 
G01 X-10.40 Y4.99 
G01 X-10.40 Y4.98 
G01 X-10.40 Y5.58 
G01 X-13.87 Y9.06 
G01 X-14.48 Y8.45 
G00 Z1.00 
G00 X-10.40 Y4.95 
G01 Z-0.20 F60.00 
G01 X-10.40 Y4.93 F80.00 
G01 X-10.41 Y4.91 
G01 X-10.41 Y4.89 
G01 X-10.42 Y4.87 
G01 X-10.42 Y4.85 
G01 X-10.43 Y4.83 
G01 X-10.44 Y4.81 
G01 X-10.45 Y4.80 
G01 X-10.46 Y4.78 
G01 X-10.48 Y4.77 
G01 X-10.49 Y4.75 
G01 X-10.51 Y4.74 
G01 X-10.52 Y4.72 
G01 X-10.54 Y4.71 
G01 X-10.55 Y4.70 
G01 X-10.57 Y4.69 
G01 X-10.87 Y4.40 
G01 X-10.94 Y4.23 
G01 X-10.87 Y4.36 
G01 X-10.78 Y4.49 
G01 X-10.66 Y4.60 
G01 X-10.53 Y4.70 
G01 X-10.40 Y4.76 
G01 X-10.40 Y4.96 
G01 X-10.40 Y4.95 
G00 Z1.00 
G00 X-9.58 Y4.77 
G01 Z-0.20 F60.00 
G01 X-9.44 Y4.70 F80.00 
G01 X-9.30 Y4.60 
G01 X-9.19 Y4.49 
G01 X-9.09 Y4.36 
G01 X-9.03 Y4.23 
G01 X-9.10 Y4.40 
G01 X-9.39 Y4.69 
G01 X-9.41 Y4.70 
G01 X-9.43 Y4.71 
G01 X-9.45 Y4.72 
G01 X-9.46 Y4.73 
G01 X-9.48 Y4.74 
G01 X-9.49 Y4.75 
G01 X-9.51 Y4.76 
G01 X-9.52 Y4.78 
G01 X-9.54 Y4.80 
G01 X-9.55 Y4.81 
G01 X-9.56 Y4.83 
G01 X-9.57 Y4.85 
G01 X-9.58 Y4.86 
G01 X-9.58 Y4.88 
G01 X-9.59 Y4.90 
G01 X-9.59 Y4.92 
G01 X-9.60 Y4.94 
G01 X-9.60 Y4.96 
G01 X-9.60 Y4.97 
G01 X-9.60 Y4.78 
G01 X-9.58 Y4.77 
G00 Z1.00 
G00 X-9.60 Y5.00 
G01 Z-0.20 F60.00 
G01 X-9.60 Y5.83 F80.00 
G01 X-9.62 Y5.89 
G01 X-9.60 Y5.80 
G01 X-9.60 Y4.99 
G01 X-9.60 Y5.00 
G00 Z1.00 
G00 X-14.73 Y11.75 
G01 Z-0.20 F60.00 
G01 X-14.73 Y12.38 F80.00 
G01 X-14.29 Y12.83 
G01 X-13.65 Y12.83 
G01 X-13.21 Y12.38 
G01 X-13.21 Y11.75 
G01 X-13.35 Y11.61 
G01 X-13.35 Y9.70 
G01 X-13.36 Y9.67 
G01 X-9.75 Y6.07 
G01 X-9.68 Y6.00 
G01 X-9.63 Y5.92 
G01 X-9.66 Y5.98 
G01 X-9.79 Y6.11 
G01 X-9.84 Y6.16 
G01 X-13.29 Y9.61 
G01 X-13.33 Y9.68 
G01 X-13.35 Y9.75 
G01 X-13.35 Y11.52 
G01 X-13.33 Y11.60 
G01 X-13.29 Y11.67 
G01 X-13.23 Y11.73 
G01 X-13.21 Y11.75 
G01 X-13.21 Y12.38 
G01 X-13.65 Y12.83 
G01 X-14.29 Y12.83 
G01 X-14.73 Y12.38 
G01 X-14.73 Y11.75 
G01 X-14.21 Y11.23 
G01 X-14.17 Y11.16 
G01 X-14.15 Y11.08 
G01 X-14.15 Y10.00 
G01 X-14.17 Y9.93 
G01 X-14.21 Y9.86 
G01 X-14.23 Y9.84 
G01 X-14.93 Y9.14 
G01 X-14.98 Y9.09 
G01 X-14.99 Y9.08 
G01 X-15.06 Y9.04 
G01 X-15.14 Y9.02 
G01 X-15.56 Y9.02 
G01 X-16.00 Y8.57 
G01 X-16.00 Y7.94 
G01 X-15.96 Y7.90 
G01 X-15.92 Y7.83 
G01 X-15.90 Y7.75 
G01 X-15.90 Y6.92 
G01 X-15.92 Y6.84 
G01 X-15.96 Y6.77 
G01 X-16.02 Y6.71 
G01 X-16.09 Y6.67 
G01 X-16.17 Y6.65 
G01 X-19.83 Y6.65 
G01 X-19.91 Y6.67 
G01 X-19.98 Y6.71 
G01 X-20.04 Y6.77 
G01 X-20.08 Y6.84 
G01 X-20.10 Y6.92 
G01 X-20.10 Y13.50 
G01 X-20.10 Y13.51 
G01 X-20.10 Y6.65 
G01 X-15.90 Y6.65 
G01 X-15.90 Y7.84 
G01 X-16.00 Y7.94 
G01 X-16.00 Y8.57 
G01 X-15.56 Y9.02 
G01 X-15.05 Y9.02 
G01 X-14.15 Y9.92 
G01 X-14.15 Y11.30 
G01 X-14.29 Y11.30 
G01 X-14.73 Y11.75 
G00 Z1.00 
G00 X-20.10 Y13.54 
G01 Z-0.20 F60.00 
G01 X-20.10 Y13.56 F80.00 
G01 X-20.09 Y13.58 
G01 X-20.09 Y13.60 
G01 X-20.08 Y13.62 
G01 X-20.08 Y13.63 
G01 X-20.07 Y13.65 
G01 X-20.06 Y13.67 
G01 X-20.05 Y13.69 
G01 X-20.04 Y13.70 
G01 X-20.02 Y13.72 
G01 X-20.01 Y13.73 
G01 X-19.99 Y13.75 
G01 X-19.98 Y13.76 
G01 X-19.96 Y13.77 
G01 X-19.95 Y13.78 
G01 X-19.93 Y13.79 
G01 X-19.92 Y13.80 
G01 X-20.06 Y13.74 
G01 X-20.10 Y13.73 
G01 X-20.10 Y13.53 
G01 X-20.10 Y13.54 
G00 Z1.00 
G00 X-21.02 Y14.03 
G01 Z-0.20 F60.00 
G01 X-21.12 Y14.18 F80.00 
G01 X-21.19 Y14.34 
G01 X-21.22 Y14.52 
G01 X-21.22 Y14.69 
G01 X-21.19 Y14.87 
G01 X-21.12 Y15.03 
G01 X-21.02 Y15.18 
G01 X-20.89 Y15.30 
G01 X-20.75 Y15.40 
G01 X-20.58 Y15.47 
G01 X-20.41 Y15.51 
G01 X-20.23 Y15.51 
G01 X-20.06 Y15.47 
G01 X-19.89 Y15.40 
G01 X-19.75 Y15.30 
G01 X-19.62 Y15.18 
G01 X-19.52 Y15.03 
G01 X-19.45 Y14.87 
G01 X-19.42 Y14.69 
G01 X-19.42 Y14.52 
G01 X-19.45 Y14.34 
G01 X-19.52 Y14.18 
G01 X-19.62 Y14.03 
G01 X-19.75 Y13.91 
G01 X-19.89 Y13.81 
G01 X-19.90 Y13.80 
G01 X-19.89 Y13.81 
G01 X-19.81 Y13.84 
G01 X-19.56 Y14.09 
G01 X-19.42 Y14.43 
G01 X-19.42 Y14.78 
G01 X-19.56 Y15.12 
G01 X-19.81 Y15.37 
G01 X-20.14 Y15.51 
G01 X-20.50 Y15.51 
G01 X-20.83 Y15.37 
G01 X-21.08 Y15.12 
G01 X-21.22 Y14.78 
G01 X-21.22 Y14.43 
G01 X-21.08 Y14.09 
G01 X-20.96 Y13.97 
G01 X-20.92 Y13.90 
G01 X-20.90 Y13.83 
G01 X-20.90 Y6.95 
G01 X-20.90 Y6.94 
G01 X-20.90 Y13.91 
G01 X-21.02 Y14.03 
G00 Z1.00 
G00 X-20.90 Y6.91 
G01 Z-0.20 F60.00 
G01 X-20.90 Y6.89 F80.00 
G01 X-20.91 Y6.87 
G01 X-20.91 Y6.85 
G01 X-20.92 Y6.83 
G01 X-20.92 Y6.81 
G01 X-20.93 Y6.79 
G01 X-20.94 Y6.78 
G01 X-20.95 Y6.76 
G01 X-20.96 Y6.74 
G01 X-20.98 Y6.73 
G01 X-20.99 Y6.71 
G01 X-21.01 Y6.70 
G01 X-21.02 Y6.69 
G01 X-21.04 Y6.68 
G01 X-21.05 Y6.66 
G01 X-21.07 Y6.66 
G01 X-21.09 Y6.65 
G01 X-21.11 Y6.64 
G01 X-21.14 Y6.63 
G01 X-21.05 Y6.65 
G01 X-20.90 Y6.65 
G01 X-20.90 Y6.92 
G01 X-20.90 Y6.91 
G00 Z1.00 
G00 X-18.54 Y7.94 
G01 Z-0.20 F60.00 
G01 X-18.54 Y8.47 F80.00 
G01 X-18.57 Y8.50 
G01 X-18.62 Y8.58 
G01 X-18.58 Y8.49 
G01 X-18.56 Y8.47 
G01 X-18.56 Y8.44 
G01 X-18.55 Y8.43 
G01 X-18.55 Y8.42 
G01 X-18.54 Y8.39 
G01 X-18.54 Y8.35 
G01 X-18.54 Y8.35 
G01 X-18.54 Y8.35 
G01 X-18.54 Y7.94 
G01 X-18.10 Y7.49 
G01 X-17.46 Y7.49 
G01 X-17.02 Y7.94 
G01 X-17.02 Y8.57 
G01 X-17.46 Y9.02 
G01 X-17.58 Y9.02 
G01 X-17.66 Y9.04 
G01 X-17.73 Y9.08 
G01 X-17.79 Y9.14 
G01 X-17.83 Y9.20 
G01 X-17.85 Y9.28 
G01 X-17.85 Y17.08 
G01 X-17.87 Y17.14 
G01 X-17.85 Y17.05 
G01 X-17.85 Y9.02 
G01 X-17.46 Y9.02 
G01 X-17.02 Y8.57 
G01 X-17.02 Y7.94 
G01 X-17.46 Y7.49 
G01 X-18.10 Y7.49 
G01 X-18.54 Y7.94 
G00 Z1.00 
G00 X-21.84 Y20.02 
G01 Z-0.20 F60.00 
G01 X-21.66 Y19.84 F80.00 
G01 X-18.71 Y16.89 
G01 X-18.67 Y16.82 
G01 X-18.65 Y16.75 
G01 X-18.65 Y8.67 
G01 X-18.63 Y8.61 
G01 X-18.65 Y8.70 
G01 X-18.65 Y16.83 
G01 X-21.75 Y19.93 
G01 X-21.82 Y20.00 
G01 X-21.87 Y20.08 
G01 X-21.84 Y20.02 
G00 Z1.00 
G00 X-17.91 Y17.23 
G01 Z-0.20 F60.00 
G01 X-21.04 Y20.36 F80.00 
G01 X-21.08 Y20.43 
G01 X-21.10 Y20.50 
G01 X-21.10 Y20.61 
G01 X-21.10 Y20.62 
G01 X-21.10 Y20.42 
G01 X-17.93 Y17.25 
G01 X-17.88 Y17.17 
G01 X-17.91 Y17.23 
G00 Z1.00 
G00 X-21.10 Y20.65 
G01 Z-0.20 F60.00 
G01 X-21.10 Y20.67 F80.00 
G01 X-21.09 Y20.69 
G01 X-21.09 Y20.71 
G01 X-21.08 Y20.73 
G01 X-21.08 Y20.75 
G01 X-21.07 Y20.77 
G01 X-21.06 Y20.78 
G01 X-21.05 Y20.80 
G01 X-21.04 Y20.82 
G01 X-21.02 Y20.83 
G01 X-21.01 Y20.85 
G01 X-20.99 Y20.86 
G01 X-20.98 Y20.87 
G01 X-20.96 Y20.88 
G01 X-20.95 Y20.90 
G01 X-20.93 Y20.90 
G01 X-20.91 Y20.91 
G01 X-20.89 Y20.92 
G01 X-20.87 Y20.93 
G01 X-20.85 Y20.93 
G01 X-20.83 Y20.94 
G01 X-20.81 Y20.94 
G01 X-20.79 Y20.94 
G01 X-20.77 Y20.94 
G01 X-20.75 Y20.94 
G01 X-20.73 Y20.93 
G01 X-20.71 Y20.93 
G01 X-20.70 Y20.92 
G01 X-20.68 Y20.92 
G01 X-20.81 Y21.00 
G01 X-20.91 Y21.10 
G01 X-20.99 Y21.23 
G01 X-21.05 Y21.37 
G01 X-21.08 Y21.52 
G01 X-21.08 Y21.66 
G01 X-21.05 Y21.81 
G01 X-20.99 Y21.95 
G01 X-20.91 Y22.08 
G01 X-20.81 Y22.18 
G01 X-20.68 Y22.26 
G01 X-20.70 Y22.26 
G01 X-20.71 Y22.25 
G01 X-20.73 Y22.25 
G01 X-20.75 Y22.24 
G01 X-20.77 Y22.24 
G01 X-20.79 Y22.24 
G01 X-20.81 Y22.24 
G01 X-20.83 Y22.24 
G01 X-20.85 Y22.25 
G01 X-20.87 Y22.25 
G01 X-20.89 Y22.26 
G01 X-20.91 Y22.27 
G01 X-20.93 Y22.28 
G01 X-20.95 Y22.28 
G01 X-20.96 Y22.30 
G01 X-20.98 Y22.31 
G01 X-20.99 Y22.32 
G01 X-21.01 Y22.33 
G01 X-21.02 Y22.35 
G01 X-21.04 Y22.36 
G01 X-21.05 Y22.38 
G01 X-21.06 Y22.40 
G01 X-21.07 Y22.41 
G01 X-21.08 Y22.43 
G01 X-21.08 Y22.45 
G01 X-21.09 Y22.47 
G01 X-21.09 Y22.49 
G01 X-21.10 Y22.51 
G01 X-21.10 Y22.53 
G01 X-21.10 Y22.54 
G01 X-21.10 Y20.64 
G01 X-21.10 Y20.65 
G00 Z1.00 
G00 X-21.10 Y22.57 
G01 Z-0.20 F60.00 
G01 X-21.10 Y24.33 F80.00 
G01 X-21.12 Y24.39 
G01 X-21.10 Y24.30 
G01 X-21.10 Y22.56 
G01 X-21.10 Y22.57 
G00 Z1.00 
G00 X-19.60 Y21.84 
G01 Z-0.20 F60.00 
G01 X-19.59 Y21.81 F80.00 
G01 X-19.56 Y21.66 
G01 X-19.56 Y21.52 
G01 X-19.59 Y21.37 
G01 X-19.65 Y21.23 
G01 X-19.73 Y21.10 
G01 X-19.83 Y21.00 
G01 X-19.96 Y20.92 
G01 X-20.10 Y20.86 
G01 X-20.25 Y20.83 
G01 X-20.39 Y20.83 
G01 X-20.54 Y20.86 
G01 X-20.67 Y20.91 
G01 X-20.66 Y20.90 
G01 X-20.47 Y20.83 
G01 X-20.17 Y20.83 
G01 X-19.89 Y20.94 
G01 X-19.67 Y21.16 
G01 X-19.56 Y21.44 
G01 X-19.56 Y21.79 
G01 X-19.54 Y21.87 
G01 X-19.50 Y21.93 
G01 X-18.39 Y23.04 
G01 X-18.32 Y23.08 
G01 X-18.25 Y23.10 
G01 X-17.92 Y23.10 
G01 X-17.84 Y23.08 
G01 X-17.77 Y23.04 
G01 X-17.71 Y22.98 
G01 X-17.67 Y22.91 
G01 X-17.65 Y22.83 
G01 X-17.65 Y22.62 
G01 X-17.67 Y22.54 
G01 X-17.71 Y22.47 
G01 X-17.77 Y22.41 
G01 X-17.84 Y22.37 
G01 X-17.92 Y22.35 
G01 X-17.93 Y22.35 
G01 X-18.21 Y22.24 
G01 X-18.43 Y22.02 
G01 X-18.54 Y21.74 
G01 X-18.54 Y21.44 
G01 X-18.43 Y21.16 
G01 X-18.21 Y20.94 
G01 X-17.93 Y20.83 
G01 X-17.63 Y20.83 
G01 X-17.35 Y20.94 
G01 X-17.13 Y21.16 
G01 X-17.02 Y21.44 
G01 X-17.02 Y21.58 
G01 X-17.00 Y21.66 
G01 X-16.96 Y21.72 
G01 X-16.91 Y21.77 
G01 X-16.88 Y21.83 
G01 X-16.93 Y21.75 
G01 X-17.02 Y21.66 
G01 X-17.02 Y21.52 
G01 X-17.05 Y21.37 
G01 X-17.11 Y21.23 
G01 X-17.19 Y21.10 
G01 X-17.29 Y21.00 
G01 X-17.42 Y20.92 
G01 X-17.56 Y20.86 
G01 X-17.71 Y20.83 
G01 X-17.85 Y20.83 
G01 X-18.00 Y20.86 
G01 X-18.14 Y20.92 
G01 X-18.27 Y21.00 
G01 X-18.37 Y21.10 
G01 X-18.45 Y21.23 
G01 X-18.51 Y21.37 
G01 X-18.54 Y21.52 
G01 X-18.54 Y21.66 
G01 X-18.51 Y21.81 
G01 X-18.45 Y21.95 
G01 X-18.37 Y22.08 
G01 X-18.27 Y22.18 
G01 X-18.14 Y22.26 
G01 X-18.00 Y22.32 
G01 X-17.85 Y22.35 
G01 X-17.71 Y22.35 
G01 X-17.65 Y22.34 
G01 X-17.65 Y23.10 
G01 X-18.33 Y23.10 
G01 X-19.60 Y21.84 
G00 Z1.00 
G00 X-17.65 Y24.33 
G01 Z-0.20 F60.00 
G01 X-17.65 Y24.17 F80.00 
G01 X-17.67 Y24.09 
G01 X-17.71 Y24.02 
G01 X-17.77 Y23.96 
G01 X-17.84 Y23.92 
G01 X-17.92 Y23.90 
G01 X-18.58 Y23.90 
G01 X-18.64 Y23.88 
G01 X-18.55 Y23.90 
G01 X-17.65 Y23.90 
G01 X-17.65 Y24.30 
G01 X-17.63 Y24.39 
G01 X-17.65 Y24.33 
G00 Z1.00 
G00 X-18.73 Y23.84 
G01 Z-0.20 F60.00 
G01 X-18.91 Y23.66 F80.00 
G01 X-18.91 Y23.66 
G01 X-20.10 Y22.47 
G01 X-20.16 Y22.41 
G01 X-20.22 Y22.37 
G01 X-20.30 Y22.35 
G01 X-20.47 Y22.35 
G01 X-20.66 Y22.28 
G01 X-20.67 Y22.27 
G01 X-20.54 Y22.32 
G01 X-20.39 Y22.35 
G01 X-20.25 Y22.35 
G01 X-20.22 Y22.35 
G01 X-18.75 Y23.82 
G01 X-18.67 Y23.87 
G01 X-18.73 Y23.84 
G00 Z1.00 
G00 X-12.19 Y23.81 
G01 Z-0.20 F60.00 
G01 X-12.19 Y23.85 F80.00 
G01 X-16.85 Y23.85 
G01 X-16.85 Y21.95 
G01 X-16.87 Y21.86 
G01 X-16.85 Y21.92 
G01 X-16.85 Y23.58 
G01 X-16.83 Y23.66 
G01 X-16.79 Y23.73 
G01 X-16.73 Y23.79 
G01 X-16.66 Y23.83 
G01 X-16.58 Y23.85 
G01 X-12.31 Y23.85 
G01 X-12.23 Y23.83 
G01 X-12.17 Y23.79 
G01 X-12.11 Y23.73 
G01 X-11.75 Y23.37 
G01 X-11.11 Y23.37 
G01 X-10.67 Y23.81 
G01 X-10.67 Y24.45 
G01 X-11.11 Y24.89 
G01 X-11.75 Y24.89 
G01 X-11.93 Y24.71 
G01 X-11.99 Y24.67 
G01 X-12.07 Y24.65 
G01 X-17.33 Y24.65 
G01 X-17.39 Y24.63 
G01 X-17.30 Y24.65 
G01 X-11.99 Y24.65 
G01 X-11.75 Y24.89 
G01 X-11.11 Y24.89 
G01 X-10.67 Y24.45 
G01 X-10.67 Y23.81 
G01 X-11.11 Y23.37 
G01 X-11.75 Y23.37 
G01 X-12.19 Y23.81 
G00 Z1.00 
G00 X-17.48 Y24.59 
G01 Z-0.20 F60.00 
G01 X-17.59 Y24.48 F80.00 
G01 X-17.62 Y24.42 
G01 X-17.57 Y24.50 
G01 X-17.50 Y24.57 
G01 X-17.42 Y24.62 
G01 X-17.48 Y24.59 
G00 Z1.00 
G00 X-25.71 Y22.34 
G01 Z-0.20 F60.00 
G01 X-25.83 Y22.29 F80.00 
G01 X-25.93 Y22.21 
G01 X-26.02 Y22.12 
G01 X-26.10 Y22.02 
G01 X-26.15 Y21.90 
G01 X-26.16 Y21.89 
G01 X-26.10 Y21.89 
G01 X-26.07 Y21.95 
G01 X-25.99 Y22.08 
G01 X-25.89 Y22.18 
G01 X-25.76 Y22.26 
G01 X-25.70 Y22.29 
G01 X-25.70 Y22.35 
G01 X-25.71 Y22.34 
G00 Z1.00 
G00 X-24.78 Y22.12 
G01 Z-0.20 F60.00 
G01 X-24.87 Y22.21 F80.00 
G01 X-24.97 Y22.29 
G01 X-25.09 Y22.34 
G01 X-25.10 Y22.35 
G01 X-25.10 Y22.29 
G01 X-25.04 Y22.26 
G01 X-24.91 Y22.18 
G01 X-24.81 Y22.08 
G01 X-24.73 Y21.95 
G01 X-24.70 Y21.89 
G01 X-24.64 Y21.89 
G01 X-24.65 Y21.90 
G01 X-24.70 Y22.02 
G01 X-24.78 Y22.12 
G00 Z1.00 
G00 X-24.73 Y21.23 
G01 Z-0.20 F60.00 
G01 X-24.81 Y21.10 F80.00 
G01 X-24.91 Y21.00 
G01 X-25.04 Y20.92 
G01 X-25.10 Y20.89 
G01 X-25.10 Y20.83 
G01 X-25.09 Y20.84 
G01 X-24.97 Y20.89 
G01 X-24.87 Y20.97 
G01 X-24.78 Y21.06 
G01 X-24.70 Y21.16 
G01 X-24.65 Y21.28 
G01 X-24.64 Y21.29 
G01 X-24.70 Y21.29 
G01 X-24.73 Y21.23 
G00 Z1.00 
G00 X-26.15 Y21.28 
G01 Z-0.20 F60.00 
G01 X-26.10 Y21.16 F80.00 
G01 X-26.02 Y21.06 
G01 X-25.93 Y20.97 
G01 X-25.83 Y20.89 
G01 X-25.71 Y20.84 
G01 X-25.70 Y20.83 
G01 X-25.70 Y20.89 
G01 X-25.76 Y20.92 
G01 X-25.89 Y21.00 
G01 X-25.99 Y21.10 
G01 X-26.07 Y21.23 
G01 X-26.10 Y21.29 
G01 X-26.16 Y21.29 
G01 X-26.15 Y21.28 
G00 Z1.00 
G00 X-21.84 Y40.52 
G01 Z-0.20 F60.00 
G01 X-21.73 Y40.41 F80.00 
G01 X-21.67 Y40.38 
G01 X-21.75 Y40.43 
G01 X-21.82 Y40.50 
G01 X-21.87 Y40.58 
G01 X-21.84 Y40.52 
G00 Z1.00 
G00 X-4.21 Y5.87 
G01 Z-0.20 F60.00 
G01 X-4.05 Y5.92 F80.00 
G01 X-3.89 Y5.94 
G01 X-3.73 Y5.94 
G01 X-3.57 Y5.92 
G01 X-3.43 Y5.87 
G01 X-3.60 Y5.94 
G01 X-4.02 Y5.94 
G01 X-4.06 Y5.92 
G01 X-4.08 Y5.91 
G01 X-4.10 Y5.91 
G01 X-4.12 Y5.90 
G01 X-4.14 Y5.90 
G01 X-4.16 Y5.89 
G01 X-4.18 Y5.89 
G01 X-4.20 Y5.89 
G01 X-4.22 Y5.89 
G01 X-4.24 Y5.89 
G01 X-4.26 Y5.90 
G01 X-4.28 Y5.90 
G01 X-4.30 Y5.91 
G01 X-4.32 Y5.91 
G01 X-4.33 Y5.92 
G01 X-4.35 Y5.93 
G01 X-4.37 Y5.94 
G01 X-4.39 Y5.95 
G01 X-4.40 Y5.97 
G01 X-4.41 Y5.97 
G01 X-4.27 Y5.84 
G01 X-4.21 Y5.87 
G00 Z1.00 
G00 X-9.84 Y10.27 
G01 Z-0.20 F60.00 
G01 X-9.66 Y10.09 F80.00 
G01 X-4.91 Y5.34 
G01 X-4.87 Y5.27 
G01 X-4.85 Y5.20 
G01 X-4.85 Y4.69 
G01 X-4.78 Y4.53 
G01 X-4.83 Y4.66 
G01 X-4.85 Y4.82 
G01 X-4.85 Y4.98 
G01 X-4.83 Y5.15 
G01 X-4.80 Y5.23 
G01 X-9.75 Y10.18 
G01 X-9.82 Y10.25 
G01 X-9.87 Y10.33 
G01 X-9.84 Y10.27 
G00 Z1.00 
G00 X-13.09 Y16.77 
G01 Z-0.20 F60.00 
G01 X-12.91 Y16.59 F80.00 
G01 X-12.91 Y16.59 
G01 X-9.96 Y13.64 
G01 X-9.92 Y13.57 
G01 X-9.90 Y13.50 
G01 X-9.90 Y10.42 
G01 X-9.88 Y10.36 
G01 X-9.90 Y10.45 
G01 X-9.90 Y13.58 
G01 X-13.00 Y16.68 
G01 X-13.07 Y16.75 
G01 X-13.12 Y16.83 
G01 X-13.09 Y16.77 
G00 Z1.00 
G00 X-14.84 Y28.27 
G01 Z-0.20 F60.00 
G01 X-14.73 Y28.16 F80.00 
G01 X-14.67 Y28.13 
G01 X-14.75 Y28.18 
G01 X-14.82 Y28.25 
G01 X-14.87 Y28.33 
G01 X-14.84 Y28.27 
G00 Z1.00 
G00 X-14.58 Y28.10 
G01 Z-0.20 F60.00 
G01 X-11.00 Y28.10 F80.00 
G01 X-10.93 Y28.08 
G01 X-10.86 Y28.04 
G01 X-10.80 Y27.98 
G01 X-9.96 Y27.14 
G01 X-9.92 Y27.07 
G01 X-9.90 Y27.00 
G01 X-9.90 Y23.75 
G01 X-9.92 Y23.68 
G01 X-9.96 Y23.61 
G01 X-10.02 Y23.55 
G01 X-13.09 Y20.48 
G01 X-13.12 Y20.42 
G01 X-13.07 Y20.50 
G01 X-9.90 Y23.67 
G01 X-9.90 Y27.08 
G01 X-10.92 Y28.10 
G01 X-14.55 Y28.10 
G01 X-14.64 Y28.12 
G01 X-14.58 Y28.10 
G00 Z1.00 
G00 X-13.15 Y20.33 
G01 Z-0.20 F60.00 
G01 X-13.15 Y19.44 F80.00 
G01 X-13.17 Y19.38 
G01 X-13.17 Y19.36 
G01 X-13.19 Y19.33 
G01 X-13.21 Y19.30 
G01 X-13.27 Y19.24 
G01 X-13.31 Y19.22 
G01 X-13.34 Y19.20 
G01 X-13.35 Y19.19 
G01 X-13.42 Y19.18 
G01 X-13.50 Y19.18 
G01 X-13.56 Y19.19 
G01 X-13.57 Y19.20 
G01 X-13.61 Y19.22 
G01 X-13.63 Y19.23 
G01 X-13.67 Y19.23 
G01 X-13.67 Y19.18 
G01 X-13.65 Y19.18 
G01 X-13.21 Y18.73 
G01 X-13.21 Y18.10 
G01 X-13.65 Y17.65 
G01 X-13.67 Y17.65 
G01 X-13.67 Y17.60 
G01 X-13.63 Y17.60 
G01 X-13.61 Y17.61 
G01 X-13.57 Y17.63 
G01 X-13.56 Y17.64 
G01 X-13.50 Y17.65 
G01 X-13.42 Y17.65 
G01 X-13.36 Y17.64 
G01 X-13.34 Y17.63 
G01 X-13.31 Y17.61 
G01 X-13.27 Y17.59 
G01 X-13.21 Y17.53 
G01 X-13.19 Y17.50 
G01 X-13.17 Y17.47 
G01 X-13.17 Y17.45 
G01 X-13.15 Y17.39 
G01 X-13.15 Y16.92 
G01 X-13.13 Y16.86 
G01 X-13.15 Y16.95 
G01 X-13.15 Y20.30 
G01 X-13.13 Y20.39 
G01 X-13.15 Y20.33 
G00 Z1.00 
G00 X-4.42 Y5.99 
G01 Z-0.20 F60.00 
G01 X-4.43 Y6.00 F80.00 
G01 X-9.04 Y10.61 
G01 X-9.08 Y10.68 
G01 X-9.10 Y10.75 
G01 X-9.10 Y13.83 
G01 X-9.12 Y13.89 
G01 X-9.10 Y13.80 
G01 X-9.10 Y10.67 
G01 X-4.42 Y5.99 
G00 Z1.00 
G00 X-22.66 Y31.73 
G01 Z-0.20 F60.00 
G01 X-22.80 Y31.87 F80.00 
G01 X-23.42 Y32.49 
G01 X-23.43 Y32.50 
G01 X-22.75 Y31.82 
G01 X-22.68 Y31.75 
G01 X-22.63 Y31.67 
G01 X-22.66 Y31.73 
G00 Z1.00 
G00 X-26.39 Y33.87 
G01 Z-0.20 F60.00 
G01 X-26.39 Y34.07 F80.00 
G01 X-26.35 Y34.26 
G01 X-26.28 Y34.44 
G01 X-26.17 Y34.60 
G01 X-26.03 Y34.74 
G01 X-25.87 Y34.85 
G01 X-25.69 Y34.92 
G01 X-25.50 Y34.96 
G01 X-25.30 Y34.96 
G01 X-25.11 Y34.92 
G01 X-24.93 Y34.85 
G01 X-24.77 Y34.74 
G01 X-24.63 Y34.60 
G01 X-24.52 Y34.44 
G01 X-24.45 Y34.26 
G01 X-24.41 Y34.07 
G01 X-24.41 Y33.87 
G01 X-24.45 Y33.68 
G01 X-24.50 Y33.56 
G01 X-23.44 Y32.51 
G01 X-23.45 Y32.52 
G01 X-23.46 Y32.53 
G01 X-23.47 Y32.55 
G01 X-23.49 Y32.57 
G01 X-23.49 Y32.59 
G01 X-23.50 Y32.60 
G01 X-23.51 Y32.62 
G01 X-23.52 Y32.64 
G01 X-23.52 Y32.66 
G01 X-23.53 Y32.68 
G01 X-23.53 Y32.70 
G01 X-23.53 Y32.72 
G01 X-23.53 Y32.74 
G01 X-23.53 Y32.76 
G01 X-23.52 Y32.78 
G01 X-23.52 Y32.80 
G01 X-23.51 Y32.82 
G01 X-23.50 Y32.84 
G01 X-23.49 Y32.85 
G01 X-23.49 Y32.87 
G01 X-23.47 Y32.89 
G01 X-23.46 Y32.91 
G01 X-23.45 Y32.92 
G01 X-23.44 Y32.94 
G01 X-23.42 Y32.95 
G01 X-23.41 Y32.96 
G01 X-23.39 Y32.97 
G01 X-23.37 Y32.99 
G01 X-23.36 Y32.99 
G01 X-23.34 Y33.00 
G01 X-23.32 Y33.01 
G01 X-23.30 Y33.02 
G01 X-23.28 Y33.02 
G01 X-23.26 Y33.02 
G01 X-23.24 Y33.02 
G01 X-23.22 Y33.03 
G01 X-23.20 Y33.02 
G01 X-23.18 Y33.02 
G01 X-23.16 Y33.02 
G01 X-23.14 Y33.02 
G01 X-23.12 Y33.01 
G01 X-23.10 Y33.00 
G01 X-23.09 Y32.99 
G01 X-23.06 Y32.98 
G01 X-22.66 Y32.98 
G01 X-22.30 Y33.13 
G01 X-22.02 Y33.41 
G01 X-22.02 Y33.41 
G01 X-22.01 Y33.43 
G01 X-22.00 Y33.45 
G01 X-21.99 Y33.46 
G01 X-21.98 Y33.48 
G01 X-21.97 Y33.49 
G01 X-21.96 Y33.51 
G01 X-21.94 Y33.52 
G01 X-21.93 Y33.54 
G01 X-21.91 Y33.55 
G01 X-21.89 Y33.56 
G01 X-21.87 Y33.57 
G01 X-21.86 Y33.58 
G01 X-21.84 Y33.58 
G01 X-21.82 Y33.59 
G01 X-21.80 Y33.59 
G01 X-21.78 Y33.60 
G01 X-21.76 Y33.60 
G01 X-21.75 Y33.60 
G01 X-21.94 Y33.60 
G01 X-21.98 Y33.50 
G01 X-22.09 Y33.34 
G01 X-22.23 Y33.20 
G01 X-22.39 Y33.10 
G01 X-22.57 Y33.02 
G01 X-22.76 Y32.98 
G01 X-22.96 Y32.98 
G01 X-23.15 Y33.02 
G01 X-23.33 Y33.10 
G01 X-23.49 Y33.20 
G01 X-23.63 Y33.34 
G01 X-23.74 Y33.50 
G01 X-23.81 Y33.68 
G01 X-23.85 Y33.87 
G01 X-23.85 Y34.07 
G01 X-23.81 Y34.26 
G01 X-23.74 Y34.44 
G01 X-23.63 Y34.60 
G01 X-23.49 Y34.74 
G01 X-23.33 Y34.85 
G01 X-23.15 Y34.92 
G01 X-22.96 Y34.96 
G01 X-22.76 Y34.96 
G01 X-22.57 Y34.92 
G01 X-22.39 Y34.85 
G01 X-22.23 Y34.74 
G01 X-22.09 Y34.60 
G01 X-21.98 Y34.44 
G01 X-21.97 Y34.40 
G01 X-21.21 Y34.40 
G01 X-21.20 Y34.44 
G01 X-21.09 Y34.60 
G01 X-20.95 Y34.74 
G01 X-20.79 Y34.85 
G01 X-20.61 Y34.92 
G01 X-20.42 Y34.96 
G01 X-20.22 Y34.96 
G01 X-20.03 Y34.92 
G01 X-19.85 Y34.85 
G01 X-19.69 Y34.74 
G01 X-19.55 Y34.60 
G01 X-19.44 Y34.44 
G01 X-19.37 Y34.26 
G01 X-19.33 Y34.07 
G01 X-19.33 Y33.87 
G01 X-19.37 Y33.68 
G01 X-19.44 Y33.50 
G01 X-19.55 Y33.34 
G01 X-19.69 Y33.20 
G01 X-19.85 Y33.10 
G01 X-19.90 Y33.07 
G01 X-19.89 Y33.08 
G01 X-19.76 Y33.13 
G01 X-19.48 Y33.41 
G01 X-19.33 Y33.78 
G01 X-19.33 Y34.17 
G01 X-19.48 Y34.53 
G01 X-19.76 Y34.81 
G01 X-20.12 Y34.96 
G01 X-20.52 Y34.96 
G01 X-20.88 Y34.81 
G01 X-21.23 Y34.46 
G01 X-21.30 Y34.42 
G01 X-21.38 Y34.40 
G01 X-21.80 Y34.40 
G01 X-21.88 Y34.42 
G01 X-21.95 Y34.46 
G01 X-22.01 Y34.52 
G01 X-22.30 Y34.81 
G01 X-22.66 Y34.96 
G01 X-23.06 Y34.96 
G01 X-23.42 Y34.81 
G01 X-23.70 Y34.53 
G01 X-23.83 Y34.21 
G01 X-23.86 Y34.14 
G01 X-23.91 Y34.07 
G01 X-23.98 Y34.03 
G01 X-24.05 Y34.00 
G01 X-24.13 Y33.98 
G01 X-24.21 Y34.00 
G01 X-24.28 Y34.03 
G01 X-24.35 Y34.07 
G01 X-24.40 Y34.14 
G01 X-24.56 Y34.53 
G01 X-24.84 Y34.81 
G01 X-25.20 Y34.96 
G01 X-25.60 Y34.96 
G01 X-25.96 Y34.81 
G01 X-26.24 Y34.53 
G01 X-26.39 Y34.17 
G01 X-26.39 Y33.78 
G01 X-26.24 Y33.41 
G01 X-25.96 Y33.13 
G01 X-25.60 Y32.98 
G01 X-25.14 Y32.98 
G01 X-25.06 Y32.96 
G01 X-25.06 Y32.96 
G01 X-24.99 Y32.92 
G01 X-24.93 Y32.86 
G01 X-23.52 Y31.45 
G01 X-23.46 Y31.39 
G01 X-23.42 Y31.32 
G01 X-23.40 Y31.25 
G01 X-23.40 Y29.83 
G01 X-23.42 Y29.78 
G01 X-23.42 Y29.75 
G01 X-23.43 Y29.75 
G01 X-23.46 Y29.69 
G01 X-23.51 Y29.64 
G01 X-23.62 Y29.36 
G01 X-23.62 Y29.06 
G01 X-23.51 Y28.78 
G01 X-23.28 Y28.55 
G01 X-23.27 Y28.55 
G01 X-23.26 Y28.53 
G01 X-23.24 Y28.52 
G01 X-23.23 Y28.50 
G01 X-23.21 Y28.49 
G01 X-23.20 Y28.47 
G01 X-23.19 Y28.46 
G01 X-23.18 Y28.44 
G01 X-23.17 Y28.42 
G01 X-23.17 Y28.40 
G01 X-23.16 Y28.38 
G01 X-23.16 Y28.36 
G01 X-23.15 Y28.34 
G01 X-23.15 Y28.32 
G01 X-23.15 Y28.31 
G01 X-23.15 Y28.51 
G01 X-23.22 Y28.54 
G01 X-23.35 Y28.62 
G01 X-23.45 Y28.72 
G01 X-23.53 Y28.85 
G01 X-23.59 Y28.99 
G01 X-23.62 Y29.14 
G01 X-23.62 Y29.28 
G01 X-23.59 Y29.43 
G01 X-23.53 Y29.57 
G01 X-23.45 Y29.70 
G01 X-23.40 Y29.75 
G01 X-23.40 Y31.33 
G01 X-25.09 Y33.03 
G01 X-25.11 Y33.02 
G01 X-25.30 Y32.98 
G01 X-25.50 Y32.98 
G01 X-25.69 Y33.02 
G01 X-25.87 Y33.10 
G01 X-26.03 Y33.20 
G01 X-26.17 Y33.34 
G01 X-26.28 Y33.50 
G01 X-26.35 Y33.68 
G01 X-26.39 Y33.87 
G00 Z1.00 
G00 X-22.50 Y29.88 
G01 Z-0.20 F60.00 
G01 X-22.37 Y29.80 F80.00 
G01 X-22.27 Y29.70 
G01 X-22.19 Y29.57 
G01 X-22.13 Y29.43 
G01 X-22.10 Y29.28 
G01 X-22.10 Y29.14 
G01 X-22.13 Y28.99 
G01 X-22.19 Y28.85 
G01 X-22.27 Y28.72 
G01 X-22.35 Y28.64 
G01 X-22.35 Y27.15 
G01 X-12.03 Y27.15 
G01 X-11.75 Y27.43 
G01 X-11.11 Y27.43 
G01 X-10.67 Y26.99 
G01 X-10.67 Y26.35 
G01 X-11.11 Y25.91 
G01 X-11.75 Y25.91 
G01 X-12.19 Y26.35 
G01 X-22.80 Y26.35 
G01 X-22.90 Y26.38 
G01 X-23.00 Y26.43 
G01 X-23.07 Y26.50 
G01 X-23.12 Y26.60 
G01 X-23.15 Y26.70 
G01 X-23.15 Y28.29 
G01 X-23.15 Y28.28 
G01 X-23.15 Y27.17 
G01 X-23.17 Y27.09 
G01 X-23.17 Y27.09 
G01 X-23.21 Y27.02 
G01 X-23.27 Y26.96 
G01 X-23.34 Y26.92 
G01 X-23.42 Y26.90 
G01 X-23.50 Y26.90 
G01 X-23.57 Y26.92 
G01 X-23.57 Y26.92 
G01 X-23.64 Y26.96 
G01 X-23.70 Y27.02 
G01 X-24.79 Y28.11 
G01 X-24.83 Y28.18 
G01 X-24.85 Y28.25 
G01 X-24.85 Y28.60 
G01 X-24.83 Y28.66 
G01 X-24.83 Y28.68 
G01 X-24.80 Y28.73 
G01 X-24.79 Y28.74 
G01 X-24.75 Y28.78 
G01 X-24.64 Y29.06 
G01 X-24.64 Y29.36 
G01 X-24.75 Y29.64 
G01 X-24.97 Y29.86 
G01 X-25.25 Y29.97 
G01 X-25.55 Y29.97 
G01 X-25.83 Y29.86 
G01 X-26.05 Y29.64 
G01 X-26.16 Y29.36 
G01 X-26.16 Y29.06 
G01 X-26.05 Y28.78 
G01 X-25.84 Y28.57 
G01 X-25.82 Y28.56 
G01 X-25.80 Y28.55 
G01 X-25.79 Y28.54 
G01 X-25.77 Y28.53 
G01 X-25.76 Y28.51 
G01 X-25.74 Y28.50 
G01 X-25.73 Y28.49 
G01 X-25.71 Y28.47 
G01 X-25.70 Y28.46 
G01 X-25.69 Y28.44 
G01 X-25.68 Y28.42 
G01 X-25.67 Y28.40 
G01 X-25.67 Y28.38 
G01 X-25.66 Y28.37 
G01 X-25.66 Y28.35 
G01 X-25.65 Y28.33 
G01 X-25.65 Y28.31 
G01 X-25.65 Y28.30 
G01 X-25.65 Y28.49 
G01 X-25.76 Y28.54 
G01 X-25.89 Y28.62 
G01 X-25.99 Y28.72 
G01 X-26.07 Y28.85 
G01 X-26.13 Y28.99 
G01 X-26.16 Y29.14 
G01 X-26.16 Y29.28 
G01 X-26.13 Y29.43 
G01 X-26.07 Y29.57 
G01 X-25.99 Y29.70 
G01 X-25.89 Y29.80 
G01 X-25.76 Y29.88 
G01 X-25.62 Y29.94 
G01 X-25.47 Y29.97 
G01 X-25.33 Y29.97 
G01 X-25.18 Y29.94 
G01 X-25.04 Y29.88 
G01 X-24.91 Y29.80 
G01 X-24.81 Y29.70 
G01 X-24.73 Y29.57 
G01 X-24.67 Y29.43 
G01 X-24.64 Y29.28 
G01 X-24.64 Y29.14 
G01 X-24.67 Y28.99 
G01 X-24.73 Y28.85 
G01 X-24.81 Y28.72 
G01 X-24.85 Y28.68 
G01 X-24.85 Y28.17 
G01 X-21.18 Y24.50 
G01 X-21.13 Y24.42 
G01 X-21.16 Y24.48 
G01 X-22.48 Y25.80 
G01 X-22.52 Y25.83 
G01 X-22.54 Y25.86 
G01 X-22.58 Y25.93 
G01 X-22.60 Y26.00 
G01 X-22.60 Y26.08 
G01 X-22.58 Y26.16 
G01 X-22.54 Y26.23 
G01 X-22.48 Y26.29 
G01 X-22.41 Y26.33 
G01 X-22.33 Y26.35 
G01 X-12.27 Y26.35 
G01 X-12.19 Y26.33 
G01 X-12.13 Y26.29 
G01 X-12.07 Y26.23 
G01 X-11.75 Y25.91 
G01 X-11.11 Y25.91 
G01 X-10.67 Y26.35 
G01 X-10.67 Y26.99 
G01 X-11.11 Y27.43 
G01 X-11.75 Y27.43 
G01 X-11.97 Y27.21 
G01 X-12.03 Y27.17 
G01 X-12.11 Y27.15 
G01 X-22.08 Y27.15 
G01 X-22.16 Y27.17 
G01 X-22.23 Y27.21 
G01 X-22.29 Y27.27 
G01 X-22.33 Y27.34 
G01 X-22.35 Y27.42 
G01 X-22.35 Y28.56 
G01 X-22.33 Y28.64 
G01 X-22.30 Y28.69 
G01 X-22.29 Y28.70 
G01 X-22.23 Y28.76 
G01 X-22.21 Y28.78 
G01 X-22.10 Y29.06 
G01 X-22.10 Y29.36 
G01 X-22.21 Y29.64 
G01 X-22.43 Y29.86 
G01 X-22.45 Y29.86 
G01 X-22.46 Y29.88 
G01 X-22.48 Y29.89 
G01 X-22.49 Y29.90 
G01 X-22.51 Y29.91 
G01 X-22.52 Y29.93 
G01 X-22.54 Y29.94 
G01 X-22.55 Y29.96 
G01 X-22.56 Y29.98 
G01 X-22.57 Y30.00 
G01 X-22.58 Y30.01 
G01 X-22.58 Y30.03 
G01 X-22.59 Y30.05 
G01 X-22.59 Y30.07 
G01 X-22.60 Y30.09 
G01 X-22.60 Y30.11 
G01 X-22.60 Y30.12 
G01 X-22.60 Y29.93 
G01 X-22.50 Y29.88 
G00 Z1.00 
G00 X-22.60 Y30.15 
G01 Z-0.20 F60.00 
G01 X-22.60 Y31.58 F80.00 
G01 X-22.62 Y31.64 
G01 X-22.60 Y31.55 
G01 X-22.60 Y30.14 
G01 X-22.60 Y30.15 
G00 Z1.00 
G00 X-3.22 Y5.79 
G01 Z-0.20 F60.00 
G01 X-3.39 Y5.86 F80.00 
G01 X-3.26 Y5.79 
G01 X-3.13 Y5.70 
G01 X-3.02 Y5.58 
G01 X-2.92 Y5.45 
G01 X-2.86 Y5.32 
G01 X-2.93 Y5.49 
G01 X-3.22 Y5.79 
G00 Z1.00 
G00 X-2.77 Y5.11 
G01 Z-0.20 F60.00 
G01 X-2.84 Y5.28 F80.00 
G01 X-2.79 Y5.15 
G01 X-2.77 Y4.98 
G01 X-2.77 Y4.82 
G01 X-2.79 Y4.66 
G01 X-2.84 Y4.53 
G01 X-2.77 Y4.69 
G01 X-2.77 Y5.11 
G00 Z1.00 
G00 X-2.93 Y4.31 
G01 Z-0.20 F60.00 
G01 X-2.86 Y4.48 F80.00 
G01 X-2.92 Y4.36 
G01 X-3.02 Y4.22 
G01 X-3.13 Y4.11 
G01 X-3.26 Y4.01 
G01 X-3.39 Y3.95 
G01 X-3.22 Y4.02 
G01 X-2.93 Y4.31 
G00 Z1.00 
G00 X-3.60 Y3.86 
G01 Z-0.20 F60.00 
G01 X-3.43 Y3.93 F80.00 
G01 X-3.57 Y3.89 
G01 X-3.73 Y3.86 
G01 X-3.89 Y3.86 
G01 X-4.05 Y3.89 
G01 X-4.19 Y3.93 
G01 X-4.02 Y3.86 
G01 X-3.60 Y3.86 
G00 Z1.00 
G00 X-4.40 Y4.02 
G01 Z-0.20 F60.00 
G01 X-4.23 Y3.95 F80.00 
G01 X-4.36 Y4.01 
G01 X-4.49 Y4.11 
G01 X-4.60 Y4.22 
G01 X-4.70 Y4.36 
G01 X-4.76 Y4.48 
G01 X-4.69 Y4.31 
G01 X-4.40 Y4.02 
G00 Z1.00 
G00 X-14.31 Y19.23 
G01 Z-0.20 F60.00 
G01 X-14.78 Y18.75 F80.00 
G01 X-14.78 Y18.72 
G01 X-14.73 Y18.72 
G01 X-14.73 Y18.73 
G01 X-14.29 Y19.18 
G01 X-14.27 Y19.18 
G01 X-14.27 Y19.23 
G01 X-14.31 Y19.23 
G00 Z1.00 
G00 X-13.76 Y4.40 
G01 Z-0.20 F60.00 
G01 X-13.83 Y4.23 F80.00 
G01 X-13.77 Y4.36 
G01 X-13.67 Y4.49 
G01 X-13.56 Y4.60 
G01 X-13.42 Y4.70 
G01 X-13.30 Y4.76 
G01 X-13.47 Y4.69 
G01 X-13.76 Y4.40 
G00 Z1.00 
G00 X-13.09 Y4.85 
G01 Z-0.20 F60.00 
G01 X-13.25 Y4.78 F80.00 
G01 X-13.12 Y4.83 
G01 X-12.96 Y4.85 
G01 X-12.80 Y4.85 
G01 X-12.63 Y4.83 
G01 X-12.50 Y4.78 
G01 X-12.67 Y4.85 
G01 X-13.09 Y4.85 
G00 Z1.00 
G00 X-12.29 Y4.69 
G01 Z-0.20 F60.00 
G01 X-12.46 Y4.76 F80.00 
G01 X-12.33 Y4.70 
G01 X-12.20 Y4.60 
G01 X-12.08 Y4.49 
G01 X-11.99 Y4.36 
G01 X-11.92 Y4.23 
G01 X-11.99 Y4.40 
G01 X-12.29 Y4.69 
G00 Z1.00 
G00 X-11.84 Y4.02 
G01 Z-0.20 F60.00 
G01 X-11.91 Y4.19 F80.00 
G01 X-11.86 Y4.05 
G01 X-11.84 Y3.89 
G01 X-11.84 Y3.73 
G01 X-11.86 Y3.57 
G01 X-11.91 Y3.43 
G01 X-11.84 Y3.60 
G01 X-11.84 Y4.02 
G00 Z1.00 
G00 X-11.99 Y3.22 
G01 Z-0.20 F60.00 
G01 X-11.92 Y3.39 F80.00 
G01 X-11.99 Y3.26 
G01 X-12.08 Y3.13 
G01 X-12.20 Y3.02 
G01 X-12.33 Y2.92 
G01 X-12.46 Y2.86 
G01 X-12.29 Y2.93 
G01 X-11.99 Y3.22 
G00 Z1.00 
G00 X-14.78 Y18.08 
G01 Z-0.20 F60.00 
G01 X-14.31 Y17.60 F80.00 
G01 X-14.27 Y17.60 
G01 X-14.27 Y17.65 
G01 X-14.29 Y17.65 
G01 X-14.73 Y18.10 
G01 X-14.73 Y18.11 
G01 X-14.78 Y18.11 
G01 X-14.78 Y18.08 
G00 Z1.00 
G00 X-3.24 Y8.73 
G01 Z-0.20 F60.00 
G01 X-3.39 Y8.81 F80.00 
G01 X-3.45 Y8.83 
G01 X-3.45 Y8.78 
G01 X-3.41 Y8.76 
G01 X-3.26 Y8.69 
G01 X-3.13 Y8.59 
G01 X-3.02 Y8.48 
G01 X-2.92 Y8.34 
G01 X-2.85 Y8.20 
G01 X-2.83 Y8.15 
G01 X-2.78 Y8.15 
G01 X-2.80 Y8.22 
G01 X-2.88 Y8.37 
G01 X-2.98 Y8.51 
G01 X-3.10 Y8.63 
G01 X-3.24 Y8.73 
G00 Z1.00 
G00 X-4.77 Y8.20 
G01 Z-0.20 F60.00 
G01 X-4.70 Y8.34 F80.00 
G01 X-4.60 Y8.48 
G01 X-4.49 Y8.59 
G01 X-4.36 Y8.69 
G01 X-4.21 Y8.76 
G01 X-4.16 Y8.78 
G01 X-4.16 Y8.83 
G01 X-4.23 Y8.81 
G01 X-4.38 Y8.73 
G01 X-4.52 Y8.63 
G01 X-4.64 Y8.51 
G01 X-4.74 Y8.37 
G01 X-4.82 Y8.22 
G01 X-4.84 Y8.15 
G01 X-4.79 Y8.15 
G01 X-4.77 Y8.20 
G00 Z1.00 
G00 X-4.21 Y6.83 
G01 Z-0.20 F60.00 
G01 X-4.36 Y6.91 F80.00 
G01 X-4.49 Y7.00 
G01 X-4.60 Y7.12 
G01 X-4.70 Y7.25 
G01 X-4.77 Y7.40 
G01 X-4.79 Y7.44 
G01 X-4.84 Y7.44 
G01 X-4.82 Y7.38 
G01 X-4.74 Y7.23 
G01 X-4.64 Y7.09 
G01 X-4.52 Y6.96 
G01 X-4.38 Y6.86 
G01 X-4.23 Y6.79 
G01 X-4.16 Y6.76 
G01 X-4.16 Y6.82 
G01 X-4.21 Y6.83 
G00 Z1.00 
G00 X-2.85 Y7.40 
G01 Z-0.20 F60.00 
G01 X-2.92 Y7.25 F80.00 
G01 X-3.02 Y7.12 
G01 X-3.13 Y7.00 
G01 X-3.26 Y6.91 
G01 X-3.41 Y6.83 
G01 X-3.45 Y6.82 
G01 X-3.45 Y6.76 
G01 X-3.39 Y6.79 
G01 X-3.24 Y6.86 
G01 X-3.10 Y6.96 
G01 X-2.98 Y7.09 
G01 X-2.88 Y7.23 
G01 X-2.80 Y7.38 
G01 X-2.78 Y7.44 
G01 X-2.83 Y7.44 
G01 X-2.85 Y7.40 
G00 Z1.00 
G00 X-1.68 Y45.75 
G01 Z-0.20 F60.00 
G01 X-1.63 Y45.67 F80.00 
G01 X-1.66 Y45.73 
G01 X-2.59 Y46.66 
G01 X-2.72 Y46.79 
G01 X-2.77 Y46.84 
G01 X-2.78 Y46.84 
G01 X-2.79 Y46.87 
G01 X-2.82 Y46.91 
G01 X-2.84 Y46.99 
G01 X-2.84 Y47.07 
G01 X-2.83 Y47.09 
G01 X-2.82 Y47.15 
G01 X-2.78 Y47.22 
G01 X-2.72 Y47.27 
G01 X-2.69 Y47.29 
G01 X-2.65 Y47.31 
G01 X-2.57 Y47.33 
G01 X-1.18 Y47.33 
G01 X-1.10 Y47.31 
G01 X-1.03 Y47.27 
G01 X-0.98 Y47.22 
G01 X-0.94 Y47.15 
G01 X-0.91 Y47.07 
G01 X-0.91 Y10.67 
G01 X-0.91 Y10.65 
G01 X-0.91 Y10.63 
G01 X-0.91 Y10.61 
G01 X-0.92 Y10.59 
G01 X-0.92 Y10.57 
G01 X-0.93 Y10.55 
G01 X-0.94 Y10.53 
G01 X-0.95 Y10.51 
G01 X-0.95 Y10.49 
G01 X-0.97 Y10.48 
G01 X-0.98 Y10.46 
G01 X-0.99 Y10.45 
G01 X-1.00 Y10.43 
G01 X-1.02 Y10.42 
G01 X-1.03 Y10.40 
G01 X-1.05 Y10.39 
G01 X-1.07 Y10.38 
G01 X-1.08 Y10.37 
G01 X-1.10 Y10.36 
G01 X-1.12 Y10.36 
G01 X-1.14 Y10.35 
G01 X-1.16 Y10.35 
G01 X-1.18 Y10.34 
G01 X-1.20 Y10.34 
G01 X-1.22 Y10.34 
G01 X-1.24 Y10.34 
G01 X-1.26 Y10.34 
G01 X-1.28 Y10.35 
G01 X-1.30 Y10.35 
G01 X-1.32 Y10.36 
G01 X-1.32 Y10.36 
G01 X-1.25 Y10.32 
G01 X-1.18 Y10.25 
G01 X-1.13 Y10.15 
G01 X-1.10 Y10.05 
G01 X-1.10 Y4.20 
G01 X-1.13 Y4.10 
G01 X-1.18 Y4.00 
G01 X-2.68 Y2.50 
G01 X-2.75 Y2.43 
G01 X-2.83 Y2.38 
G01 X-2.77 Y2.41 
G01 X-2.63 Y2.56 
G01 X-1.46 Y3.72 
G01 X-1.43 Y3.76 
G01 X-1.41 Y3.78 
G01 X-1.34 Y3.82 
G01 X-1.26 Y3.84 
G01 X-1.18 Y3.84 
G01 X-1.10 Y3.82 
G01 X-1.03 Y3.78 
G01 X-0.98 Y3.72 
G01 X-0.94 Y3.65 
G01 X-0.91 Y3.57 
G01 X-0.91 Y1.18 
G01 X-0.94 Y1.10 
G01 X-0.98 Y1.03 
G01 X-1.03 Y0.98 
G01 X-1.10 Y0.94 
G01 X-1.18 Y0.91 
G01 X-27.70 Y0.91 
G01 X-27.78 Y0.94 
G01 X-27.85 Y0.98 
G01 X-27.90 Y1.03 
G01 X-27.94 Y1.10 
G01 X-27.96 Y1.18 
G01 X-27.96 Y47.07 
G01 X-27.94 Y47.15 
G01 X-27.90 Y47.22 
G01 X-27.85 Y47.27 
G01 X-27.78 Y47.31 
G01 X-27.70 Y47.33 
G01 X-6.43 Y47.33 
G01 X-6.35 Y47.31 
G01 X-6.31 Y47.29 
G01 X-6.28 Y47.27 
G01 X-6.22 Y47.22 
G01 X-6.18 Y47.15 
G01 X-6.17 Y47.09 
G01 X-6.16 Y47.07 
G01 X-6.16 Y46.99 
G01 X-6.18 Y46.91 
G01 X-6.21 Y46.87 
G01 X-6.22 Y46.84 
G01 X-6.28 Y46.79 
G01 X-6.34 Y46.73 
G01 X-6.37 Y46.67 
G01 X-6.32 Y46.75 
G01 X-6.25 Y46.82 
G01 X-6.15 Y46.87 
G01 X-6.05 Y46.90 
G01 X-2.95 Y46.90 
G01 X-2.85 Y46.87 
G01 X-2.75 Y46.82 
G01 X-2.68 Y46.75 
G01 X-1.68 Y45.75 
G00 Z1.00 
G00 Z2.00 
M05
M02
