(.../pcb-gcode-3.6.0.4/pcb-gcode.ulp)
(Copyright 2005 - 2012 by John Johnson)
(See readme.txt for licensing terms.)
(This file generated from the board:)
(.../Copperclad_CooperBuffer_Amp_V0-6.brd)
(Current profile is .../pcb-gcode-3.6.0.4/profiles/iModela.pp  )
(This file generated 2016-08-10 1:20 PM)
(Settings from pcb-machine.h)
(  Tool Size)
(0.20 )
(Z Axis Settings)
(  High     Up        Down     Drill)
(2.00 	1.00 	-0.20 	-1.80 )
(spindle on time = 1.0000)
(milling depth = -1.8000)
(text depth = -0.1270)
(tool change at 0.00 0.00 10.00 )
(feed rate xy = F80.00 )
(feed rate z  = F60.00 )
(Settings from pcb-defaults.h)
(isolate min = 0.0010)
(isolate max = 0.2000)
(isolate step = 0.2000)
(Generated bottom outlines, bottom drill, )
(Unit of measure: mm)
( Tool|       Size       |  Min Sub |  Max Sub |   Count )
( T01  0.800mm 0.0315in 0.0000in 0.0000in )
( T02  0.813mm 0.0320in 0.0000in 0.0000in )
( T03  0.900mm 0.0354in 0.0000in 0.0000in )
( T04  1.016mm 0.0400in 0.0000in 0.0000in )
( T05  1.200mm 0.0472in 0.0000in 0.0000in )
( T06  1.524mm 0.0600in 0.0000in 0.0000in )
( T07  1.702mm 0.0670in 0.0000in 0.0000in )
(Metric Mode)
G21
(Absolute Coordinates)
G90
M05
G00 Z10.00 
G00 X0.00 Y0.00 
(M06 T01  ; 0.80 )
G01 Z0.00 F60.00 
(M06 T01  ; 0.80 )
G00 Z1.00 
M03
G04 P 1
G00 Z1.000000
G00 X-6.00 Y12.00 
G01 Z-1.80 F60.00 
G01 Z1.000000
(R1.00  P1.000000)
(G00 Z1.000000)
G00 X-2.00 Y36.00 
G01 Z-1.800000
G01 Z1.000000
M05
G00 Z10.00 
(M06 T02  ; 0.81 )
G01 Z0.00 F60.00 
(M06 T02  ; 0.81 )
G00 Z1.00 
M03
G04 P 1
G00 Z1.000000
G00 X-32.38 Y3.18 
G01 Z-1.80 F60.00 
G01 Z1.000000
(R1.00  P1.000000)
(G00 Z1.000000)
G00 X-32.38 Y5.71 
G01 Z-1.800000
G01 Z1.000000
(G00 Z1.000000)
G00 X-33.66 Y15.24 
G01 Z-1.800000
G01 Z1.000000
(G00 Z1.000000)
G00 X-33.66 Y22.86 
G01 Z-1.800000
G01 Z1.000000
(G00 Z1.000000)
G00 X-36.20 Y15.24 
G01 Z-1.800000
G01 Z1.000000
(G00 Z1.000000)
G00 X-36.20 Y22.86 
G01 Z-1.800000
G01 Z1.000000
(G00 Z1.000000)
G00 X-36.83 Y10.16 
G01 Z-1.800000
G01 Z1.000000
(G00 Z1.000000)
G00 X-36.83 Y12.70 
G01 Z-1.800000
G01 Z1.000000
(G00 Z1.000000)
G00 X-37.47 Y3.18 
G01 Z-1.800000
G01 Z1.000000
(G00 Z1.000000)
G00 X-37.47 Y5.71 
G01 Z-1.800000
G01 Z1.000000
(G00 Z1.000000)
G00 X-38.73 Y15.24 
G01 Z-1.800000
G01 Z1.000000
(G00 Z1.000000)
G00 X-38.73 Y22.86 
G01 Z-1.800000
G01 Z1.000000
(G00 Z1.000000)
G00 X-41.27 Y15.24 
G01 Z-1.800000
G01 Z1.000000
(G00 Z1.000000)
G00 X-41.27 Y22.86 
G01 Z-1.800000
G01 Z1.000000
(G00 Z1.000000)
G00 X-42.55 Y8.26 
G01 Z-1.800000
G01 Z1.000000
(G00 Z1.000000)
G00 X-45.09 Y8.26 
G01 Z-1.800000
G01 Z1.000000
(G00 Z1.000000)
G00 X-45.72 Y19.05 
G01 Z-1.800000
G01 Z1.000000
(G00 Z1.000000)
G00 X-45.72 Y21.59 
G01 Z-1.800000
G01 Z1.000000
(G00 Z1.000000)
G00 X-5.08 Y20.32 
G01 Z-1.800000
G01 Z1.000000
(G00 Z1.000000)
G00 X-7.62 Y20.32 
G01 Z-1.800000
G01 Z1.000000
(G00 Z1.000000)
G00 X-7.62 Y28.58 
G01 Z-1.800000
G01 Z1.000000
(G00 Z1.000000)
G00 X-7.62 Y31.12 
G01 Z-1.800000
G01 Z1.000000
(G00 Z1.000000)
G00 X-12.70 Y16.51 
G01 Z-1.800000
G01 Z1.000000
(G00 Z1.000000)
G00 X-12.70 Y20.96 
G01 Z-1.800000
G01 Z1.000000
(G00 Z1.000000)
G00 X-12.70 Y23.50 
G01 Z-1.800000
G01 Z1.000000
(G00 Z1.000000)
G00 X-12.70 Y28.58 
G01 Z-1.800000
G01 Z1.000000
(G00 Z1.000000)
G00 X-12.70 Y31.12 
G01 Z-1.800000
G01 Z1.000000
(G00 Z1.000000)
G00 X-15.24 Y16.51 
G01 Z-1.800000
G01 Z1.000000
(G00 Z1.000000)
G00 X-17.78 Y33.02 
G01 Z-1.800000
G01 Z1.000000
(G00 Z1.000000)
G00 X-17.78 Y28.58 
G01 Z-1.800000
G01 Z1.000000
(G00 Z1.000000)
G00 X-22.23 Y14.61 
G01 Z-1.800000
G01 Z1.000000
(G00 Z1.000000)
G00 X-22.23 Y17.14 
G01 Z-1.800000
G01 Z1.000000
(G00 Z1.000000)
G00 X-22.86 Y20.32 
G01 Z-1.800000
G01 Z1.000000
(G00 Z1.000000)
G00 X-22.86 Y22.86 
G01 Z-1.800000
G01 Z1.000000
(G00 Z1.000000)
G00 X-2.54 Y20.32 
G01 Z-1.800000
G01 Z1.000000
(G00 Z1.000000)
G00 X-2.54 Y28.58 
G01 Z-1.800000
G01 Z1.000000
(G00 Z1.000000)
G00 X-2.54 Y31.12 
G01 Z-1.800000
G01 Z1.000000
(G00 Z1.000000)
G00 X-27.94 Y33.02 
G01 Z-1.800000
G01 Z1.000000
(G00 Z1.000000)
G00 X-27.94 Y28.58 
G01 Z-1.800000
G01 Z1.000000
M05
G00 Z10.00 
(M06 T03  ; 0.90 )
G01 Z0.00 F60.00 
(M06 T03  ; 0.90 )
G00 Z1.00 
M03
G04 P 1
G00 Z1.000000
G00 X-34.93 Y27.62 
G01 Z-1.80 F60.00 
G01 Z1.000000
(R1.00  P1.000000)
(G00 Z1.000000)
G00 X-37.47 Y27.62 
G01 Z-1.800000
G01 Z1.000000
(G00 Z1.000000)
G00 X-40.01 Y27.62 
G01 Z-1.800000
G01 Z1.000000
M05
G00 Z10.00 
(M06 T04  ; 1.02 )
G01 Z0.00 F60.00 
(M06 T04  ; 1.02 )
G00 Z1.00 
M03
G04 P 1
G00 Z1.000000
G00 X-43.00 Y3.18 
G01 Z-1.80 F60.00 
G01 Z1.000000
(R1.00  P1.000000)
(G00 Z1.000000)
G00 X-45.90 Y3.18 
G01 Z-1.800000
G01 Z1.000000
(G00 Z1.000000)
G00 X-5.08 Y3.05 
G01 Z-1.800000
G01 Z1.000000
(G00 Z1.000000)
G00 X-7.62 Y3.30 
G01 Z-1.800000
G01 Z1.000000
(G00 Z1.000000)
G00 X-2.54 Y3.30 
G01 Z-1.800000
G01 Z1.000000
M05
G00 Z10.00 
(M06 T05  ; 1.20 )
G01 Z0.00 F60.00 
(M06 T05  ; 1.20 )
G00 Z1.00 
M03
G04 P 1
G00 Z1.000000
G00 X-14.61 Y8.60 
G01 Z-1.80 F60.00 
G01 Z1.000000
(R1.00  P1.000000)
(G00 Z1.000000)
G00 X-14.61 Y1.60 
G01 Z-1.800000
G01 Z1.000000
(G00 Z1.000000)
G00 X-24.13 Y8.60 
G01 Z-1.800000
G01 Z1.000000
(G00 Z1.000000)
G00 X-24.13 Y1.60 
G01 Z-1.800000
G01 Z1.000000
M05
G00 Z10.00 
(M06 T06  ; 1.52 )
G01 Z0.00 F60.00 
(M06 T06  ; 1.52 )
G00 Z1.00 
M03
G04 P 1
G00 Z1.000000
G00 X-56.52 Y17.69 
G01 Z-1.80 F60.00 
G01 Z1.000000
(R1.00  P1.000000)
M05
G00 Z10.00 
(M06 T07  ; 1.70 )
G01 Z0.00 F60.00 
(M06 T07  ; 1.70 )
G00 Z1.00 
M03
G04 P 1
G00 Z1.000000
G00 X-56.52 Y32.91 
G01 Z-1.80 F60.00 
G01 Z1.000000
(R1.00  P1.000000)
(G00 Z1.000000)
G00 X-56.62 Y2.47 
G01 Z-1.800000
G01 Z1.000000
T01 
G00 Z2.00 
M05
M02
