(.../pcb-gcode-3.6.0.4/pcb-gcode.ulp)
(Copyright 2005 - 2012 by John Johnson)
(See readme.txt for licensing terms.)
(This file generated from the board:)
(.../Copperclad_CooperBuffer_Amp_V0-4.brd)
(Current profile is .../pcb-gcode-3.6.0.4/profiles/imodela.pp  )
(This file generated 8/4/16 1:53 PM)
(Settings from pcb-machine.h)
(  Tool Size)
(0.20 )
(Z Axis Settings)
(  High     Up        Down     Drill)
(2.00 	1.00 	-0.20 	-1.80 )
(spindle on time = 1.0000)
(milling depth = -0.2000)
(text depth = -0.1270)
(tool change at 0.00 0.00 10.00 )
(feed rate xy = F80.00 )
(feed rate z  = F60.00 )
(Settings from pcb-defaults.h)
(isolate min = 0.0010)
(isolate max = 0.2000)
(isolate step = 0.2000)
(Generated bottom outlines, bottom drill, )
(Unit of measure: mm)
(Metric Mode)
G21
(Absolute Coordinates)
G90
G00 X0.00 Y0.00 
M03
G04 P 1
G00 Z1.00 
G00 X-3.21 Y16.32 
G01 Z-0.20 F60.00 
G01 X-3.38 Y16.39 F80.00 
G01 X-3.25 Y16.33 
G01 X-3.12 Y16.23 
G01 X-3.00 Y16.11 
G01 X-2.90 Y15.98 
G01 X-2.83 Y15.85 
G01 X-2.91 Y16.02 
G01 X-3.21 Y16.32 
G00 Z1.00 
G00 X-2.74 Y15.63 
G01 Z-0.20 F60.00 
G01 X-2.81 Y15.80 F80.00 
G01 X-2.77 Y15.67 
G01 X-2.74 Y15.50 
G01 X-2.74 Y15.33 
G01 X-2.77 Y15.17 
G01 X-2.81 Y15.03 
G01 X-2.74 Y15.21 
G01 X-2.74 Y15.63 
G00 Z1.00 
G00 X-2.91 Y14.81 
G01 Z-0.20 F60.00 
G01 X-2.83 Y14.98 F80.00 
G01 X-2.90 Y14.86 
G01 X-3.00 Y14.72 
G01 X-3.12 Y14.60 
G01 X-3.25 Y14.51 
G01 X-3.38 Y14.44 
G01 X-3.21 Y14.51 
G01 X-2.91 Y14.81 
G00 Z1.00 
G00 X-3.60 Y14.35 
G01 Z-0.20 F60.00 
G01 X-3.43 Y14.42 F80.00 
G01 X-3.56 Y14.38 
G01 X-3.73 Y14.35 
G01 X-3.89 Y14.35 
G01 X-4.06 Y14.38 
G01 X-4.19 Y14.42 
G01 X-4.02 Y14.35 
G01 X-3.60 Y14.35 
G00 Z1.00 
G00 X-4.41 Y14.51 
G01 Z-0.20 F60.00 
G01 X-4.24 Y14.44 F80.00 
G01 X-4.37 Y14.51 
G01 X-4.50 Y14.60 
G01 X-4.62 Y14.72 
G01 X-4.72 Y14.86 
G01 X-4.79 Y14.98 
G01 X-4.71 Y14.81 
G01 X-4.41 Y14.51 
G00 Z1.00 
G00 X-4.88 Y15.33 
G01 Z-0.20 F60.00 
G01 X-4.88 Y15.50 F80.00 
G01 X-4.85 Y15.67 
G01 X-4.81 Y15.80 
G01 X-4.88 Y15.63 
G01 X-4.88 Y15.21 
G01 X-4.81 Y15.03 
G01 X-4.85 Y15.17 
G01 X-4.88 Y15.33 
G00 Z1.00 
G00 X-2.77 Y12.95 
G01 Z-0.20 F60.00 
G01 X-2.85 Y13.11 F80.00 
G01 X-2.96 Y13.25 
G01 X-3.08 Y13.38 
G01 X-3.22 Y13.48 
G01 X-3.38 Y13.56 
G01 X-3.45 Y13.58 
G01 X-3.45 Y13.53 
G01 X-3.40 Y13.51 
G01 X-3.25 Y13.43 
G01 X-3.12 Y13.34 
G01 X-3.00 Y13.22 
G01 X-2.90 Y13.08 
G01 X-2.82 Y12.93 
G01 X-2.80 Y12.88 
G01 X-2.75 Y12.88 
G01 X-2.77 Y12.95 
G00 Z1.00 
G00 X-4.85 Y12.09 
G01 Z-0.20 F60.00 
G01 X-4.77 Y11.94 F80.00 
G01 X-4.66 Y11.79 
G01 X-4.54 Y11.67 
G01 X-4.40 Y11.57 
G01 X-4.24 Y11.49 
G01 X-4.16 Y11.46 
G01 X-4.16 Y11.52 
G01 X-4.22 Y11.53 
G01 X-4.37 Y11.61 
G01 X-4.50 Y11.71 
G01 X-4.62 Y11.83 
G01 X-4.72 Y11.96 
G01 X-4.80 Y12.11 
G01 X-4.82 Y12.17 
G01 X-4.87 Y12.17 
G01 X-4.85 Y12.09 
G00 Z1.00 
G00 X-4.80 Y12.93 
G01 Z-0.20 F60.00 
G01 X-4.72 Y13.08 F80.00 
G01 X-4.62 Y13.22 
G01 X-4.50 Y13.34 
G01 X-4.37 Y13.43 
G01 X-4.22 Y13.51 
G01 X-4.16 Y13.53 
G01 X-4.16 Y13.58 
G01 X-4.24 Y13.56 
G01 X-4.40 Y13.48 
G01 X-4.54 Y13.38 
G01 X-4.66 Y13.25 
G01 X-4.77 Y13.11 
G01 X-4.85 Y12.95 
G01 X-4.87 Y12.88 
G01 X-4.82 Y12.88 
G01 X-4.80 Y12.93 
G00 Z1.00 
G00 X-3.38 Y11.49 
G01 Z-0.20 F60.00 
G01 X-3.22 Y11.57 F80.00 
G01 X-3.08 Y11.67 
G01 X-2.96 Y11.79 
G01 X-2.85 Y11.94 
G01 X-2.77 Y12.09 
G01 X-2.75 Y12.17 
G01 X-2.80 Y12.17 
G01 X-2.82 Y12.11 
G01 X-2.90 Y11.96 
G01 X-3.00 Y11.83 
G01 X-3.12 Y11.71 
G01 X-3.25 Y11.61 
G01 X-3.40 Y11.53 
G01 X-3.45 Y11.52 
G01 X-3.45 Y11.46 
G01 X-3.38 Y11.49 
G00 Z1.00 
G00 X-21.17 Y17.40 
G01 Z-0.20 F60.00 
G01 X-20.57 Y17.99 F80.00 
G01 X-20.57 Y18.11 
G01 X-20.63 Y18.11 
G01 X-20.63 Y18.02 
G01 X-21.19 Y17.45 
G01 X-21.29 Y17.45 
G01 X-21.29 Y17.40 
G01 X-21.17 Y17.40 
G00 Z1.00 
G00 X-20.57 Y18.84 
G01 Z-0.20 F60.00 
G01 X-21.17 Y19.43 F80.00 
G01 X-21.29 Y19.43 
G01 X-21.29 Y19.38 
G01 X-21.19 Y19.38 
G01 X-20.63 Y18.81 
G01 X-20.63 Y18.72 
G01 X-20.57 Y18.72 
G01 X-20.57 Y18.84 
G00 Z1.00 
G00 X-24.16 Y3.73 
G01 Z-0.20 F60.00 
G01 X-24.18 Y3.56 F80.00 
G01 X-24.23 Y3.43 
G01 X-24.15 Y3.60 
G01 X-24.15 Y3.69 
G01 X-24.13 Y3.77 
G01 X-24.09 Y3.84 
G01 X-24.04 Y3.89 
G01 X-23.89 Y4.04 
G01 X-23.82 Y4.08 
G01 X-23.75 Y4.10 
G01 X-23.42 Y4.10 
G01 X-23.36 Y4.12 
G01 X-23.45 Y4.10 
G01 X-23.83 Y4.10 
G01 X-24.16 Y3.78 
G01 X-24.16 Y3.73 
G00 Z1.00 
G00 X-24.30 Y4.77 
G01 Z-0.20 F60.00 
G01 X-24.32 Y4.75 F80.00 
G01 X-24.33 Y4.74 
G01 X-24.35 Y4.73 
G01 X-24.37 Y4.72 
G01 X-24.39 Y4.71 
G01 X-24.40 Y4.71 
G01 X-24.42 Y4.70 
G01 X-24.44 Y4.70 
G01 X-24.46 Y4.69 
G01 X-24.48 Y4.69 
G01 X-24.50 Y4.69 
G01 X-24.52 Y4.69 
G01 X-24.54 Y4.69 
G01 X-24.56 Y4.70 
G01 X-24.58 Y4.70 
G01 X-24.60 Y4.71 
G01 X-24.62 Y4.71 
G01 X-24.64 Y4.72 
G01 X-24.79 Y4.79 
G01 X-24.66 Y4.72 
G01 X-24.53 Y4.62 
G01 X-24.49 Y4.58 
G01 X-24.29 Y4.77 
G01 X-24.30 Y4.77 
G00 Z1.00 
G00 X-24.23 Y4.84 
G01 Z-0.20 F60.00 
G01 X-24.27 Y4.80 F80.00 
G01 X-24.28 Y4.79 
G01 X-24.25 Y4.82 
G01 X-24.17 Y4.87 
G01 X-24.23 Y4.84 
G00 Z1.00 
G00 X-32.68 Y8.25 
G01 Z-0.20 F60.00 
G01 X-32.75 Y8.18 F80.00 
G01 X-32.83 Y8.13 
G01 X-32.77 Y8.16 
G01 X-32.59 Y8.34 
G01 X-31.19 Y9.74 
G01 X-31.12 Y9.78 
G01 X-31.04 Y9.81 
G01 X-30.96 Y9.81 
G01 X-30.88 Y9.78 
G01 X-30.81 Y9.74 
G01 X-30.76 Y9.69 
G01 X-27.36 Y6.29 
G01 X-27.23 Y6.16 
G01 X-27.17 Y6.13 
G01 X-27.25 Y6.18 
G01 X-27.32 Y6.25 
G01 X-31.00 Y9.93 
G01 X-32.68 Y8.25 
G00 Z1.00 
G00 X-51.40 Y19.08 
G01 Z-0.20 F60.00 
G01 X-51.40 Y12.92 F80.00 
G01 X-51.38 Y12.86 
G01 X-51.40 Y12.95 
G01 X-51.40 Y19.05 
G01 X-51.38 Y19.14 
G01 X-51.40 Y19.08 
G00 Z1.00 
G00 X-51.23 Y19.34 
G01 Z-0.20 F60.00 
G01 X-51.34 Y19.23 F80.00 
G01 X-51.37 Y19.17 
G01 X-51.32 Y19.25 
G01 X-51.25 Y19.32 
G01 X-51.17 Y19.37 
G01 X-51.23 Y19.34 
G00 Z1.00 
G00 X-49.01 Y20.98 
G01 Z-0.20 F60.00 
G01 X-49.11 Y21.13 F80.00 
G01 X-49.19 Y21.31 
G01 X-49.22 Y21.49 
G01 X-49.22 Y21.69 
G01 X-49.19 Y21.87 
G01 X-49.11 Y22.05 
G01 X-49.01 Y22.20 
G01 X-48.87 Y22.34 
G01 X-48.72 Y22.44 
G01 X-48.54 Y22.52 
G01 X-48.36 Y22.55 
G01 X-48.16 Y22.55 
G01 X-47.98 Y22.52 
G01 X-47.80 Y22.44 
G01 X-47.65 Y22.34 
G01 X-47.51 Y22.20 
G01 X-47.41 Y22.05 
G01 X-47.33 Y21.87 
G01 X-47.30 Y21.69 
G01 X-47.30 Y21.49 
G01 X-47.33 Y21.31 
G01 X-47.41 Y21.13 
G01 X-47.51 Y20.98 
G01 X-47.65 Y20.84 
G01 X-47.80 Y20.74 
G01 X-47.90 Y20.69 
G01 X-47.89 Y20.70 
G01 X-47.71 Y20.77 
G01 X-47.44 Y21.04 
G01 X-47.29 Y21.40 
G01 X-47.29 Y21.78 
G01 X-47.44 Y22.14 
G01 X-47.71 Y22.41 
G01 X-48.07 Y22.56 
G01 X-48.45 Y22.56 
G01 X-48.81 Y22.41 
G01 X-49.08 Y22.14 
G01 X-49.23 Y21.78 
G01 X-49.24 Y21.74 
G01 X-49.24 Y21.74 
G01 X-49.24 Y21.74 
G01 X-49.27 Y21.71 
G01 X-49.29 Y21.68 
G01 X-49.29 Y21.68 
G01 X-49.29 Y21.67 
G01 X-49.32 Y21.65 
G01 X-49.35 Y21.63 
G01 X-49.35 Y21.63 
G01 X-49.36 Y21.62 
G01 X-49.39 Y21.61 
G01 X-49.42 Y21.60 
G01 X-49.43 Y21.60 
G01 X-49.43 Y21.59 
G01 X-49.46 Y21.59 
G01 X-49.43 Y21.59 
G01 X-49.43 Y21.58 
G01 X-49.42 Y21.58 
G01 X-49.39 Y21.57 
G01 X-49.36 Y21.56 
G01 X-49.35 Y21.55 
G01 X-49.35 Y21.55 
G01 X-49.32 Y21.53 
G01 X-49.29 Y21.51 
G01 X-49.29 Y21.50 
G01 X-49.29 Y21.50 
G01 X-49.27 Y21.47 
G01 X-49.24 Y21.44 
G01 X-49.24 Y21.44 
G01 X-49.24 Y21.44 
G01 X-49.23 Y21.40 
G01 X-49.08 Y21.04 
G01 X-49.05 Y21.01 
G01 X-48.99 Y20.96 
G01 X-48.97 Y20.92 
G01 X-48.95 Y20.88 
G01 X-48.93 Y20.81 
G01 X-48.93 Y20.73 
G01 X-48.94 Y20.69 
G01 X-48.95 Y20.65 
G01 X-48.99 Y20.58 
G01 X-49.05 Y20.52 
G01 X-50.11 Y19.46 
G01 X-50.18 Y19.42 
G01 X-50.25 Y19.40 
G01 X-51.08 Y19.40 
G01 X-51.14 Y19.38 
G01 X-51.05 Y19.40 
G01 X-50.17 Y19.40 
G01 X-48.90 Y20.67 
G01 X-48.90 Y20.87 
G01 X-49.01 Y20.98 
G00 Z1.00 
G00 X-48.10 Y20.42 
G01 Z-0.20 F60.00 
G01 X-48.10 Y20.43 F80.00 
G01 X-48.10 Y20.45 
G01 X-48.09 Y20.47 
G01 X-48.09 Y20.49 
G01 X-48.08 Y20.51 
G01 X-48.08 Y20.53 
G01 X-48.07 Y20.54 
G01 X-48.06 Y20.56 
G01 X-48.05 Y20.58 
G01 X-48.04 Y20.60 
G01 X-48.02 Y20.61 
G01 X-48.01 Y20.63 
G01 X-47.99 Y20.64 
G01 X-47.98 Y20.65 
G01 X-47.96 Y20.66 
G01 X-47.95 Y20.67 
G01 X-47.93 Y20.68 
G01 X-47.92 Y20.69 
G01 X-47.98 Y20.66 
G01 X-48.10 Y20.64 
G01 X-48.10 Y20.45 
G01 X-48.12 Y20.36 
G01 X-48.10 Y20.42 
G00 Z1.00 
G00 X-49.58 Y1.60 
G01 Z-0.20 F60.00 
G01 X-29.92 Y1.60 F80.00 
G01 X-29.86 Y1.62 
G01 X-29.95 Y1.60 
G01 X-49.55 Y1.60 
G01 X-49.64 Y1.62 
G01 X-49.58 Y1.60 
G00 Z1.00 
G00 X-51.90 Y6.08 
G01 Z-0.20 F60.00 
G01 X-51.90 Y3.92 F80.00 
G01 X-51.88 Y3.86 
G01 X-51.90 Y3.95 
G01 X-51.90 Y6.05 
G01 X-51.88 Y6.14 
G01 X-51.90 Y6.08 
G00 Z1.00 
G00 X-51.73 Y6.34 
G01 Z-0.20 F60.00 
G01 X-51.84 Y6.23 F80.00 
G01 X-51.87 Y6.17 
G01 X-51.82 Y6.25 
G01 X-51.75 Y6.32 
G01 X-51.67 Y6.37 
G01 X-51.73 Y6.34 
G00 Z1.00 
G00 X-46.68 Y14.51 
G01 Z-0.20 F60.00 
G01 X-46.68 Y14.70 F80.00 
G01 X-46.65 Y14.89 
G01 X-46.57 Y15.06 
G01 X-46.47 Y15.22 
G01 X-46.33 Y15.35 
G01 X-46.18 Y15.46 
G01 X-46.00 Y15.53 
G01 X-45.82 Y15.57 
G01 X-45.62 Y15.57 
G01 X-45.44 Y15.53 
G01 X-45.26 Y15.46 
G01 X-45.11 Y15.35 
G01 X-44.97 Y15.22 
G01 X-44.87 Y15.06 
G01 X-44.79 Y14.89 
G01 X-44.76 Y14.70 
G01 X-44.76 Y14.51 
G01 X-44.79 Y14.35 
G01 X-39.33 Y8.90 
G01 X-33.17 Y8.90 
G01 X-31.32 Y10.75 
G01 X-31.25 Y10.82 
G01 X-30.17 Y11.89 
G01 X-30.17 Y12.46 
G01 X-29.61 Y13.03 
G01 X-28.81 Y13.03 
G01 X-28.25 Y12.46 
G01 X-28.25 Y11.67 
G01 X-28.81 Y11.10 
G01 X-29.61 Y11.10 
G01 X-29.72 Y11.21 
G01 X-30.43 Y10.50 
G01 X-26.83 Y6.90 
G01 X-21.67 Y6.90 
G01 X-8.58 Y19.98 
G01 X-8.58 Y20.72 
G01 X-8.02 Y21.28 
G01 X-7.22 Y21.28 
G01 X-6.66 Y20.72 
G01 X-6.66 Y19.92 
G01 X-7.22 Y19.36 
G01 X-8.02 Y19.36 
G01 X-8.05 Y19.38 
G01 X-21.18 Y6.25 
G01 X-21.25 Y6.18 
G01 X-23.18 Y4.25 
G01 X-23.25 Y4.18 
G01 X-23.33 Y4.13 
G01 X-23.27 Y4.16 
G01 X-23.09 Y4.34 
G01 X-21.29 Y6.14 
G01 X-8.14 Y19.29 
G01 X-8.07 Y19.33 
G01 X-7.99 Y19.35 
G01 X-7.22 Y19.35 
G01 X-6.65 Y19.92 
G01 X-6.65 Y20.72 
G01 X-7.22 Y21.29 
G01 X-8.02 Y21.29 
G01 X-8.59 Y20.72 
G01 X-8.59 Y20.07 
G01 X-8.61 Y19.99 
G01 X-8.65 Y19.92 
G01 X-8.70 Y19.87 
G01 X-21.61 Y6.96 
G01 X-21.68 Y6.92 
G01 X-21.75 Y6.90 
G01 X-26.75 Y6.90 
G01 X-26.82 Y6.92 
G01 X-26.89 Y6.96 
G01 X-26.95 Y7.02 
G01 X-30.24 Y10.31 
G01 X-30.28 Y10.38 
G01 X-30.31 Y10.46 
G01 X-30.31 Y10.54 
G01 X-30.28 Y10.62 
G01 X-30.24 Y10.69 
G01 X-30.19 Y10.74 
G01 X-29.89 Y11.04 
G01 X-29.82 Y11.08 
G01 X-29.75 Y11.10 
G01 X-28.81 Y11.10 
G01 X-28.16 Y11.75 
G01 X-28.09 Y11.79 
G01 X-28.02 Y11.81 
G01 X-27.94 Y11.81 
G01 X-27.86 Y11.79 
G01 X-27.86 Y11.79 
G01 X-27.79 Y11.75 
G01 X-27.73 Y11.69 
G01 X-27.09 Y11.05 
G01 X-26.97 Y11.05 
G01 X-26.97 Y11.10 
G01 X-27.07 Y11.10 
G01 X-27.63 Y11.67 
G01 X-27.63 Y12.46 
G01 X-27.07 Y13.03 
G01 X-26.97 Y13.03 
G01 X-26.97 Y13.08 
G01 X-27.09 Y13.08 
G01 X-27.73 Y12.44 
G01 X-27.78 Y12.40 
G01 X-27.79 Y12.38 
G01 X-27.86 Y12.34 
G01 X-27.94 Y12.32 
G01 X-28.02 Y12.32 
G01 X-28.09 Y12.34 
G01 X-28.16 Y12.38 
G01 X-28.22 Y12.44 
G01 X-28.81 Y13.03 
G01 X-29.61 Y13.03 
G01 X-30.18 Y12.47 
G01 X-30.18 Y11.98 
G01 X-30.20 Y11.90 
G01 X-30.24 Y11.83 
G01 X-30.29 Y11.78 
G01 X-31.41 Y10.66 
G01 X-33.11 Y8.96 
G01 X-33.18 Y8.92 
G01 X-33.25 Y8.90 
G01 X-39.25 Y8.90 
G01 X-39.32 Y8.92 
G01 X-39.39 Y8.96 
G01 X-39.45 Y9.02 
G01 X-44.69 Y14.26 
G01 X-44.73 Y14.33 
G01 X-44.75 Y14.41 
G01 X-44.75 Y14.80 
G01 X-44.90 Y15.15 
G01 X-45.17 Y15.42 
G01 X-45.53 Y15.57 
G01 X-45.91 Y15.57 
G01 X-46.27 Y15.42 
G01 X-46.54 Y15.15 
G01 X-46.65 Y14.88 
G01 X-46.66 Y14.86 
G01 X-46.67 Y14.85 
G01 X-46.67 Y14.83 
G01 X-46.69 Y14.81 
G01 X-46.70 Y14.79 
G01 X-46.71 Y14.78 
G01 X-46.72 Y14.76 
G01 X-46.74 Y14.75 
G01 X-46.75 Y14.74 
G01 X-46.77 Y14.73 
G01 X-46.79 Y14.71 
G01 X-46.80 Y14.71 
G01 X-46.82 Y14.70 
G01 X-46.84 Y14.69 
G01 X-46.86 Y14.68 
G01 X-46.88 Y14.68 
G01 X-46.90 Y14.68 
G01 X-46.92 Y14.68 
G01 X-46.94 Y14.67 
G01 X-46.96 Y14.68 
G01 X-46.98 Y14.68 
G01 X-47.00 Y14.68 
G01 X-47.02 Y14.68 
G01 X-47.04 Y14.69 
G01 X-47.06 Y14.70 
G01 X-47.07 Y14.71 
G01 X-47.09 Y14.71 
G01 X-47.11 Y14.73 
G01 X-47.13 Y14.74 
G01 X-47.14 Y14.75 
G01 X-47.16 Y14.76 
G01 X-47.17 Y14.78 
G01 X-47.18 Y14.79 
G01 X-47.19 Y14.81 
G01 X-47.20 Y14.83 
G01 X-47.21 Y14.85 
G01 X-47.22 Y14.86 
G01 X-47.23 Y14.88 
G01 X-47.24 Y14.90 
G01 X-47.24 Y14.92 
G01 X-47.24 Y14.94 
G01 X-47.24 Y14.96 
G01 X-47.25 Y14.98 
G01 X-47.24 Y15.00 
G01 X-47.24 Y15.03 
G01 X-47.84 Y15.62 
G01 X-47.96 Y15.62 
G01 X-47.96 Y15.57 
G01 X-47.86 Y15.57 
G01 X-47.30 Y15.00 
G01 X-47.30 Y14.21 
G01 X-47.86 Y13.64 
G01 X-48.66 Y13.64 
G01 X-49.22 Y14.21 
G01 X-49.22 Y15.00 
G01 X-48.66 Y15.57 
G01 X-48.56 Y15.57 
G01 X-48.56 Y15.62 
G01 X-48.68 Y15.62 
G01 X-49.05 Y15.25 
G01 X-49.11 Y15.20 
G01 X-49.18 Y15.16 
G01 X-49.25 Y15.14 
G01 X-49.33 Y15.14 
G01 X-49.41 Y15.16 
G01 X-49.48 Y15.20 
G01 X-49.54 Y15.25 
G01 X-49.58 Y15.32 
G01 X-49.60 Y15.40 
G01 X-49.60 Y17.33 
G01 X-49.58 Y17.41 
G01 X-49.54 Y17.48 
G01 X-49.48 Y17.54 
G01 X-49.41 Y17.58 
G01 X-49.33 Y17.60 
G01 X-39.42 Y17.60 
G01 X-39.36 Y17.62 
G01 X-39.45 Y17.60 
G01 X-49.60 Y17.60 
G01 X-49.60 Y14.17 
G01 X-48.83 Y13.40 
G01 X-47.95 Y13.40 
G01 X-47.85 Y13.37 
G01 X-47.75 Y13.32 
G01 X-47.68 Y13.25 
G01 X-43.62 Y9.18 
G01 X-43.58 Y9.22 
G01 X-42.78 Y9.22 
G01 X-42.22 Y8.65 
G01 X-42.22 Y7.86 
G01 X-42.78 Y7.29 
G01 X-43.58 Y7.29 
G01 X-44.14 Y7.86 
G01 X-44.14 Y8.58 
G01 X-48.17 Y12.60 
G01 X-49.05 Y12.60 
G01 X-49.15 Y12.63 
G01 X-49.25 Y12.68 
G01 X-50.25 Y13.68 
G01 X-50.32 Y13.75 
G01 X-50.37 Y13.85 
G01 X-50.40 Y13.95 
G01 X-50.40 Y18.05 
G01 X-50.37 Y18.15 
G01 X-50.32 Y18.25 
G01 X-50.25 Y18.32 
G01 X-50.15 Y18.37 
G01 X-50.05 Y18.40 
G01 X-39.67 Y18.40 
G01 X-33.40 Y24.67 
G01 X-33.40 Y28.10 
G01 X-37.33 Y28.10 
G01 X-38.68 Y26.75 
G01 X-38.75 Y26.68 
G01 X-38.85 Y26.63 
G01 X-38.95 Y26.60 
G01 X-49.55 Y26.60 
G01 X-49.65 Y26.63 
G01 X-49.75 Y26.68 
G01 X-51.25 Y28.18 
G01 X-51.32 Y28.25 
G01 X-51.37 Y28.33 
G01 X-51.34 Y28.27 
G01 X-51.19 Y28.13 
G01 X-50.02 Y26.95 
G01 X-49.98 Y26.91 
G01 X-49.96 Y26.89 
G01 X-49.92 Y26.82 
G01 X-49.90 Y26.75 
G01 X-49.90 Y26.67 
G01 X-49.92 Y26.59 
G01 X-49.96 Y26.52 
G01 X-50.02 Y26.46 
G01 X-50.09 Y26.42 
G01 X-50.17 Y26.40 
G01 X-50.25 Y26.40 
G01 X-50.32 Y26.42 
G01 X-50.39 Y26.46 
G01 X-50.45 Y26.52 
G01 X-51.81 Y27.88 
G01 X-51.82 Y27.88 
G01 X-50.33 Y26.40 
G01 X-36.67 Y26.40 
G01 X-36.52 Y26.54 
G01 X-36.52 Y27.07 
G01 X-35.96 Y27.63 
G01 X-35.16 Y27.63 
G01 X-34.60 Y27.07 
G01 X-34.60 Y26.27 
G01 X-35.16 Y25.71 
G01 X-35.96 Y25.71 
G01 X-36.09 Y25.84 
G01 X-36.18 Y25.75 
G01 X-36.25 Y25.68 
G01 X-36.33 Y25.63 
G01 X-36.25 Y25.67 
G01 X-36.24 Y25.67 
G01 X-36.21 Y25.69 
G01 X-36.17 Y25.70 
G01 X-36.13 Y25.71 
G01 X-36.09 Y25.71 
G01 X-36.05 Y25.71 
G01 X-36.03 Y25.70 
G01 X-35.16 Y25.70 
G01 X-34.59 Y26.27 
G01 X-34.59 Y27.07 
G01 X-35.07 Y27.55 
G01 X-35.12 Y27.60 
G01 X-35.13 Y27.61 
G01 X-35.17 Y27.68 
G01 X-35.19 Y27.75 
G01 X-35.19 Y27.83 
G01 X-35.17 Y27.91 
G01 X-35.13 Y27.98 
G01 X-35.07 Y28.04 
G01 X-35.00 Y28.08 
G01 X-34.93 Y28.10 
G01 X-33.67 Y28.10 
G01 X-33.59 Y28.08 
G01 X-33.52 Y28.04 
G01 X-33.46 Y27.98 
G01 X-33.42 Y27.91 
G01 X-33.40 Y27.83 
G01 X-33.40 Y24.75 
G01 X-33.42 Y24.68 
G01 X-33.46 Y24.61 
G01 X-34.05 Y24.02 
G01 X-34.09 Y23.98 
G01 X-34.10 Y23.97 
G01 X-34.17 Y23.93 
G01 X-34.25 Y23.90 
G01 X-34.33 Y23.90 
G01 X-34.41 Y23.93 
G01 X-34.48 Y23.97 
G01 X-34.53 Y24.02 
G01 X-34.57 Y24.09 
G01 X-34.59 Y24.17 
G01 X-34.59 Y24.53 
G01 X-35.16 Y25.10 
G01 X-35.96 Y25.10 
G01 X-36.53 Y24.53 
G01 X-36.53 Y24.13 
G01 X-36.55 Y24.05 
G01 X-36.59 Y23.98 
G01 X-36.64 Y23.93 
G01 X-38.11 Y22.46 
G01 X-38.18 Y22.42 
G01 X-38.25 Y22.40 
G01 X-42.08 Y22.40 
G01 X-42.14 Y22.38 
G01 X-42.05 Y22.40 
G01 X-38.17 Y22.40 
G01 X-36.52 Y24.04 
G01 X-36.52 Y24.53 
G01 X-35.96 Y25.09 
G01 X-35.16 Y25.09 
G01 X-34.60 Y24.53 
G01 X-34.60 Y23.73 
G01 X-35.16 Y23.17 
G01 X-35.96 Y23.17 
G01 X-36.11 Y23.32 
G01 X-37.68 Y21.75 
G01 X-37.75 Y21.68 
G01 X-37.83 Y21.63 
G01 X-37.77 Y21.66 
G01 X-37.59 Y21.84 
G01 X-36.30 Y23.13 
G01 X-36.27 Y23.15 
G01 X-36.23 Y23.17 
G01 X-36.18 Y23.18 
G01 X-36.15 Y23.19 
G01 X-36.11 Y23.19 
G01 X-36.07 Y23.19 
G01 X-36.04 Y23.18 
G01 X-36.00 Y23.17 
G01 X-35.98 Y23.16 
G01 X-35.60 Y23.16 
G01 X-35.52 Y23.14 
G01 X-35.45 Y23.10 
G01 X-35.40 Y23.05 
G01 X-35.36 Y22.98 
G01 X-35.33 Y22.90 
G01 X-35.33 Y22.82 
G01 X-35.36 Y22.74 
G01 X-35.40 Y22.67 
G01 X-35.45 Y22.62 
G01 X-39.61 Y18.46 
G01 X-39.68 Y18.42 
G01 X-39.75 Y18.40 
G01 X-49.33 Y18.40 
G01 X-49.41 Y18.42 
G01 X-49.41 Y18.42 
G01 X-49.48 Y18.46 
G01 X-49.54 Y18.52 
G01 X-49.58 Y18.59 
G01 X-49.60 Y18.67 
G01 X-49.60 Y18.75 
G01 X-49.58 Y18.82 
G01 X-49.58 Y18.82 
G01 X-49.54 Y18.89 
G01 X-49.48 Y18.95 
G01 X-48.29 Y20.14 
G01 X-48.16 Y20.27 
G01 X-48.13 Y20.33 
G01 X-48.18 Y20.25 
G01 X-48.25 Y20.18 
G01 X-49.75 Y18.68 
G01 X-49.85 Y18.63 
G01 X-49.95 Y18.60 
G01 X-50.60 Y18.60 
G01 X-50.60 Y13.17 
G01 X-48.75 Y11.32 
G01 X-48.68 Y11.25 
G01 X-48.63 Y11.15 
G01 X-48.60 Y11.05 
G01 X-48.60 Y7.31 
G01 X-48.50 Y7.31 
G01 X-47.93 Y6.75 
G01 X-47.93 Y5.95 
G01 X-48.50 Y5.39 
G01 X-49.29 Y5.39 
G01 X-49.51 Y5.60 
G01 X-51.10 Y5.60 
G01 X-51.10 Y4.17 
G01 X-49.33 Y2.40 
G01 X-30.17 Y2.40 
G01 X-29.27 Y3.29 
G01 X-29.28 Y3.29 
G01 X-30.11 Y2.46 
G01 X-30.18 Y2.42 
G01 X-30.25 Y2.40 
G01 X-48.24 Y2.40 
G01 X-48.32 Y2.42 
G01 X-48.32 Y2.42 
G01 X-48.39 Y2.46 
G01 X-48.45 Y2.52 
G01 X-48.49 Y2.59 
G01 X-48.51 Y2.67 
G01 X-48.51 Y2.75 
G01 X-48.49 Y2.82 
G01 X-48.49 Y2.82 
G01 X-48.45 Y2.89 
G01 X-48.39 Y2.95 
G01 X-47.93 Y3.41 
G01 X-47.93 Y3.92 
G01 X-47.91 Y3.99 
G01 X-47.87 Y4.06 
G01 X-47.81 Y4.12 
G01 X-46.39 Y5.54 
G01 X-46.32 Y5.58 
G01 X-46.25 Y5.60 
G01 X-41.92 Y5.60 
G01 X-41.86 Y5.62 
G01 X-41.95 Y5.60 
G01 X-46.33 Y5.60 
G01 X-47.93 Y4.00 
G01 X-47.93 Y3.41 
G01 X-48.50 Y2.85 
G01 X-49.29 Y2.85 
G01 X-49.86 Y3.41 
G01 X-49.86 Y4.21 
G01 X-49.29 Y4.77 
G01 X-48.50 Y4.77 
G01 X-48.39 Y4.67 
G01 X-46.82 Y6.25 
G01 X-46.75 Y6.32 
G01 X-46.65 Y6.37 
G01 X-46.55 Y6.40 
G01 X-42.17 Y6.40 
G01 X-41.16 Y7.41 
G01 X-41.60 Y7.86 
G01 X-41.60 Y8.65 
G01 X-41.04 Y9.22 
G01 X-40.79 Y9.22 
G01 X-45.30 Y13.73 
G01 X-45.44 Y13.68 
G01 X-45.62 Y13.64 
G01 X-45.82 Y13.64 
G01 X-46.00 Y13.68 
G01 X-46.18 Y13.75 
G01 X-46.33 Y13.86 
G01 X-46.47 Y13.99 
G01 X-46.57 Y14.15 
G01 X-46.65 Y14.32 
G01 X-46.68 Y14.51 
G00 Z1.00 
G00 X-49.86 Y6.75 
G01 Z-0.20 F60.00 
G01 X-49.40 Y7.21 F80.00 
G01 X-49.40 Y10.83 
G01 X-51.25 Y12.68 
G01 X-51.32 Y12.75 
G01 X-51.37 Y12.83 
G01 X-51.34 Y12.77 
G01 X-51.16 Y12.59 
G01 X-49.46 Y10.89 
G01 X-49.42 Y10.82 
G01 X-49.40 Y10.75 
G01 X-49.40 Y7.29 
G01 X-49.42 Y7.22 
G01 X-49.46 Y7.15 
G01 X-49.52 Y7.09 
G01 X-49.86 Y6.75 
G01 X-49.86 Y6.67 
G01 X-49.88 Y6.59 
G01 X-49.92 Y6.52 
G01 X-49.98 Y6.46 
G01 X-50.05 Y6.42 
G01 X-50.12 Y6.40 
G01 X-51.58 Y6.40 
G01 X-51.64 Y6.38 
G01 X-51.55 Y6.40 
G01 X-49.86 Y6.40 
G01 X-49.86 Y6.75 
G00 Z1.00 
G00 X-51.84 Y3.77 
G01 Z-0.20 F60.00 
G01 X-51.66 Y3.59 F80.00 
G01 X-49.73 Y1.66 
G01 X-49.67 Y1.63 
G01 X-49.75 Y1.68 
G01 X-51.75 Y3.68 
G01 X-51.82 Y3.75 
G01 X-51.87 Y3.83 
G01 X-51.84 Y3.77 
G00 Z1.00 
G00 X-29.77 Y1.66 
G01 Z-0.20 F60.00 
G01 X-29.63 Y1.80 F80.00 
G01 X-28.74 Y2.69 
G01 X-28.74 Y2.70 
G01 X-29.68 Y1.75 
G01 X-29.75 Y1.68 
G01 X-29.83 Y1.63 
G01 X-29.77 Y1.66 
G00 Z1.00 
G00 X-28.71 Y2.72 
G01 Z-0.20 F60.00 
G01 X-28.70 Y2.73 F80.00 
G01 X-28.68 Y2.74 
G01 X-28.67 Y2.75 
G01 X-28.65 Y2.76 
G01 X-28.63 Y2.77 
G01 X-28.61 Y2.78 
G01 X-28.59 Y2.79 
G01 X-28.57 Y2.79 
G01 X-28.55 Y2.79 
G01 X-28.53 Y2.79 
G01 X-28.51 Y2.80 
G01 X-28.49 Y2.79 
G01 X-28.47 Y2.79 
G01 X-28.45 Y2.79 
G01 X-28.43 Y2.79 
G01 X-28.41 Y2.78 
G01 X-28.39 Y2.77 
G01 X-28.38 Y2.76 
G01 X-28.33 Y2.74 
G01 X-27.91 Y2.74 
G01 X-27.73 Y2.81 
G01 X-27.87 Y2.77 
G01 X-28.03 Y2.74 
G01 X-28.20 Y2.74 
G01 X-28.37 Y2.77 
G01 X-28.53 Y2.82 
G01 X-28.58 Y2.85 
G01 X-28.72 Y2.71 
G01 X-28.71 Y2.72 
G00 Z1.00 
G00 X-29.16 Y3.56 
G01 Z-0.20 F60.00 
G01 X-29.18 Y3.73 F80.00 
G01 X-29.18 Y3.89 
G01 X-29.16 Y4.06 
G01 X-29.11 Y4.19 
G01 X-29.19 Y4.02 
G01 X-29.19 Y3.60 
G01 X-29.18 Y3.58 
G01 X-29.18 Y3.56 
G01 X-29.18 Y3.54 
G01 X-29.17 Y3.52 
G01 X-29.18 Y3.50 
G01 X-29.18 Y3.48 
G01 X-29.18 Y3.46 
G01 X-29.18 Y3.44 
G01 X-29.19 Y3.42 
G01 X-29.20 Y3.40 
G01 X-29.21 Y3.38 
G01 X-29.22 Y3.36 
G01 X-29.23 Y3.35 
G01 X-29.24 Y3.33 
G01 X-29.25 Y3.32 
G01 X-29.26 Y3.31 
G01 X-29.12 Y3.45 
G01 X-29.16 Y3.56 
G00 Z1.00 
G00 X-27.08 Y6.10 
G01 Z-0.20 F60.00 
G01 X-23.17 Y6.10 F80.00 
G01 X-23.09 Y6.08 
G01 X-23.09 Y6.08 
G01 X-23.02 Y6.04 
G01 X-22.96 Y5.98 
G01 X-22.92 Y5.91 
G01 X-22.90 Y5.83 
G01 X-22.90 Y5.75 
G01 X-22.92 Y5.68 
G01 X-22.92 Y5.68 
G01 X-22.96 Y5.61 
G01 X-23.02 Y5.55 
G01 X-23.61 Y4.96 
G01 X-23.68 Y4.92 
G01 X-23.75 Y4.90 
G01 X-24.08 Y4.90 
G01 X-24.14 Y4.88 
G01 X-24.05 Y4.90 
G01 X-23.67 Y4.90 
G01 X-22.47 Y6.10 
G01 X-27.05 Y6.10 
G01 X-27.14 Y6.12 
G01 X-27.08 Y6.10 
G00 Z1.00 
G00 X-34.84 Y44.10 
G01 Z-0.20 F60.00 
G01 X-22.69 Y44.10 F80.00 
G01 X-22.61 Y44.08 
G01 X-22.54 Y44.04 
G01 X-22.49 Y43.98 
G01 X-21.96 Y43.46 
G01 X-21.92 Y43.39 
G01 X-21.90 Y43.31 
G01 X-21.90 Y37.92 
G01 X-21.88 Y37.86 
G01 X-21.90 Y37.95 
G01 X-21.90 Y43.49 
G01 X-21.99 Y43.49 
G01 X-22.55 Y44.05 
G01 X-22.55 Y44.10 
G01 X-34.85 Y44.10 
G01 X-34.84 Y44.10 
G00 Z1.00 
G00 X-48.82 Y44.64 
G01 Z-0.20 F60.00 
G01 X-48.82 Y44.26 F80.00 
G01 X-48.67 Y43.90 
G01 X-48.40 Y43.63 
G01 X-48.05 Y43.48 
G01 X-45.93 Y43.48 
G01 X-45.87 Y43.51 
G01 X-45.85 Y43.52 
G01 X-45.85 Y43.52 
G01 X-46.03 Y43.49 
G01 X-47.95 Y43.49 
G01 X-48.13 Y43.52 
G01 X-48.31 Y43.60 
G01 X-48.47 Y43.70 
G01 X-48.60 Y43.84 
G01 X-48.71 Y43.99 
G01 X-48.78 Y44.17 
G01 X-48.82 Y44.35 
G01 X-48.82 Y44.55 
G01 X-48.78 Y44.73 
G01 X-48.72 Y44.87 
G01 X-48.73 Y44.87 
G01 X-48.82 Y44.64 
G00 Z1.00 
G00 X-26.68 Y29.60 
G01 Z-0.20 F60.00 
G01 X-19.42 Y29.60 F80.00 
G01 X-19.36 Y29.62 
G01 X-19.45 Y29.60 
G01 X-26.69 Y29.60 
G01 X-26.68 Y29.60 
G00 Z1.00 
G00 X-3.34 Y30.27 
G01 Z-0.20 F60.00 
G01 X-3.23 Y30.16 F80.00 
G01 X-3.17 Y30.13 
G01 X-3.25 Y30.18 
G01 X-3.32 Y30.25 
G01 X-3.37 Y30.33 
G01 X-3.34 Y30.27 
G00 Z1.00 
G00 X-3.40 Y36.71 
G01 Z-0.20 F60.00 
G01 X-3.40 Y30.42 F80.00 
G01 X-3.38 Y30.36 
G01 X-3.40 Y30.45 
G01 X-3.40 Y36.72 
G01 X-3.40 Y36.71 
G00 Z1.00 
G00 X-3.42 Y36.84 
G01 Z-0.20 F60.00 
G01 X-3.42 Y36.83 F80.00 
G01 X-3.41 Y36.81 
G01 X-3.41 Y36.79 
G01 X-3.40 Y36.77 
G01 X-3.40 Y36.75 
G01 X-3.40 Y36.74 
G01 X-3.40 Y36.79 
G01 X-3.42 Y36.84 
G00 Z1.00 
G00 X-2.60 Y31.20 
G01 Z-0.20 F60.00 
G01 X-2.60 Y36.01 F80.00 
G01 X-2.58 Y36.08 
G01 X-2.54 Y36.15 
G01 X-2.48 Y36.21 
G01 X-2.41 Y36.25 
G01 X-2.37 Y36.26 
G01 X-1.99 Y36.42 
G01 X-1.72 Y36.69 
G01 X-1.57 Y37.04 
G01 X-1.57 Y39.16 
G01 X-1.72 Y39.51 
G01 X-1.99 Y39.78 
G01 X-2.35 Y39.93 
G01 X-2.73 Y39.93 
G01 X-3.09 Y39.78 
G01 X-3.36 Y39.51 
G01 X-3.51 Y39.16 
G01 X-3.51 Y37.04 
G01 X-3.43 Y36.87 
G01 X-3.43 Y36.86 
G01 X-3.47 Y36.96 
G01 X-3.50 Y37.14 
G01 X-3.50 Y39.06 
G01 X-3.47 Y39.24 
G01 X-3.39 Y39.42 
G01 X-3.29 Y39.58 
G01 X-3.15 Y39.71 
G01 X-3.00 Y39.82 
G01 X-2.82 Y39.89 
G01 X-2.64 Y39.93 
G01 X-2.44 Y39.93 
G01 X-2.26 Y39.89 
G01 X-2.08 Y39.82 
G01 X-1.93 Y39.71 
G01 X-1.79 Y39.58 
G01 X-1.69 Y39.42 
G01 X-1.61 Y39.24 
G01 X-1.58 Y39.06 
G01 X-1.58 Y37.14 
G01 X-1.61 Y36.96 
G01 X-1.69 Y36.78 
G01 X-1.79 Y36.62 
G01 X-1.93 Y36.49 
G01 X-2.08 Y36.38 
G01 X-2.26 Y36.31 
G01 X-2.44 Y36.27 
G01 X-2.60 Y36.27 
G01 X-2.60 Y31.19 
G01 X-2.60 Y31.20 
G00 Z1.00 
G00 X-5.58 Y23.60 
G01 Z-0.20 F60.00 
G01 X-2.17 Y23.60 F80.00 
G01 X-2.09 Y23.58 
G01 X-2.02 Y23.54 
G01 X-1.96 Y23.48 
G01 X-1.92 Y23.41 
G01 X-1.90 Y23.33 
G01 X-1.90 Y7.25 
G01 X-1.92 Y7.18 
G01 X-1.96 Y7.11 
G01 X-2.02 Y7.05 
G01 X-3.09 Y5.98 
G01 X-3.09 Y5.97 
G01 X-1.90 Y7.17 
G01 X-1.90 Y23.60 
G01 X-5.55 Y23.60 
G01 X-5.64 Y23.62 
G01 X-5.58 Y23.60 
G00 Z1.00 
G00 X-3.12 Y5.95 
G01 Z-0.20 F60.00 
G01 X-3.13 Y5.94 F80.00 
G01 X-3.15 Y5.93 
G01 X-3.16 Y5.92 
G01 X-3.18 Y5.91 
G01 X-3.20 Y5.90 
G01 X-3.22 Y5.89 
G01 X-3.24 Y5.89 
G01 X-3.26 Y5.88 
G01 X-3.28 Y5.88 
G01 X-3.30 Y5.88 
G01 X-3.32 Y5.88 
G01 X-3.34 Y5.88 
G01 X-3.36 Y5.88 
G01 X-3.38 Y5.88 
G01 X-3.39 Y5.89 
G01 X-3.25 Y5.81 
G01 X-3.11 Y5.96 
G01 X-3.12 Y5.95 
G00 Z1.00 
G00 X-44.32 Y21.90 
G01 Z-0.20 F60.00 
G01 X-44.58 Y21.90 F80.00 
G01 X-44.59 Y21.90 
G01 X-44.31 Y21.90 
G01 X-44.32 Y21.90 
G00 Z1.00 
G00 X-2.39 Y30.89 
G01 Z-0.20 F60.00 
G01 X-2.41 Y30.90 F80.00 
G01 X-2.43 Y30.91 
G01 X-2.45 Y30.91 
G01 X-2.46 Y30.93 
G01 X-2.48 Y30.94 
G01 X-2.49 Y30.95 
G01 X-2.51 Y30.96 
G01 X-2.52 Y30.98 
G01 X-2.54 Y30.99 
G01 X-2.55 Y31.01 
G01 X-2.56 Y31.03 
G01 X-2.57 Y31.04 
G01 X-2.58 Y31.06 
G01 X-2.58 Y31.08 
G01 X-2.59 Y31.10 
G01 X-2.59 Y31.12 
G01 X-2.60 Y31.14 
G01 X-2.60 Y31.16 
G01 X-2.60 Y31.17 
G01 X-2.60 Y30.90 
G01 X-2.45 Y30.90 
G01 X-2.36 Y30.88 
G01 X-2.39 Y30.89 
G00 Z1.00 
G00 X-3.28 Y29.54 
G01 Z-0.20 F60.00 
G01 X-3.28 Y29.54 F80.00 
G01 X-3.39 Y29.54 
G01 X-3.46 Y29.56 
G01 X-3.53 Y29.60 
G01 X-3.59 Y29.66 
G01 X-3.61 Y29.68 
G01 X-3.62 Y29.68 
G01 X-3.47 Y29.54 
G01 X-3.28 Y29.54 
G00 Z1.00 
G00 X-3.62 Y29.69 
G01 Z-0.20 F60.00 
G01 X-3.81 Y29.88 F80.00 
G01 X-3.82 Y29.88 
G01 X-3.62 Y29.68 
G01 X-3.62 Y29.69 
G00 Z1.00 
G00 X-45.67 Y43.60 
G01 Z-0.20 F60.00 
G01 X-45.84 Y43.52 F80.00 
G01 X-45.83 Y43.53 
G01 X-45.82 Y43.53 
G01 X-45.80 Y43.54 
G01 X-45.78 Y43.54 
G01 X-45.76 Y43.54 
G01 X-45.74 Y43.54 
G01 X-45.72 Y43.54 
G01 X-45.70 Y43.54 
G01 X-45.68 Y43.54 
G01 X-45.66 Y43.53 
G01 X-45.64 Y43.53 
G01 X-45.62 Y43.52 
G01 X-45.60 Y43.51 
G01 X-45.58 Y43.50 
G01 X-45.57 Y43.49 
G01 X-45.55 Y43.48 
G01 X-45.54 Y43.47 
G01 X-45.53 Y43.46 
G01 X-45.67 Y43.60 
G01 X-45.67 Y43.60 
G00 Z1.00 
G00 X-45.51 Y43.44 
G01 Z-0.20 F60.00 
G01 X-43.73 Y41.66 F80.00 
G01 X-43.67 Y41.63 
G01 X-43.75 Y41.68 
G01 X-45.51 Y43.45 
G01 X-45.51 Y43.44 
G00 Z1.00 
G00 X-26.98 Y41.60 
G01 Z-0.20 F60.00 
G01 X-26.98 Y39.68 F80.00 
G01 X-27.01 Y39.50 
G01 X-27.09 Y39.32 
G01 X-27.19 Y39.16 
G01 X-27.33 Y39.03 
G01 X-27.48 Y38.92 
G01 X-27.66 Y38.85 
G01 X-27.84 Y38.81 
G01 X-28.04 Y38.81 
G01 X-28.22 Y38.85 
G01 X-28.40 Y38.92 
G01 X-28.55 Y39.03 
G01 X-28.69 Y39.16 
G01 X-28.79 Y39.32 
G01 X-28.87 Y39.50 
G01 X-28.90 Y39.68 
G01 X-28.90 Y41.34 
G01 X-29.17 Y41.60 
G01 X-43.55 Y41.60 
G01 X-43.64 Y41.62 
G01 X-43.58 Y41.60 
G01 X-29.25 Y41.60 
G01 X-29.22 Y41.59 
G01 X-29.18 Y41.58 
G01 X-29.16 Y41.57 
G01 X-29.11 Y41.54 
G01 X-29.02 Y41.45 
G01 X-28.97 Y41.40 
G01 X-28.96 Y41.38 
G01 X-28.93 Y41.33 
G01 X-28.91 Y41.25 
G01 X-28.91 Y39.58 
G01 X-28.76 Y39.23 
G01 X-28.49 Y38.96 
G01 X-28.13 Y38.81 
G01 X-27.75 Y38.81 
G01 X-27.39 Y38.96 
G01 X-27.12 Y39.23 
G01 X-26.97 Y39.58 
G01 X-26.97 Y41.70 
G01 X-27.12 Y42.05 
G01 X-27.39 Y42.32 
G01 X-27.75 Y42.47 
G01 X-28.13 Y42.47 
G01 X-28.45 Y42.34 
G01 X-28.53 Y42.31 
G01 X-28.59 Y42.30 
G01 X-28.61 Y42.30 
G01 X-28.62 Y42.30 
G01 X-28.69 Y42.31 
G01 X-28.76 Y42.34 
G01 X-28.83 Y42.37 
G01 X-28.75 Y42.32 
G01 X-28.62 Y42.19 
G01 X-28.55 Y42.25 
G01 X-28.40 Y42.36 
G01 X-28.22 Y42.43 
G01 X-28.04 Y42.47 
G01 X-27.84 Y42.47 
G01 X-27.66 Y42.43 
G01 X-27.48 Y42.36 
G01 X-27.33 Y42.25 
G01 X-27.19 Y42.12 
G01 X-27.09 Y41.96 
G01 X-27.01 Y41.78 
G01 X-26.98 Y41.60 
G00 Z1.00 
G00 X-3.82 Y29.88 
G01 Z-0.20 F60.00 
G01 X-3.82 Y29.89 F80.00 
G01 X-5.04 Y31.11 
G01 X-5.08 Y31.18 
G01 X-5.10 Y31.25 
G01 X-5.10 Y35.96 
G01 X-5.10 Y35.97 
G01 X-5.10 Y31.17 
G01 X-3.82 Y29.88 
G00 Z1.00 
G00 X-5.90 Y36.62 
G01 Z-0.20 F60.00 
G01 X-5.90 Y30.92 F80.00 
G01 X-5.88 Y30.86 
G01 X-5.90 Y30.95 
G01 X-5.90 Y36.63 
G01 X-5.90 Y36.62 
G00 Z1.00 
G00 X-4.12 Y39.06 
G01 Z-0.20 F60.00 
G01 X-4.12 Y37.14 F80.00 
G01 X-4.15 Y36.96 
G01 X-4.23 Y36.78 
G01 X-4.33 Y36.62 
G01 X-4.47 Y36.49 
G01 X-4.62 Y36.38 
G01 X-4.80 Y36.31 
G01 X-4.98 Y36.27 
G01 X-5.10 Y36.27 
G01 X-5.10 Y35.99 
G01 X-5.10 Y36.00 
G01 X-5.10 Y36.02 
G01 X-5.09 Y36.04 
G01 X-5.09 Y36.06 
G01 X-5.08 Y36.08 
G01 X-5.08 Y36.10 
G01 X-5.07 Y36.12 
G01 X-5.06 Y36.13 
G01 X-5.05 Y36.15 
G01 X-5.04 Y36.17 
G01 X-5.02 Y36.18 
G01 X-5.01 Y36.20 
G01 X-4.99 Y36.21 
G01 X-4.98 Y36.22 
G01 X-4.96 Y36.23 
G01 X-4.95 Y36.25 
G01 X-4.93 Y36.25 
G01 X-4.91 Y36.26 
G01 X-4.89 Y36.27 
G01 X-4.53 Y36.42 
G01 X-4.26 Y36.69 
G01 X-4.11 Y37.04 
G01 X-4.11 Y39.16 
G01 X-4.26 Y39.51 
G01 X-4.53 Y39.78 
G01 X-4.89 Y39.93 
G01 X-5.27 Y39.93 
G01 X-5.63 Y39.78 
G01 X-5.90 Y39.51 
G01 X-6.05 Y39.16 
G01 X-6.05 Y37.04 
G01 X-5.93 Y36.77 
G01 X-5.92 Y36.75 
G01 X-5.92 Y36.74 
G01 X-5.91 Y36.72 
G01 X-5.91 Y36.70 
G01 X-5.90 Y36.68 
G01 X-5.90 Y36.66 
G01 X-5.90 Y36.65 
G01 X-5.90 Y36.73 
G01 X-5.93 Y36.78 
G01 X-6.01 Y36.96 
G01 X-6.04 Y37.14 
G01 X-6.04 Y39.06 
G01 X-6.01 Y39.24 
G01 X-5.93 Y39.42 
G01 X-5.83 Y39.58 
G01 X-5.69 Y39.71 
G01 X-5.54 Y39.82 
G01 X-5.36 Y39.89 
G01 X-5.18 Y39.93 
G01 X-4.98 Y39.93 
G01 X-4.80 Y39.89 
G01 X-4.62 Y39.82 
G01 X-4.47 Y39.71 
G01 X-4.33 Y39.58 
G01 X-4.23 Y39.42 
G01 X-4.15 Y39.24 
G01 X-4.12 Y39.06 
G00 Z1.00 
G00 X-8.45 Y31.90 
G01 Z-0.20 F60.00 
G01 X-8.36 Y31.88 F80.00 
G01 X-8.42 Y31.90 
G01 X-8.75 Y31.90 
G01 X-8.82 Y31.92 
G01 X-8.82 Y31.92 
G01 X-8.89 Y31.96 
G01 X-8.95 Y32.02 
G01 X-10.77 Y33.84 
G01 X-10.83 Y33.87 
G01 X-10.75 Y33.82 
G01 X-8.83 Y31.90 
G01 X-8.45 Y31.90 
G00 Z1.00 
G00 X-11.12 Y31.35 
G01 Z-0.20 F60.00 
G01 X-11.12 Y32.15 F80.00 
G01 X-10.67 Y32.60 
G01 X-11.17 Y33.10 
G01 X-15.83 Y33.10 
G01 X-16.82 Y32.12 
G01 X-16.82 Y31.35 
G01 X-17.38 Y30.79 
G01 X-18.15 Y30.79 
G01 X-19.18 Y29.75 
G01 X-19.25 Y29.68 
G01 X-19.33 Y29.63 
G01 X-19.27 Y29.66 
G01 X-19.09 Y29.84 
G01 X-18.21 Y30.72 
G01 X-18.14 Y30.76 
G01 X-18.06 Y30.78 
G01 X-17.38 Y30.78 
G01 X-16.81 Y31.35 
G01 X-16.81 Y32.03 
G01 X-16.79 Y32.11 
G01 X-16.75 Y32.18 
G01 X-16.70 Y32.23 
G01 X-15.89 Y33.04 
G01 X-15.82 Y33.08 
G01 X-15.75 Y33.10 
G01 X-13.41 Y33.10 
G01 X-13.34 Y33.08 
G01 X-13.34 Y33.08 
G01 X-13.27 Y33.04 
G01 X-13.21 Y32.98 
G01 X-13.17 Y32.91 
G01 X-13.15 Y32.83 
G01 X-13.15 Y32.75 
G01 X-13.17 Y32.68 
G01 X-13.17 Y32.68 
G01 X-13.21 Y32.61 
G01 X-13.27 Y32.55 
G01 X-13.67 Y32.15 
G01 X-13.67 Y31.35 
G01 X-13.10 Y30.78 
G01 X-12.94 Y30.78 
G01 X-12.86 Y30.76 
G01 X-12.79 Y30.72 
G01 X-12.74 Y30.67 
G01 X-5.73 Y23.66 
G01 X-5.67 Y23.63 
G01 X-5.75 Y23.68 
G01 X-12.85 Y30.79 
G01 X-13.10 Y30.79 
G01 X-13.66 Y31.35 
G01 X-13.66 Y32.15 
G01 X-13.10 Y32.71 
G01 X-12.30 Y32.71 
G01 X-11.74 Y32.15 
G01 X-11.74 Y31.35 
G01 X-12.01 Y31.08 
G01 X-5.33 Y24.40 
G01 X-1.90 Y24.40 
G01 X-1.90 Y29.33 
G01 X-2.67 Y30.10 
G01 X-3.05 Y30.10 
G01 X-3.13 Y30.12 
G01 X-3.13 Y30.12 
G01 X-3.11 Y30.11 
G01 X-3.10 Y30.10 
G01 X-3.08 Y30.09 
G01 X-3.06 Y30.07 
G01 X-3.05 Y30.06 
G01 X-3.04 Y30.05 
G01 X-3.02 Y30.03 
G01 X-3.01 Y30.01 
G01 X-3.00 Y30.00 
G01 X-2.99 Y29.98 
G01 X-2.98 Y29.96 
G01 X-2.98 Y29.94 
G01 X-2.97 Y29.92 
G01 X-2.97 Y29.90 
G01 X-2.96 Y29.89 
G01 X-2.96 Y29.86 
G01 X-2.96 Y29.85 
G01 X-2.96 Y29.83 
G01 X-2.96 Y29.80 
G01 X-2.97 Y29.79 
G01 X-2.97 Y29.77 
G01 X-2.98 Y29.75 
G01 X-2.98 Y29.73 
G01 X-2.99 Y29.71 
G01 X-3.00 Y29.69 
G01 X-3.01 Y29.68 
G01 X-3.02 Y29.66 
G01 X-3.04 Y29.64 
G01 X-3.05 Y29.63 
G01 X-3.06 Y29.62 
G01 X-3.08 Y29.60 
G01 X-3.10 Y29.59 
G01 X-3.11 Y29.58 
G01 X-3.13 Y29.57 
G01 X-3.15 Y29.56 
G01 X-3.17 Y29.56 
G01 X-3.19 Y29.55 
G01 X-3.21 Y29.55 
G01 X-3.22 Y29.54 
G01 X-3.24 Y29.54 
G01 X-3.25 Y29.54 
G01 X-2.78 Y29.54 
G01 X-2.21 Y28.97 
G01 X-2.21 Y28.18 
G01 X-2.78 Y27.61 
G01 X-3.57 Y27.61 
G01 X-4.14 Y28.18 
G01 X-4.14 Y28.97 
G01 X-4.09 Y29.02 
G01 X-5.75 Y30.68 
G01 X-5.82 Y30.75 
G01 X-5.87 Y30.83 
G01 X-5.84 Y30.77 
G01 X-5.71 Y30.64 
G01 X-4.20 Y29.13 
G01 X-4.16 Y29.06 
G01 X-4.14 Y28.99 
G01 X-4.14 Y28.40 
G01 X-4.16 Y28.33 
G01 X-4.20 Y28.26 
G01 X-4.26 Y28.20 
G01 X-4.33 Y28.16 
G01 X-4.40 Y28.14 
G01 X-4.49 Y28.14 
G01 X-4.56 Y28.16 
G01 X-4.63 Y28.20 
G01 X-4.69 Y28.26 
G01 X-8.14 Y31.71 
G01 X-8.27 Y31.84 
G01 X-8.33 Y31.87 
G01 X-8.25 Y31.82 
G01 X-8.18 Y31.75 
G01 X-3.43 Y27.00 
G01 X-2.78 Y27.00 
G01 X-2.21 Y26.43 
G01 X-2.21 Y25.64 
G01 X-2.78 Y25.07 
G01 X-3.57 Y25.07 
G01 X-4.14 Y25.64 
G01 X-4.14 Y26.43 
G01 X-4.07 Y26.50 
G01 X-8.67 Y31.10 
G01 X-9.45 Y31.10 
G01 X-9.76 Y30.79 
G01 X-10.56 Y30.79 
G01 X-11.12 Y31.35 
G00 Z1.00 
G00 X-10.92 Y33.90 
G01 Z-0.20 F60.00 
G01 X-16.08 Y33.90 F80.00 
G01 X-16.14 Y33.88 
G01 X-16.05 Y33.90 
G01 X-10.95 Y33.90 
G01 X-10.86 Y33.88 
G01 X-10.92 Y33.90 
G00 Z1.00 
G00 X-4.02 Y5.97 
G01 Z-0.20 F60.00 
G01 X-4.19 Y5.90 F80.00 
G01 X-4.06 Y5.94 
G01 X-3.89 Y5.97 
G01 X-3.73 Y5.97 
G01 X-3.56 Y5.94 
G01 X-3.44 Y5.90 
G01 X-3.45 Y5.91 
G01 X-3.60 Y5.97 
G01 X-4.02 Y5.97 
G00 Z1.00 
G00 X-4.71 Y5.51 
G01 Z-0.20 F60.00 
G01 X-4.79 Y5.34 F80.00 
G01 X-4.72 Y5.46 
G01 X-4.62 Y5.60 
G01 X-4.50 Y5.72 
G01 X-4.37 Y5.81 
G01 X-4.24 Y5.88 
G01 X-4.41 Y5.81 
G01 X-4.71 Y5.51 
G00 Z1.00 
G00 X-4.88 Y4.69 
G01 Z-0.20 F60.00 
G01 X-4.81 Y4.52 F80.00 
G01 X-4.85 Y4.65 
G01 X-4.88 Y4.82 
G01 X-4.88 Y4.99 
G01 X-4.85 Y5.15 
G01 X-4.81 Y5.29 
G01 X-4.88 Y5.11 
G01 X-4.88 Y4.69 
G00 Z1.00 
G00 X-4.41 Y4.00 
G01 Z-0.20 F60.00 
G01 X-4.24 Y3.93 F80.00 
G01 X-4.37 Y3.99 
G01 X-4.50 Y4.09 
G01 X-4.62 Y4.21 
G01 X-4.72 Y4.34 
G01 X-4.79 Y4.47 
G01 X-4.71 Y4.30 
G01 X-4.41 Y4.00 
G00 Z1.00 
G00 X-3.60 Y3.83 
G01 Z-0.20 F60.00 
G01 X-3.43 Y3.91 F80.00 
G01 X-3.56 Y3.86 
G01 X-3.73 Y3.84 
G01 X-3.89 Y3.84 
G01 X-4.06 Y3.86 
G01 X-4.19 Y3.91 
G01 X-4.02 Y3.83 
G01 X-3.60 Y3.83 
G00 Z1.00 
G00 X-2.91 Y4.30 
G01 Z-0.20 F60.00 
G01 X-2.83 Y4.47 F80.00 
G01 X-2.90 Y4.34 
G01 X-3.00 Y4.21 
G01 X-3.12 Y4.09 
G01 X-3.25 Y3.99 
G01 X-3.38 Y3.93 
G01 X-3.21 Y4.00 
G01 X-2.91 Y4.30 
G00 Z1.00 
G00 X-3.66 Y22.23 
G01 Z-0.20 F60.00 
G01 X-3.77 Y22.34 F80.00 
G01 X-3.83 Y22.37 
G01 X-3.75 Y22.32 
G01 X-3.68 Y22.25 
G01 X-3.63 Y22.17 
G01 X-3.66 Y22.23 
G00 Z1.00 
G00 X-3.60 Y16.71 
G01 Z-0.20 F60.00 
G01 X-3.60 Y22.08 F80.00 
G01 X-3.62 Y22.14 
G01 X-3.60 Y22.05 
G01 X-3.60 Y16.70 
G01 X-3.60 Y16.71 
G00 Z1.00 
G00 X-3.56 Y16.46 
G01 Z-0.20 F60.00 
G01 X-3.43 Y16.41 F80.00 
G01 X-3.43 Y16.42 
G01 X-3.45 Y16.42 
G01 X-3.46 Y16.44 
G01 X-3.48 Y16.45 
G01 X-3.49 Y16.46 
G01 X-3.51 Y16.47 
G01 X-3.52 Y16.49 
G01 X-3.54 Y16.50 
G01 X-3.55 Y16.52 
G01 X-3.56 Y16.54 
G01 X-3.57 Y16.55 
G01 X-3.58 Y16.57 
G01 X-3.58 Y16.59 
G01 X-3.59 Y16.61 
G01 X-3.59 Y16.63 
G01 X-3.60 Y16.65 
G01 X-3.60 Y16.67 
G01 X-3.60 Y16.68 
G01 X-3.60 Y16.46 
G01 X-3.56 Y16.46 
G00 Z1.00 
G00 X-3.95 Y22.40 
G01 Z-0.20 F60.00 
G01 X-3.86 Y22.38 F80.00 
G01 X-3.92 Y22.40 
G01 X-6.25 Y22.40 
G01 X-6.27 Y22.41 
G01 X-6.32 Y22.42 
G01 X-6.35 Y22.44 
G01 X-6.39 Y22.46 
G01 X-6.45 Y22.52 
G01 X-6.54 Y22.61 
G01 X-6.59 Y22.66 
G01 X-6.61 Y22.69 
G01 X-6.63 Y22.73 
G01 X-6.65 Y22.81 
G01 X-6.65 Y23.26 
G01 X-7.22 Y23.83 
G01 X-8.02 Y23.83 
G01 X-8.33 Y23.52 
G01 X-8.38 Y23.46 
G01 X-8.45 Y23.42 
G01 X-8.53 Y23.40 
G01 X-24.75 Y23.40 
G01 X-24.82 Y23.42 
G01 X-24.89 Y23.46 
G01 X-24.95 Y23.52 
G01 X-31.27 Y29.84 
G01 X-31.33 Y29.87 
G01 X-31.25 Y29.82 
G01 X-31.18 Y29.75 
G01 X-24.83 Y23.40 
G01 X-8.44 Y23.40 
G01 X-8.02 Y23.82 
G01 X-7.22 Y23.82 
G01 X-6.66 Y23.26 
G01 X-6.66 Y22.72 
G01 X-6.33 Y22.40 
G01 X-3.95 Y22.40 
G00 Z1.00 
G00 X-8.58 Y22.46 
G01 Z-0.20 F60.00 
G01 X-8.58 Y22.60 F80.00 
G01 X-23.60 Y22.60 
G01 X-23.60 Y19.25 
G01 X-23.17 Y18.81 
G01 X-23.17 Y18.02 
G01 X-23.73 Y17.45 
G01 X-24.53 Y17.45 
G01 X-25.09 Y18.02 
G01 X-25.09 Y18.81 
G01 X-24.53 Y19.38 
G01 X-24.40 Y19.38 
G01 X-24.40 Y22.60 
G01 X-25.05 Y22.60 
G01 X-25.14 Y22.62 
G01 X-25.08 Y22.60 
G01 X-24.67 Y22.60 
G01 X-24.59 Y22.58 
G01 X-24.52 Y22.54 
G01 X-24.46 Y22.48 
G01 X-24.42 Y22.41 
G01 X-24.40 Y22.33 
G01 X-24.40 Y19.59 
G01 X-24.42 Y19.52 
G01 X-24.42 Y19.52 
G01 X-24.46 Y19.45 
G01 X-24.52 Y19.39 
G01 X-25.10 Y18.82 
G01 X-25.10 Y18.01 
G01 X-24.53 Y17.45 
G01 X-23.73 Y17.45 
G01 X-23.08 Y18.10 
G01 X-23.01 Y18.14 
G01 X-22.94 Y18.16 
G01 X-22.86 Y18.16 
G01 X-22.78 Y18.14 
G01 X-22.78 Y18.14 
G01 X-22.71 Y18.10 
G01 X-22.65 Y18.04 
G01 X-22.01 Y17.40 
G01 X-21.89 Y17.40 
G01 X-21.89 Y17.45 
G01 X-21.99 Y17.45 
G01 X-22.55 Y18.02 
G01 X-22.55 Y18.81 
G01 X-21.99 Y19.38 
G01 X-21.89 Y19.38 
G01 X-21.89 Y19.43 
G01 X-22.01 Y19.43 
G01 X-22.65 Y18.79 
G01 X-22.70 Y18.75 
G01 X-22.71 Y18.73 
G01 X-22.78 Y18.69 
G01 X-22.86 Y18.67 
G01 X-22.94 Y18.67 
G01 X-23.01 Y18.69 
G01 X-23.08 Y18.73 
G01 X-23.09 Y18.74 
G01 X-23.48 Y19.13 
G01 X-23.53 Y19.18 
G01 X-23.54 Y19.19 
G01 X-23.58 Y19.26 
G01 X-23.60 Y19.33 
G01 X-23.60 Y22.33 
G01 X-23.58 Y22.41 
G01 X-23.54 Y22.48 
G01 X-23.48 Y22.54 
G01 X-23.41 Y22.58 
G01 X-23.33 Y22.60 
G01 X-8.81 Y22.60 
G01 X-8.74 Y22.58 
G01 X-8.73 Y22.58 
G01 X-8.66 Y22.54 
G01 X-8.61 Y22.48 
G01 X-8.02 Y21.89 
G01 X-7.14 Y21.89 
G01 X-7.13 Y21.90 
G01 X-7.05 Y21.90 
G01 X-6.97 Y21.88 
G01 X-6.93 Y21.85 
G01 X-6.90 Y21.84 
G01 X-6.85 Y21.78 
G01 X-6.73 Y21.66 
G01 X-6.67 Y21.63 
G01 X-6.75 Y21.68 
G01 X-7.09 Y22.02 
G01 X-7.22 Y21.90 
G01 X-8.02 Y21.90 
G01 X-8.58 Y22.46 
G00 Z1.00 
G00 X-6.58 Y21.60 
G01 Z-0.20 F60.00 
G01 X-4.67 Y21.60 F80.00 
G01 X-4.59 Y21.58 
G01 X-4.52 Y21.54 
G01 X-4.46 Y21.48 
G01 X-4.42 Y21.41 
G01 X-4.40 Y21.33 
G01 X-4.40 Y16.42 
G01 X-4.42 Y16.34 
G01 X-4.44 Y16.32 
G01 X-4.46 Y16.27 
G01 X-4.52 Y16.22 
G01 X-4.71 Y16.02 
G01 X-4.79 Y15.85 
G01 X-4.72 Y15.98 
G01 X-4.62 Y16.11 
G01 X-4.50 Y16.23 
G01 X-4.40 Y16.31 
G01 X-4.40 Y21.60 
G01 X-6.55 Y21.60 
G01 X-6.64 Y21.62 
G01 X-6.58 Y21.60 
G00 Z1.00 
G00 X-26.25 Y11.05 
G01 Z-0.20 F60.00 
G01 X-25.65 Y11.64 F80.00 
G01 X-25.65 Y11.76 
G01 X-25.71 Y11.76 
G01 X-25.71 Y11.67 
G01 X-26.27 Y11.10 
G01 X-26.37 Y11.10 
G01 X-26.37 Y11.05 
G01 X-26.25 Y11.05 
G00 Z1.00 
G00 X-24.32 Y3.21 
G01 Z-0.20 F60.00 
G01 X-24.25 Y3.38 F80.00 
G01 X-24.31 Y3.25 
G01 X-24.41 Y3.12 
G01 X-24.53 Y3.00 
G01 X-24.66 Y2.90 
G01 X-24.79 Y2.83 
G01 X-24.62 Y2.91 
G01 X-24.32 Y3.21 
G00 Z1.00 
G00 X-25.01 Y2.74 
G01 Z-0.20 F60.00 
G01 X-24.84 Y2.81 F80.00 
G01 X-24.97 Y2.77 
G01 X-25.14 Y2.74 
G01 X-25.31 Y2.74 
G01 X-25.47 Y2.77 
G01 X-25.61 Y2.81 
G01 X-25.43 Y2.74 
G01 X-25.01 Y2.74 
G00 Z1.00 
G00 X-25.83 Y2.91 
G01 Z-0.20 F60.00 
G01 X-25.66 Y2.83 F80.00 
G01 X-25.78 Y2.90 
G01 X-25.92 Y3.00 
G01 X-26.04 Y3.12 
G01 X-26.13 Y3.25 
G01 X-26.20 Y3.38 
G01 X-26.13 Y3.21 
G01 X-25.83 Y2.91 
G00 Z1.00 
G00 X-26.29 Y3.60 
G01 Z-0.20 F60.00 
G01 X-26.22 Y3.43 F80.00 
G01 X-26.26 Y3.56 
G01 X-26.29 Y3.73 
G01 X-26.29 Y3.89 
G01 X-26.26 Y4.06 
G01 X-26.22 Y4.19 
G01 X-26.29 Y4.02 
G01 X-26.29 Y3.60 
G00 Z1.00 
G00 X-26.13 Y4.41 
G01 Z-0.20 F60.00 
G01 X-26.20 Y4.24 F80.00 
G01 X-26.13 Y4.37 
G01 X-26.04 Y4.50 
G01 X-25.92 Y4.62 
G01 X-25.78 Y4.72 
G01 X-25.66 Y4.79 
G01 X-25.83 Y4.71 
G01 X-26.13 Y4.41 
G00 Z1.00 
G00 X-25.43 Y4.88 
G01 Z-0.20 F60.00 
G01 X-25.61 Y4.81 F80.00 
G01 X-25.47 Y4.85 
G01 X-25.31 Y4.88 
G01 X-25.14 Y4.88 
G01 X-24.97 Y4.85 
G01 X-24.84 Y4.81 
G01 X-25.01 Y4.88 
G01 X-25.43 Y4.88 
G00 Z1.00 
G00 X-29.02 Y4.41 
G01 Z-0.20 F60.00 
G01 X-29.09 Y4.24 F80.00 
G01 X-29.03 Y4.37 
G01 X-28.93 Y4.50 
G01 X-28.81 Y4.62 
G01 X-28.68 Y4.72 
G01 X-28.55 Y4.79 
G01 X-28.72 Y4.71 
G01 X-29.02 Y4.41 
G00 Z1.00 
G00 X-28.33 Y4.88 
G01 Z-0.20 F60.00 
G01 X-28.50 Y4.81 F80.00 
G01 X-28.37 Y4.85 
G01 X-28.20 Y4.88 
G01 X-28.03 Y4.88 
G01 X-27.87 Y4.85 
G01 X-27.73 Y4.81 
G01 X-27.91 Y4.88 
G01 X-28.33 Y4.88 
G00 Z1.00 
G00 X-27.51 Y4.71 
G01 Z-0.20 F60.00 
G01 X-27.68 Y4.79 F80.00 
G01 X-27.56 Y4.72 
G01 X-27.42 Y4.62 
G01 X-27.30 Y4.50 
G01 X-27.21 Y4.37 
G01 X-27.14 Y4.24 
G01 X-27.21 Y4.41 
G01 X-27.51 Y4.71 
G00 Z1.00 
G00 X-27.05 Y4.02 
G01 Z-0.20 F60.00 
G01 X-27.12 Y4.19 F80.00 
G01 X-27.08 Y4.06 
G01 X-27.05 Y3.89 
G01 X-27.05 Y3.73 
G01 X-27.08 Y3.56 
G01 X-27.12 Y3.43 
G01 X-27.05 Y3.60 
G01 X-27.05 Y4.02 
G00 Z1.00 
G00 X-27.21 Y3.21 
G01 Z-0.20 F60.00 
G01 X-27.14 Y3.38 F80.00 
G01 X-27.21 Y3.25 
G01 X-27.30 Y3.12 
G01 X-27.42 Y3.00 
G01 X-27.56 Y2.90 
G01 X-27.68 Y2.83 
G01 X-27.51 Y2.91 
G01 X-27.21 Y3.21 
G00 Z1.00 
G00 X-51.19 Y22.53 
G01 Z-0.20 F60.00 
G01 X-51.33 Y22.46 F80.00 
G01 X-51.46 Y22.37 
G01 X-51.58 Y22.25 
G01 X-51.67 Y22.12 
G01 X-51.74 Y21.98 
G01 X-51.77 Y21.89 
G01 X-51.72 Y21.89 
G01 X-51.65 Y22.05 
G01 X-51.55 Y22.20 
G01 X-51.41 Y22.34 
G01 X-51.26 Y22.44 
G01 X-51.10 Y22.51 
G01 X-51.10 Y22.56 
G01 X-51.19 Y22.53 
G00 Z1.00 
G00 X-49.93 Y22.12 
G01 Z-0.20 F60.00 
G01 X-50.02 Y22.25 F80.00 
G01 X-50.14 Y22.37 
G01 X-50.27 Y22.46 
G01 X-50.41 Y22.53 
G01 X-50.50 Y22.56 
G01 X-50.50 Y22.51 
G01 X-50.34 Y22.44 
G01 X-50.19 Y22.34 
G01 X-50.05 Y22.20 
G01 X-49.95 Y22.05 
G01 X-49.87 Y21.87 
G01 X-49.84 Y21.69 
G01 X-49.84 Y21.49 
G01 X-49.87 Y21.31 
G01 X-49.95 Y21.13 
G01 X-50.05 Y20.98 
G01 X-50.19 Y20.84 
G01 X-50.34 Y20.74 
G01 X-50.50 Y20.67 
G01 X-50.50 Y20.62 
G01 X-50.41 Y20.65 
G01 X-50.27 Y20.72 
G01 X-50.14 Y20.81 
G01 X-50.02 Y20.93 
G01 X-49.93 Y21.06 
G01 X-49.86 Y21.20 
G01 X-49.81 Y21.35 
G01 X-49.81 Y21.37 
G01 X-49.81 Y21.37 
G01 X-49.80 Y21.38 
G01 X-49.79 Y21.41 
G01 X-49.79 Y21.41 
G01 X-49.78 Y21.44 
G01 X-49.77 Y21.45 
G01 X-49.77 Y21.45 
G01 X-49.75 Y21.48 
G01 X-49.73 Y21.51 
G01 X-49.72 Y21.51 
G01 X-49.72 Y21.51 
G01 X-49.69 Y21.53 
G01 X-49.66 Y21.56 
G01 X-49.66 Y21.56 
G01 X-49.66 Y21.56 
G01 X-49.62 Y21.57 
G01 X-49.59 Y21.59 
G01 X-49.59 Y21.59 
G01 X-49.58 Y21.59 
G01 X-49.56 Y21.59 
G01 X-49.58 Y21.59 
G01 X-49.59 Y21.59 
G01 X-49.59 Y21.59 
G01 X-49.62 Y21.61 
G01 X-49.66 Y21.62 
G01 X-49.66 Y21.62 
G01 X-49.66 Y21.62 
G01 X-49.69 Y21.65 
G01 X-49.72 Y21.67 
G01 X-49.72 Y21.67 
G01 X-49.73 Y21.67 
G01 X-49.75 Y21.70 
G01 X-49.77 Y21.73 
G01 X-49.77 Y21.73 
G01 X-49.78 Y21.74 
G01 X-49.79 Y21.77 
G01 X-49.79 Y21.77 
G01 X-49.80 Y21.80 
G01 X-49.81 Y21.81 
G01 X-49.81 Y21.81 
G01 X-49.81 Y21.83 
G01 X-49.86 Y21.98 
G01 X-49.93 Y22.12 
G00 Z1.00 
G00 X-51.74 Y21.20 
G01 Z-0.20 F60.00 
G01 X-51.67 Y21.06 F80.00 
G01 X-51.58 Y20.93 
G01 X-51.46 Y20.81 
G01 X-51.33 Y20.72 
G01 X-51.19 Y20.65 
G01 X-51.10 Y20.62 
G01 X-51.10 Y20.67 
G01 X-51.26 Y20.74 
G01 X-51.41 Y20.84 
G01 X-51.55 Y20.98 
G01 X-51.65 Y21.13 
G01 X-51.72 Y21.29 
G01 X-51.77 Y21.29 
G01 X-51.74 Y21.20 
G00 Z1.00 
G00 X-25.65 Y12.49 
G01 Z-0.20 F60.00 
G01 X-26.25 Y13.08 F80.00 
G01 X-26.37 Y13.08 
G01 X-26.37 Y13.03 
G01 X-26.27 Y13.03 
G01 X-25.71 Y12.46 
G01 X-25.71 Y12.37 
G01 X-25.65 Y12.37 
G01 X-25.65 Y12.49 
G00 Z1.00 
G00 X-39.27 Y17.66 
G01 Z-0.20 F60.00 
G01 X-32.79 Y24.14 F80.00 
G01 X-32.66 Y24.27 
G01 X-32.63 Y24.33 
G01 X-32.68 Y24.25 
G01 X-32.75 Y24.18 
G01 X-39.25 Y17.68 
G01 X-39.33 Y17.63 
G01 X-39.27 Y17.66 
G00 Z1.00 
G00 X-4.40 Y45.47 
G01 Z-0.20 F60.00 
G01 X-5.14 Y46.21 F80.00 
G01 X-5.27 Y46.34 
G01 X-5.33 Y46.37 
G01 X-5.25 Y46.32 
G01 X-5.18 Y46.25 
G01 X-4.40 Y45.47 
G01 X-4.40 Y45.47 
G00 Z1.00 
G00 X-4.86 Y44.79 
G01 Z-0.20 F60.00 
G01 X-4.84 Y44.77 F80.00 
G01 X-4.83 Y44.76 
G01 X-4.83 Y44.75 
G01 X-4.81 Y44.73 
G01 X-4.80 Y44.70 
G01 X-4.79 Y44.69 
G01 X-4.79 Y44.68 
G01 X-4.78 Y44.65 
G01 X-4.78 Y44.62 
G01 X-4.78 Y44.61 
G01 X-4.77 Y44.60 
G01 X-4.78 Y44.57 
G01 X-4.78 Y44.26 
G01 X-4.63 Y43.90 
G01 X-4.36 Y43.63 
G01 X-4.00 Y43.48 
G01 X-3.62 Y43.48 
G01 X-3.26 Y43.63 
G01 X-2.99 Y43.90 
G01 X-2.84 Y44.26 
G01 X-2.84 Y44.64 
G01 X-2.99 Y45.00 
G01 X-3.26 Y45.27 
G01 X-3.62 Y45.42 
G01 X-4.00 Y45.42 
G01 X-4.04 Y45.40 
G01 X-4.06 Y45.39 
G01 X-4.08 Y45.38 
G01 X-4.10 Y45.38 
G01 X-4.12 Y45.37 
G01 X-4.13 Y45.37 
G01 X-4.15 Y45.37 
G01 X-4.17 Y45.37 
G01 X-4.19 Y45.37 
G01 X-4.21 Y45.37 
G01 X-4.23 Y45.37 
G01 X-4.25 Y45.38 
G01 X-4.27 Y45.38 
G01 X-4.29 Y45.39 
G01 X-4.31 Y45.40 
G01 X-4.33 Y45.41 
G01 X-4.34 Y45.42 
G01 X-4.36 Y45.43 
G01 X-4.38 Y45.44 
G01 X-4.38 Y45.45 
G01 X-4.25 Y45.31 
G01 X-4.09 Y45.38 
G01 X-3.91 Y45.41 
G01 X-3.71 Y45.41 
G01 X-3.53 Y45.38 
G01 X-3.35 Y45.30 
G01 X-3.20 Y45.20 
G01 X-3.06 Y45.06 
G01 X-2.96 Y44.91 
G01 X-2.88 Y44.73 
G01 X-2.85 Y44.55 
G01 X-2.85 Y44.35 
G01 X-2.88 Y44.17 
G01 X-2.96 Y43.99 
G01 X-3.06 Y43.84 
G01 X-3.20 Y43.70 
G01 X-3.35 Y43.60 
G01 X-3.53 Y43.52 
G01 X-3.71 Y43.49 
G01 X-3.91 Y43.49 
G01 X-4.09 Y43.52 
G01 X-4.27 Y43.60 
G01 X-4.42 Y43.70 
G01 X-4.56 Y43.84 
G01 X-4.66 Y43.99 
G01 X-4.74 Y44.17 
G01 X-4.77 Y44.35 
G01 X-4.77 Y44.55 
G01 X-4.75 Y44.68 
G01 X-4.87 Y44.80 
G01 X-4.86 Y44.79 
G00 Z1.00 
G00 X-49.23 Y46.34 
G01 Z-0.20 F60.00 
G01 X-50.71 Y44.86 F80.00 
G01 X-50.71 Y44.86 
G01 X-50.84 Y44.73 
G01 X-50.87 Y44.67 
G01 X-50.82 Y44.75 
G01 X-50.75 Y44.82 
G01 X-49.25 Y46.32 
G01 X-49.17 Y46.37 
G01 X-49.23 Y46.34 
G00 Z1.00 
G00 X-49.42 Y36.40 
G01 Z-0.20 F60.00 
G01 X-49.83 Y36.40 F80.00 
G01 X-49.91 Y36.42 
G01 X-49.98 Y36.46 
G01 X-50.04 Y36.52 
G01 X-50.08 Y36.59 
G01 X-50.10 Y36.67 
G01 X-50.10 Y44.25 
G01 X-50.08 Y44.32 
G01 X-50.04 Y44.39 
G01 X-49.98 Y44.45 
G01 X-49.23 Y45.20 
G01 X-49.22 Y45.21 
G01 X-50.10 Y44.33 
G01 X-50.10 Y36.40 
G01 X-49.45 Y36.40 
G01 X-49.36 Y36.38 
G01 X-49.42 Y36.40 
G00 Z1.00 
G00 X-47.16 Y34.40 
G01 Z-0.20 F60.00 
G01 X-47.18 Y34.40 F80.00 
G01 X-47.20 Y34.41 
G01 X-47.22 Y34.41 
G01 X-47.24 Y34.42 
G01 X-47.26 Y34.42 
G01 X-47.28 Y34.43 
G01 X-47.30 Y34.44 
G01 X-47.31 Y34.45 
G01 X-47.33 Y34.46 
G01 X-47.34 Y34.48 
G01 X-47.36 Y34.49 
G01 X-47.37 Y34.51 
G01 X-47.39 Y34.52 
G01 X-47.39 Y34.53 
G01 X-47.69 Y34.83 
G01 X-47.74 Y34.85 
G01 X-47.75 Y34.85 
G01 X-47.77 Y34.86 
G01 X-47.79 Y34.87 
G01 X-47.81 Y34.88 
G01 X-47.82 Y34.89 
G01 X-47.84 Y34.91 
G01 X-47.85 Y34.91 
G01 X-47.81 Y34.88 
G01 X-47.78 Y34.87 
G01 X-47.62 Y34.76 
G01 X-47.48 Y34.62 
G01 X-47.37 Y34.45 
G01 X-47.35 Y34.42 
G01 X-47.33 Y34.40 
G01 X-47.15 Y34.40 
G01 X-47.16 Y34.40 
G00 Z1.00 
G00 X-46.86 Y34.40 
G01 Z-0.20 F60.00 
G01 X-47.12 Y34.40 F80.00 
G01 X-47.13 Y34.40 
G01 X-46.85 Y34.40 
G01 X-46.86 Y34.40 
G00 Z1.00 
G00 X-46.61 Y34.45 
G01 Z-0.20 F60.00 
G01 X-46.50 Y34.62 F80.00 
G01 X-46.36 Y34.76 
G01 X-46.20 Y34.87 
G01 X-46.01 Y34.94 
G01 X-45.82 Y34.98 
G01 X-45.62 Y34.98 
G01 X-45.43 Y34.94 
G01 X-45.24 Y34.87 
G01 X-45.08 Y34.76 
G01 X-44.94 Y34.62 
G01 X-44.83 Y34.45 
G01 X-44.75 Y34.27 
G01 X-44.71 Y34.07 
G01 X-44.71 Y33.87 
G01 X-44.75 Y33.68 
G01 X-44.83 Y33.49 
G01 X-44.94 Y33.33 
G01 X-45.08 Y33.19 
G01 X-45.10 Y33.17 
G01 X-45.10 Y29.95 
G01 X-44.97 Y29.82 
G01 X-44.87 Y29.67 
G01 X-44.79 Y29.49 
G01 X-44.76 Y29.31 
G01 X-44.76 Y29.11 
G01 X-44.79 Y28.93 
G01 X-44.87 Y28.75 
G01 X-44.97 Y28.60 
G01 X-45.11 Y28.46 
G01 X-45.26 Y28.36 
G01 X-45.44 Y28.28 
G01 X-45.62 Y28.25 
G01 X-45.82 Y28.25 
G01 X-46.00 Y28.28 
G01 X-46.18 Y28.36 
G01 X-46.33 Y28.46 
G01 X-46.47 Y28.60 
G01 X-46.57 Y28.75 
G01 X-46.65 Y28.93 
G01 X-46.68 Y29.11 
G01 X-46.68 Y29.31 
G01 X-46.65 Y29.49 
G01 X-46.57 Y29.67 
G01 X-46.47 Y29.82 
G01 X-46.33 Y29.96 
G01 X-46.18 Y30.06 
G01 X-46.10 Y30.10 
G01 X-46.11 Y30.09 
G01 X-46.27 Y30.03 
G01 X-46.54 Y29.76 
G01 X-46.69 Y29.40 
G01 X-46.69 Y29.02 
G01 X-46.54 Y28.66 
G01 X-46.27 Y28.39 
G01 X-45.91 Y28.24 
G01 X-45.53 Y28.24 
G01 X-45.17 Y28.39 
G01 X-44.90 Y28.66 
G01 X-44.75 Y29.02 
G01 X-44.75 Y29.40 
G01 X-44.90 Y29.76 
G01 X-45.04 Y29.89 
G01 X-45.08 Y29.96 
G01 X-45.10 Y30.04 
G01 X-45.10 Y33.08 
G01 X-45.08 Y33.16 
G01 X-45.04 Y33.23 
G01 X-44.98 Y33.28 
G01 X-44.86 Y33.40 
G01 X-44.71 Y33.77 
G01 X-44.71 Y34.17 
G01 X-44.86 Y34.54 
G01 X-45.15 Y34.83 
G01 X-45.52 Y34.98 
G01 X-45.92 Y34.98 
G01 X-46.29 Y34.83 
G01 X-46.59 Y34.53 
G01 X-46.59 Y34.52 
G01 X-46.61 Y34.51 
G01 X-46.62 Y34.49 
G01 X-46.64 Y34.48 
G01 X-46.65 Y34.46 
G01 X-46.67 Y34.45 
G01 X-46.68 Y34.44 
G01 X-46.70 Y34.43 
G01 X-46.72 Y34.42 
G01 X-46.74 Y34.42 
G01 X-46.76 Y34.41 
G01 X-46.78 Y34.41 
G01 X-46.80 Y34.40 
G01 X-46.82 Y34.40 
G01 X-46.83 Y34.40 
G01 X-46.63 Y34.40 
G01 X-46.61 Y34.45 
G00 Z1.00 
G00 X-46.01 Y33.00 
G01 Z-0.20 F60.00 
G01 X-46.08 Y33.03 F80.00 
G01 X-46.07 Y33.03 
G01 X-46.05 Y33.02 
G01 X-46.04 Y33.01 
G01 X-46.02 Y33.00 
G01 X-46.01 Y32.98 
G01 X-45.99 Y32.97 
G01 X-45.98 Y32.95 
G01 X-45.96 Y32.94 
G01 X-45.95 Y32.92 
G01 X-45.94 Y32.91 
G01 X-45.93 Y32.89 
G01 X-45.92 Y32.87 
G01 X-45.92 Y32.85 
G01 X-45.91 Y32.83 
G01 X-45.91 Y32.81 
G01 X-45.90 Y32.79 
G01 X-45.90 Y32.77 
G01 X-45.90 Y32.76 
G01 X-45.90 Y32.98 
G01 X-46.01 Y33.00 
G00 Z1.00 
G00 X-45.90 Y32.73 
G01 Z-0.20 F60.00 
G01 X-45.90 Y30.40 F80.00 
G01 X-45.90 Y30.39 
G01 X-45.90 Y32.74 
G01 X-45.90 Y32.73 
G00 Z1.00 
G00 X-45.90 Y30.36 
G01 Z-0.20 F60.00 
G01 X-45.90 Y30.34 F80.00 
G01 X-45.91 Y30.32 
G01 X-45.91 Y30.30 
G01 X-45.92 Y30.29 
G01 X-45.92 Y30.27 
G01 X-45.93 Y30.25 
G01 X-45.94 Y30.23 
G01 X-45.95 Y30.21 
G01 X-45.96 Y30.20 
G01 X-45.98 Y30.18 
G01 X-45.99 Y30.17 
G01 X-46.01 Y30.15 
G01 X-46.02 Y30.14 
G01 X-46.04 Y30.13 
G01 X-46.05 Y30.12 
G01 X-46.07 Y30.11 
G01 X-46.08 Y30.11 
G01 X-46.00 Y30.14 
G01 X-45.90 Y30.16 
G01 X-45.90 Y30.37 
G01 X-45.90 Y30.36 
G00 Z1.00 
G00 X-46.84 Y33.60 
G01 Z-0.20 F60.00 
G01 X-46.82 Y33.60 F80.00 
G01 X-46.80 Y33.59 
G01 X-46.78 Y33.59 
G01 X-46.76 Y33.58 
G01 X-46.74 Y33.58 
G01 X-46.73 Y33.57 
G01 X-46.71 Y33.56 
G01 X-46.69 Y33.55 
G01 X-46.67 Y33.54 
G01 X-46.66 Y33.52 
G01 X-46.64 Y33.51 
G01 X-46.63 Y33.49 
G01 X-46.62 Y33.48 
G01 X-46.61 Y33.46 
G01 X-46.59 Y33.45 
G01 X-46.59 Y33.43 
G01 X-46.58 Y33.41 
G01 X-46.57 Y33.40 
G01 X-46.29 Y33.12 
G01 X-46.11 Y33.04 
G01 X-46.10 Y33.04 
G01 X-46.20 Y33.08 
G01 X-46.36 Y33.19 
G01 X-46.50 Y33.33 
G01 X-46.61 Y33.49 
G01 X-46.66 Y33.60 
G01 X-46.85 Y33.60 
G01 X-46.84 Y33.60 
G00 Z1.00 
G00 X-47.10 Y33.60 
G01 Z-0.20 F60.00 
G01 X-46.88 Y33.60 F80.00 
G01 X-46.87 Y33.60 
G01 X-47.11 Y33.60 
G01 X-47.10 Y33.60 
G00 Z1.00 
G00 X-50.58 Y25.60 
G01 Z-0.20 F60.00 
G01 X-36.42 Y25.60 F80.00 
G01 X-36.36 Y25.62 
G01 X-36.45 Y25.60 
G01 X-50.55 Y25.60 
G01 X-50.64 Y25.62 
G01 X-50.58 Y25.60 
G00 Z1.00 
G00 X-53.23 Y33.84 
G01 Z-0.20 F60.00 
G01 X-53.34 Y33.73 F80.00 
G01 X-53.37 Y33.67 
G01 X-53.32 Y33.75 
G01 X-53.25 Y33.82 
G01 X-53.17 Y33.87 
G01 X-53.23 Y33.84 
G00 Z1.00 
G00 X-51.73 Y34.37 
G01 Z-0.20 F60.00 
G01 X-51.73 Y34.36 F80.00 
G01 X-51.74 Y34.34 
G01 X-51.75 Y34.32 
G01 X-51.76 Y34.31 
G01 X-51.78 Y34.29 
G01 X-51.78 Y34.28 
G01 X-51.75 Y34.32 
G01 X-51.73 Y34.37 
G00 Z1.00 
G00 X-51.81 Y34.26 
G01 Z-0.20 F60.00 
G01 X-51.91 Y34.16 F80.00 
G01 X-52.11 Y33.96 
G01 X-52.18 Y33.92 
G01 X-52.25 Y33.90 
G01 X-53.08 Y33.90 
G01 X-53.14 Y33.88 
G01 X-53.05 Y33.90 
G01 X-52.17 Y33.90 
G01 X-51.82 Y34.25 
G01 X-51.80 Y34.27 
G01 X-51.81 Y34.26 
G00 Z1.00 
G00 X-51.75 Y33.17 
G01 Z-0.20 F60.00 
G01 X-51.75 Y33.17 F80.00 
G01 X-51.71 Y33.19 
G01 X-51.68 Y33.20 
G01 X-51.63 Y33.21 
G01 X-51.59 Y33.21 
G01 X-51.55 Y33.21 
G01 X-51.52 Y33.20 
G01 X-51.48 Y33.19 
G01 X-51.44 Y33.17 
G01 X-51.41 Y33.15 
G01 X-51.38 Y33.12 
G01 X-51.37 Y33.12 
G01 X-51.00 Y32.96 
G01 X-50.60 Y32.96 
G01 X-50.23 Y33.12 
G01 X-49.94 Y33.40 
G01 X-49.80 Y33.76 
G01 X-49.75 Y33.82 
G01 X-49.68 Y33.87 
G01 X-49.61 Y33.90 
G01 X-49.53 Y33.91 
G01 X-49.45 Y33.90 
G01 X-49.38 Y33.87 
G01 X-49.31 Y33.82 
G01 X-49.26 Y33.76 
G01 X-49.23 Y33.69 
G01 X-49.12 Y33.40 
G01 X-48.83 Y33.12 
G01 X-48.46 Y32.96 
G01 X-48.06 Y32.96 
G01 X-47.69 Y33.12 
G01 X-47.41 Y33.40 
G01 X-47.40 Y33.41 
G01 X-47.39 Y33.43 
G01 X-47.39 Y33.45 
G01 X-47.37 Y33.46 
G01 X-47.36 Y33.48 
G01 X-47.35 Y33.49 
G01 X-47.34 Y33.51 
G01 X-47.32 Y33.52 
G01 X-47.31 Y33.54 
G01 X-47.29 Y33.55 
G01 X-47.27 Y33.56 
G01 X-47.25 Y33.57 
G01 X-47.24 Y33.58 
G01 X-47.22 Y33.58 
G01 X-47.20 Y33.59 
G01 X-47.18 Y33.59 
G01 X-47.16 Y33.60 
G01 X-47.14 Y33.60 
G01 X-47.13 Y33.60 
G01 X-47.32 Y33.60 
G01 X-47.37 Y33.49 
G01 X-47.48 Y33.33 
G01 X-47.62 Y33.19 
G01 X-47.78 Y33.08 
G01 X-47.97 Y33.00 
G01 X-48.16 Y32.96 
G01 X-48.36 Y32.96 
G01 X-48.55 Y33.00 
G01 X-48.74 Y33.08 
G01 X-48.90 Y33.19 
G01 X-49.04 Y33.33 
G01 X-49.15 Y33.49 
G01 X-49.23 Y33.68 
G01 X-49.27 Y33.87 
G01 X-49.27 Y34.07 
G01 X-49.23 Y34.27 
G01 X-49.15 Y34.45 
G01 X-49.04 Y34.62 
G01 X-48.90 Y34.76 
G01 X-48.85 Y34.79 
G01 X-49.67 Y35.60 
G01 X-50.55 Y35.60 
G01 X-50.64 Y35.62 
G01 X-50.58 Y35.60 
G01 X-49.75 Y35.60 
G01 X-49.68 Y35.58 
G01 X-49.61 Y35.54 
G01 X-49.55 Y35.48 
G01 X-49.11 Y35.04 
G01 X-49.08 Y35.01 
G01 X-49.05 Y34.98 
G01 X-49.01 Y34.91 
G01 X-49.00 Y34.87 
G01 X-48.99 Y34.84 
G01 X-48.99 Y34.76 
G01 X-49.00 Y34.71 
G01 X-49.01 Y34.68 
G01 X-49.05 Y34.61 
G01 X-49.10 Y34.56 
G01 X-49.11 Y34.55 
G01 X-49.12 Y34.54 
G01 X-49.23 Y34.26 
G01 X-49.26 Y34.19 
G01 X-49.31 Y34.12 
G01 X-49.38 Y34.07 
G01 X-49.45 Y34.04 
G01 X-49.53 Y34.03 
G01 X-49.61 Y34.04 
G01 X-49.68 Y34.07 
G01 X-49.75 Y34.12 
G01 X-49.80 Y34.19 
G01 X-49.94 Y34.54 
G01 X-50.23 Y34.83 
G01 X-50.60 Y34.98 
G01 X-51.00 Y34.98 
G01 X-51.37 Y34.83 
G01 X-51.66 Y34.54 
G01 X-51.72 Y34.39 
G01 X-51.72 Y34.39 
G01 X-51.69 Y34.45 
G01 X-51.58 Y34.62 
G01 X-51.44 Y34.76 
G01 X-51.28 Y34.87 
G01 X-51.09 Y34.94 
G01 X-50.90 Y34.98 
G01 X-50.70 Y34.98 
G01 X-50.51 Y34.94 
G01 X-50.32 Y34.87 
G01 X-50.16 Y34.76 
G01 X-50.02 Y34.62 
G01 X-49.91 Y34.45 
G01 X-49.83 Y34.27 
G01 X-49.79 Y34.07 
G01 X-49.79 Y33.87 
G01 X-49.83 Y33.68 
G01 X-49.91 Y33.49 
G01 X-50.02 Y33.33 
G01 X-50.16 Y33.19 
G01 X-50.32 Y33.08 
G01 X-50.51 Y33.00 
G01 X-50.70 Y32.96 
G01 X-50.90 Y32.96 
G01 X-51.09 Y33.00 
G01 X-51.28 Y33.08 
G01 X-51.44 Y33.19 
G01 X-51.58 Y33.33 
G01 X-51.59 Y33.34 
G01 X-51.75 Y33.18 
G01 X-51.83 Y33.13 
G01 X-51.75 Y33.17 
G00 Z1.00 
G00 X-48.16 Y31.73 
G01 Z-0.20 F60.00 
G01 X-48.27 Y31.84 F80.00 
G01 X-48.33 Y31.87 
G01 X-48.25 Y31.82 
G01 X-48.18 Y31.75 
G01 X-48.13 Y31.67 
G01 X-48.16 Y31.73 
G00 Z1.00 
G00 X-48.10 Y30.41 
G01 Z-0.20 F60.00 
G01 X-48.10 Y31.58 F80.00 
G01 X-48.12 Y31.64 
G01 X-48.10 Y31.55 
G01 X-48.10 Y30.40 
G01 X-48.10 Y30.41 
G00 Z1.00 
G00 X-47.98 Y30.14 
G01 Z-0.20 F60.00 
G01 X-47.92 Y30.11 F80.00 
G01 X-47.93 Y30.12 
G01 X-47.95 Y30.13 
G01 X-47.96 Y30.14 
G01 X-47.98 Y30.15 
G01 X-47.99 Y30.16 
G01 X-48.01 Y30.17 
G01 X-48.02 Y30.19 
G01 X-48.04 Y30.20 
G01 X-48.05 Y30.22 
G01 X-48.06 Y30.24 
G01 X-48.07 Y30.26 
G01 X-48.08 Y30.27 
G01 X-48.08 Y30.29 
G01 X-48.09 Y30.31 
G01 X-48.09 Y30.33 
G01 X-48.10 Y30.35 
G01 X-48.10 Y30.37 
G01 X-48.10 Y30.38 
G01 X-48.10 Y30.16 
G01 X-47.98 Y30.14 
G00 Z1.00 
G00 X-51.82 Y27.89 
G01 Z-0.20 F60.00 
G01 X-52.54 Y28.61 F80.00 
G01 X-52.58 Y28.68 
G01 X-52.60 Y28.75 
G01 X-52.60 Y30.83 
G01 X-52.58 Y30.91 
G01 X-52.54 Y30.98 
G01 X-52.48 Y31.04 
G01 X-52.41 Y31.08 
G01 X-52.33 Y31.10 
G01 X-49.17 Y31.10 
G01 X-49.09 Y31.08 
G01 X-49.02 Y31.04 
G01 X-48.96 Y30.98 
G01 X-48.92 Y30.91 
G01 X-48.90 Y30.83 
G01 X-48.90 Y30.02 
G01 X-48.92 Y29.94 
G01 X-48.95 Y29.90 
G01 X-48.96 Y29.87 
G01 X-49.02 Y29.82 
G01 X-49.08 Y29.76 
G01 X-49.23 Y29.40 
G01 X-49.23 Y29.02 
G01 X-49.08 Y28.66 
G01 X-48.81 Y28.39 
G01 X-48.45 Y28.24 
G01 X-48.07 Y28.24 
G01 X-47.71 Y28.39 
G01 X-47.44 Y28.66 
G01 X-47.29 Y29.02 
G01 X-47.29 Y29.40 
G01 X-47.44 Y29.76 
G01 X-47.71 Y30.03 
G01 X-47.89 Y30.10 
G01 X-47.90 Y30.11 
G01 X-47.80 Y30.06 
G01 X-47.65 Y29.96 
G01 X-47.51 Y29.82 
G01 X-47.41 Y29.67 
G01 X-47.33 Y29.49 
G01 X-47.30 Y29.31 
G01 X-47.30 Y29.11 
G01 X-47.33 Y28.93 
G01 X-47.41 Y28.75 
G01 X-47.51 Y28.60 
G01 X-47.65 Y28.46 
G01 X-47.80 Y28.36 
G01 X-47.98 Y28.28 
G01 X-48.16 Y28.25 
G01 X-48.36 Y28.25 
G01 X-48.54 Y28.28 
G01 X-48.72 Y28.36 
G01 X-48.87 Y28.46 
G01 X-49.01 Y28.60 
G01 X-49.11 Y28.75 
G01 X-49.19 Y28.93 
G01 X-49.22 Y29.11 
G01 X-49.22 Y29.31 
G01 X-49.19 Y29.49 
G01 X-49.11 Y29.67 
G01 X-49.01 Y29.82 
G01 X-48.90 Y29.93 
G01 X-48.90 Y31.10 
G01 X-52.60 Y31.10 
G01 X-52.60 Y28.67 
G01 X-51.82 Y27.88 
G01 X-51.82 Y27.89 
G00 Z1.00 
G00 X-48.42 Y31.90 
G01 Z-0.20 F60.00 
G01 X-52.33 Y31.90 F80.00 
G01 X-52.41 Y31.92 
G01 X-52.48 Y31.96 
G01 X-52.54 Y32.02 
G01 X-52.58 Y32.09 
G01 X-52.60 Y32.17 
G01 X-52.60 Y32.83 
G01 X-52.58 Y32.91 
G01 X-52.54 Y32.98 
G01 X-52.48 Y33.04 
G01 X-52.41 Y33.08 
G01 X-52.33 Y33.10 
G01 X-51.92 Y33.10 
G01 X-51.86 Y33.12 
G01 X-51.95 Y33.10 
G01 X-52.60 Y33.10 
G01 X-52.60 Y31.90 
G01 X-48.45 Y31.90 
G01 X-48.36 Y31.88 
G01 X-48.42 Y31.90 
G00 Z1.00 
G00 X-53.40 Y33.58 
G01 Z-0.20 F60.00 
G01 X-53.40 Y28.42 F80.00 
G01 X-53.38 Y28.36 
G01 X-53.40 Y28.45 
G01 X-53.40 Y33.55 
G01 X-53.38 Y33.64 
G01 X-53.40 Y33.58 
G00 Z1.00 
G00 X-53.34 Y28.27 
G01 Z-0.20 F60.00 
G01 X-53.16 Y28.09 F80.00 
G01 X-50.73 Y25.66 
G01 X-50.67 Y25.63 
G01 X-50.75 Y25.68 
G01 X-53.25 Y28.18 
G01 X-53.32 Y28.25 
G01 X-53.37 Y28.33 
G01 X-53.34 Y28.27 
G00 Z1.00 
G00 X-47.87 Y34.94 
G01 Z-0.20 F60.00 
G01 X-49.27 Y36.34 F80.00 
G01 X-49.33 Y36.37 
G01 X-49.25 Y36.32 
G01 X-47.86 Y34.93 
G01 X-47.87 Y34.94 
G00 Z1.00 
G00 X-50.90 Y44.58 
G01 Z-0.20 F60.00 
G01 X-50.90 Y35.92 F80.00 
G01 X-50.88 Y35.86 
G01 X-50.90 Y35.95 
G01 X-50.90 Y44.55 
G01 X-50.88 Y44.64 
G01 X-50.90 Y44.58 
G00 Z1.00 
G00 X-50.84 Y35.77 
G01 Z-0.20 F60.00 
G01 X-50.73 Y35.66 F80.00 
G01 X-50.67 Y35.63 
G01 X-50.75 Y35.68 
G01 X-50.82 Y35.75 
G01 X-50.87 Y35.83 
G01 X-50.84 Y35.77 
G00 Z1.00 
G00 X-5.42 Y46.40 
G01 Z-0.20 F60.00 
G01 X-49.08 Y46.40 F80.00 
G01 X-49.14 Y46.38 
G01 X-49.05 Y46.40 
G01 X-5.45 Y46.40 
G01 X-5.36 Y46.38 
G01 X-5.42 Y46.40 
G00 Z1.00 
G00 X-39.17 Y27.40 
G01 Z-0.20 F60.00 
G01 X-37.75 Y28.82 F80.00 
G01 X-37.65 Y28.87 
G01 X-37.55 Y28.90 
G01 X-32.95 Y28.90 
G01 X-32.85 Y28.87 
G01 X-32.75 Y28.82 
G01 X-32.68 Y28.75 
G01 X-32.64 Y28.68 
G01 X-32.65 Y28.70 
G01 X-32.65 Y28.71 
G01 X-32.66 Y28.73 
G01 X-32.66 Y28.75 
G01 X-32.66 Y28.77 
G01 X-32.66 Y28.79 
G01 X-32.66 Y28.81 
G01 X-32.66 Y28.83 
G01 X-32.66 Y28.85 
G01 X-32.65 Y28.87 
G01 X-32.65 Y28.89 
G01 X-32.64 Y28.91 
G01 X-32.63 Y28.93 
G01 X-32.62 Y28.95 
G01 X-32.61 Y28.96 
G01 X-32.60 Y28.98 
G01 X-32.59 Y28.99 
G01 X-32.57 Y29.01 
G01 X-32.56 Y29.02 
G01 X-32.54 Y29.04 
G01 X-32.53 Y29.05 
G01 X-32.51 Y29.06 
G01 X-32.49 Y29.07 
G01 X-32.47 Y29.08 
G01 X-32.46 Y29.08 
G01 X-32.44 Y29.09 
G01 X-32.42 Y29.09 
G01 X-32.40 Y29.10 
G01 X-32.38 Y29.10 
G01 X-32.37 Y29.10 
G01 X-37.83 Y29.10 
G01 X-38.25 Y28.68 
G01 X-38.35 Y28.63 
G01 X-38.45 Y28.60 
G01 X-42.43 Y28.60 
G01 X-42.43 Y28.60 
G01 X-42.57 Y28.46 
G01 X-42.72 Y28.36 
G01 X-42.90 Y28.28 
G01 X-43.08 Y28.25 
G01 X-43.28 Y28.25 
G01 X-43.46 Y28.28 
G01 X-43.64 Y28.36 
G01 X-43.79 Y28.46 
G01 X-43.93 Y28.60 
G01 X-44.03 Y28.75 
G01 X-44.11 Y28.93 
G01 X-44.14 Y29.11 
G01 X-44.14 Y29.31 
G01 X-44.11 Y29.49 
G01 X-44.03 Y29.67 
G01 X-43.93 Y29.82 
G01 X-43.79 Y29.96 
G01 X-43.64 Y30.06 
G01 X-43.46 Y30.14 
G01 X-43.28 Y30.17 
G01 X-43.08 Y30.17 
G01 X-42.90 Y30.14 
G01 X-42.72 Y30.06 
G01 X-42.57 Y29.96 
G01 X-42.43 Y29.82 
G01 X-42.33 Y29.67 
G01 X-42.30 Y29.60 
G01 X-42.30 Y29.61 
G01 X-42.36 Y29.76 
G01 X-42.63 Y30.03 
G01 X-42.99 Y30.18 
G01 X-43.37 Y30.18 
G01 X-43.73 Y30.03 
G01 X-44.00 Y29.76 
G01 X-44.15 Y29.40 
G01 X-44.15 Y29.02 
G01 X-44.00 Y28.66 
G01 X-43.73 Y28.39 
G01 X-43.37 Y28.24 
G01 X-42.99 Y28.24 
G01 X-42.63 Y28.39 
G01 X-42.49 Y28.54 
G01 X-42.42 Y28.58 
G01 X-42.34 Y28.60 
G01 X-38.67 Y28.60 
G01 X-38.59 Y28.58 
G01 X-38.59 Y28.58 
G01 X-38.52 Y28.54 
G01 X-38.46 Y28.48 
G01 X-38.42 Y28.41 
G01 X-38.40 Y28.33 
G01 X-38.40 Y28.25 
G01 X-38.42 Y28.18 
G01 X-38.42 Y28.18 
G01 X-38.46 Y28.11 
G01 X-38.52 Y28.05 
G01 X-39.11 Y27.46 
G01 X-39.18 Y27.42 
G01 X-39.25 Y27.40 
G01 X-49.25 Y27.40 
G01 X-49.32 Y27.42 
G01 X-49.39 Y27.46 
G01 X-49.41 Y27.47 
G01 X-50.04 Y28.11 
G01 X-50.05 Y28.12 
G01 X-50.10 Y28.17 
G01 X-50.12 Y28.21 
G01 X-50.14 Y28.24 
G01 X-50.15 Y28.28 
G01 X-50.16 Y28.32 
G01 X-50.16 Y28.40 
G01 X-50.14 Y28.47 
G01 X-50.12 Y28.51 
G01 X-50.10 Y28.54 
G01 X-50.04 Y28.60 
G01 X-49.98 Y28.66 
G01 X-49.83 Y29.02 
G01 X-49.83 Y29.40 
G01 X-49.98 Y29.76 
G01 X-50.25 Y30.03 
G01 X-50.61 Y30.18 
G01 X-50.99 Y30.18 
G01 X-51.35 Y30.03 
G01 X-51.62 Y29.76 
G01 X-51.77 Y29.40 
G01 X-51.77 Y29.02 
G01 X-51.62 Y28.66 
G01 X-51.48 Y28.52 
G01 X-51.47 Y28.52 
G01 X-51.55 Y28.60 
G01 X-51.65 Y28.75 
G01 X-51.73 Y28.93 
G01 X-51.76 Y29.11 
G01 X-51.76 Y29.31 
G01 X-51.73 Y29.49 
G01 X-51.65 Y29.67 
G01 X-51.55 Y29.82 
G01 X-51.41 Y29.96 
G01 X-51.26 Y30.06 
G01 X-51.08 Y30.14 
G01 X-50.90 Y30.17 
G01 X-50.70 Y30.17 
G01 X-50.52 Y30.14 
G01 X-50.34 Y30.06 
G01 X-50.19 Y29.96 
G01 X-50.05 Y29.82 
G01 X-49.95 Y29.67 
G01 X-49.87 Y29.49 
G01 X-49.84 Y29.31 
G01 X-49.84 Y29.11 
G01 X-49.87 Y28.93 
G01 X-49.95 Y28.75 
G01 X-50.05 Y28.60 
G01 X-50.19 Y28.46 
G01 X-50.31 Y28.38 
G01 X-49.33 Y27.40 
G01 X-39.17 Y27.40 
G00 Z1.00 
G00 X-51.41 Y28.46 
G01 Z-0.20 F60.00 
G01 X-51.46 Y28.50 F80.00 
G01 X-51.45 Y28.49 
G01 X-51.44 Y28.48 
G01 X-51.43 Y28.46 
G01 X-51.41 Y28.45 
G01 X-51.41 Y28.43 
G01 X-51.40 Y28.41 
G01 X-51.39 Y28.39 
G01 X-51.38 Y28.36 
G01 X-51.40 Y28.45 
G01 X-51.40 Y28.45 
G01 X-51.41 Y28.46 
G00 Z1.00 
G00 X-32.60 Y24.42 
G01 Z-0.20 F60.00 
G01 X-32.60 Y28.58 F80.00 
G01 X-32.62 Y28.64 
G01 X-32.60 Y28.55 
G01 X-32.60 Y24.45 
G01 X-32.62 Y24.36 
G01 X-32.60 Y24.42 
G00 Z1.00 
G00 X-41.77 Y5.66 
G01 Z-0.20 F60.00 
G01 X-39.39 Y8.04 F80.00 
G01 X-39.32 Y8.08 
G01 X-39.25 Y8.10 
G01 X-32.92 Y8.10 
G01 X-32.86 Y8.12 
G01 X-32.95 Y8.10 
G01 X-39.33 Y8.10 
G01 X-41.75 Y5.68 
G01 X-41.83 Y5.63 
G01 X-41.77 Y5.66 
G00 Z1.00 
G00 X-38.23 Y29.84 
G01 Z-0.20 F60.00 
G01 X-38.36 Y29.71 F80.00 
G01 X-38.36 Y29.71 
G01 X-38.41 Y29.66 
G01 X-38.55 Y29.52 
G01 X-38.61 Y29.46 
G01 X-38.64 Y29.44 
G01 X-38.68 Y29.42 
G01 X-38.75 Y29.40 
G01 X-41.99 Y29.40 
G01 X-42.00 Y29.40 
G01 X-38.67 Y29.40 
G01 X-38.32 Y29.75 
G01 X-38.25 Y29.82 
G01 X-38.17 Y29.87 
G01 X-38.23 Y29.84 
G00 Z1.00 
G00 X-32.34 Y29.10 
G01 Z-0.20 F60.00 
G01 X-31.75 Y29.10 F80.00 
G01 X-31.68 Y29.08 
G01 X-31.61 Y29.04 
G01 X-31.55 Y28.98 
G01 X-25.36 Y22.79 
G01 X-25.23 Y22.66 
G01 X-25.17 Y22.63 
G01 X-25.25 Y22.68 
G01 X-25.32 Y22.75 
G01 X-31.67 Y29.10 
G01 X-32.35 Y29.10 
G01 X-32.34 Y29.10 
G00 Z1.00 
G00 X-31.42 Y29.90 
G01 Z-0.20 F60.00 
G01 X-38.08 Y29.90 F80.00 
G01 X-38.14 Y29.88 
G01 X-38.05 Y29.90 
G01 X-31.45 Y29.90 
G01 X-31.36 Y29.88 
G01 X-31.42 Y29.90 
G00 Z1.00 
G00 X-42.03 Y29.40 
G01 Z-0.20 F60.00 
G01 X-42.05 Y29.40 F80.00 
G01 X-42.07 Y29.41 
G01 X-42.09 Y29.41 
G01 X-42.11 Y29.42 
G01 X-42.13 Y29.42 
G01 X-42.15 Y29.43 
G01 X-42.16 Y29.44 
G01 X-42.18 Y29.45 
G01 X-42.20 Y29.46 
G01 X-42.21 Y29.48 
G01 X-42.23 Y29.49 
G01 X-42.24 Y29.51 
G01 X-42.25 Y29.52 
G01 X-42.26 Y29.54 
G01 X-42.28 Y29.55 
G01 X-42.28 Y29.57 
G01 X-42.29 Y29.58 
G01 X-42.25 Y29.49 
G01 X-42.23 Y29.40 
G01 X-42.02 Y29.40 
G01 X-42.03 Y29.40 
G00 Z1.00 
G00 X-42.26 Y22.33 
G01 Z-0.20 F60.00 
G01 X-42.28 Y22.32 F80.00 
G01 X-42.30 Y22.31 
G01 X-42.32 Y22.30 
G01 X-42.34 Y22.30 
G01 X-42.35 Y22.30 
G01 X-42.38 Y22.30 
G01 X-42.39 Y22.29 
G01 X-42.41 Y22.30 
G01 X-42.44 Y22.30 
G01 X-42.45 Y22.30 
G01 X-42.47 Y22.30 
G01 X-42.49 Y22.31 
G01 X-42.51 Y22.32 
G01 X-42.53 Y22.33 
G01 X-42.55 Y22.34 
G01 X-42.56 Y22.35 
G01 X-42.58 Y22.36 
G01 X-42.60 Y22.37 
G01 X-42.61 Y22.38 
G01 X-42.62 Y22.40 
G01 X-42.63 Y22.41 
G01 X-42.99 Y22.56 
G01 X-43.37 Y22.56 
G01 X-43.73 Y22.41 
G01 X-44.00 Y22.14 
G01 X-44.01 Y22.11 
G01 X-44.02 Y22.09 
G01 X-44.03 Y22.07 
G01 X-44.03 Y22.05 
G01 X-44.05 Y22.04 
G01 X-44.06 Y22.02 
G01 X-44.07 Y22.01 
G01 X-44.08 Y21.99 
G01 X-44.10 Y21.98 
G01 X-44.11 Y21.96 
G01 X-44.13 Y21.95 
G01 X-44.15 Y21.94 
G01 X-44.16 Y21.93 
G01 X-44.18 Y21.92 
G01 X-44.20 Y21.92 
G01 X-44.22 Y21.91 
G01 X-44.24 Y21.91 
G01 X-44.26 Y21.90 
G01 X-44.28 Y21.90 
G01 X-44.29 Y21.90 
G01 X-44.10 Y21.90 
G01 X-44.03 Y22.05 
G01 X-43.93 Y22.20 
G01 X-43.79 Y22.34 
G01 X-43.64 Y22.44 
G01 X-43.46 Y22.52 
G01 X-43.28 Y22.55 
G01 X-43.08 Y22.55 
G01 X-42.90 Y22.52 
G01 X-42.72 Y22.44 
G01 X-42.57 Y22.34 
G01 X-42.43 Y22.20 
G01 X-42.40 Y22.16 
G01 X-42.25 Y22.32 
G01 X-42.17 Y22.37 
G01 X-42.26 Y22.33 
G00 Z1.00 
G00 X-42.33 Y21.13 
G01 Z-0.20 F60.00 
G01 X-42.43 Y20.98 F80.00 
G01 X-42.57 Y20.84 
G01 X-42.72 Y20.74 
G01 X-42.90 Y20.66 
G01 X-43.08 Y20.63 
G01 X-43.28 Y20.63 
G01 X-43.46 Y20.66 
G01 X-43.64 Y20.74 
G01 X-43.79 Y20.84 
G01 X-43.93 Y20.98 
G01 X-44.01 Y21.10 
G01 X-44.89 Y21.10 
G01 X-44.97 Y20.98 
G01 X-45.11 Y20.84 
G01 X-45.26 Y20.74 
G01 X-45.44 Y20.66 
G01 X-45.62 Y20.63 
G01 X-45.82 Y20.63 
G01 X-46.00 Y20.66 
G01 X-46.18 Y20.74 
G01 X-46.33 Y20.84 
G01 X-46.47 Y20.98 
G01 X-46.57 Y21.13 
G01 X-46.65 Y21.31 
G01 X-46.68 Y21.49 
G01 X-46.68 Y21.69 
G01 X-46.65 Y21.87 
G01 X-46.57 Y22.05 
G01 X-46.47 Y22.20 
G01 X-46.33 Y22.34 
G01 X-46.18 Y22.44 
G01 X-46.00 Y22.52 
G01 X-45.82 Y22.55 
G01 X-45.62 Y22.55 
G01 X-45.44 Y22.52 
G01 X-45.26 Y22.44 
G01 X-45.11 Y22.34 
G01 X-44.97 Y22.20 
G01 X-44.87 Y22.05 
G01 X-44.80 Y21.90 
G01 X-44.61 Y21.90 
G01 X-44.62 Y21.90 
G01 X-44.64 Y21.90 
G01 X-44.66 Y21.91 
G01 X-44.68 Y21.91 
G01 X-44.70 Y21.92 
G01 X-44.72 Y21.92 
G01 X-44.74 Y21.93 
G01 X-44.75 Y21.94 
G01 X-44.77 Y21.95 
G01 X-44.79 Y21.96 
G01 X-44.80 Y21.98 
G01 X-44.82 Y21.99 
G01 X-44.83 Y22.01 
G01 X-44.84 Y22.02 
G01 X-44.85 Y22.04 
G01 X-44.87 Y22.05 
G01 X-44.87 Y22.07 
G01 X-44.88 Y22.09 
G01 X-44.89 Y22.11 
G01 X-44.90 Y22.14 
G01 X-45.17 Y22.41 
G01 X-45.53 Y22.56 
G01 X-45.91 Y22.56 
G01 X-46.27 Y22.41 
G01 X-46.54 Y22.14 
G01 X-46.69 Y21.78 
G01 X-46.69 Y21.40 
G01 X-46.54 Y21.04 
G01 X-46.27 Y20.77 
G01 X-45.91 Y20.62 
G01 X-45.53 Y20.62 
G01 X-45.17 Y20.77 
G01 X-44.91 Y21.04 
G01 X-44.84 Y21.08 
G01 X-44.76 Y21.10 
G01 X-44.14 Y21.10 
G01 X-44.06 Y21.08 
G01 X-43.99 Y21.04 
G01 X-43.94 Y20.98 
G01 X-43.73 Y20.77 
G01 X-43.37 Y20.62 
G01 X-42.99 Y20.62 
G01 X-42.63 Y20.77 
G01 X-42.36 Y21.04 
G01 X-42.36 Y21.05 
G01 X-42.35 Y21.07 
G01 X-42.34 Y21.09 
G01 X-42.33 Y21.10 
G01 X-42.31 Y21.12 
G01 X-42.30 Y21.13 
G01 X-42.29 Y21.15 
G01 X-42.14 Y21.29 
G01 X-41.89 Y21.54 
G01 X-41.82 Y21.58 
G01 X-41.75 Y21.60 
G01 X-37.92 Y21.60 
G01 X-37.86 Y21.62 
G01 X-37.95 Y21.60 
G01 X-41.83 Y21.60 
G01 X-42.18 Y21.25 
G01 X-42.25 Y21.18 
G01 X-42.32 Y21.14 
G01 X-42.33 Y21.13 
G00 Z1.00 
G00 X-5.39 Y44.21 
G01 Z-0.20 F60.00 
G01 X-5.38 Y44.22 F80.00 
G01 X-5.38 Y44.55 
G01 X-5.39 Y44.56 
G01 X-5.39 Y44.21 
G00 Z1.00 
G00 X-2.77 Y8.23 
G01 Z-0.20 F60.00 
G01 X-2.85 Y8.38 F80.00 
G01 X-2.96 Y8.53 
G01 X-3.08 Y8.65 
G01 X-3.22 Y8.75 
G01 X-3.38 Y8.83 
G01 X-3.45 Y8.86 
G01 X-3.45 Y8.80 
G01 X-3.40 Y8.79 
G01 X-3.25 Y8.71 
G01 X-3.12 Y8.61 
G01 X-3.00 Y8.49 
G01 X-2.90 Y8.36 
G01 X-2.82 Y8.21 
G01 X-2.80 Y8.15 
G01 X-2.75 Y8.15 
G01 X-2.77 Y8.23 
G00 Z1.00 
G00 X-4.85 Y7.37 
G01 Z-0.20 F60.00 
G01 X-4.77 Y7.21 F80.00 
G01 X-4.66 Y7.07 
G01 X-4.54 Y6.94 
G01 X-4.40 Y6.84 
G01 X-4.24 Y6.76 
G01 X-4.16 Y6.74 
G01 X-4.16 Y6.79 
G01 X-4.22 Y6.81 
G01 X-4.37 Y6.89 
G01 X-4.50 Y6.98 
G01 X-4.62 Y7.10 
G01 X-4.72 Y7.24 
G01 X-4.80 Y7.39 
G01 X-4.82 Y7.44 
G01 X-4.87 Y7.44 
G01 X-4.85 Y7.37 
G00 Z1.00 
G00 X-4.80 Y8.21 
G01 Z-0.20 F60.00 
G01 X-4.72 Y8.36 F80.00 
G01 X-4.62 Y8.49 
G01 X-4.50 Y8.61 
G01 X-4.37 Y8.71 
G01 X-4.22 Y8.79 
G01 X-4.16 Y8.80 
G01 X-4.16 Y8.86 
G01 X-4.24 Y8.83 
G01 X-4.40 Y8.75 
G01 X-4.54 Y8.65 
G01 X-4.66 Y8.53 
G01 X-4.77 Y8.38 
G01 X-4.85 Y8.23 
G01 X-4.87 Y8.15 
G01 X-4.82 Y8.15 
G01 X-4.80 Y8.21 
G00 Z1.00 
G00 X-3.38 Y6.76 
G01 Z-0.20 F60.00 
G01 X-3.22 Y6.84 F80.00 
G01 X-3.08 Y6.94 
G01 X-2.96 Y7.07 
G01 X-2.85 Y7.21 
G01 X-2.77 Y7.37 
G01 X-2.75 Y7.44 
G01 X-2.80 Y7.44 
G01 X-2.82 Y7.39 
G01 X-2.90 Y7.24 
G01 X-3.00 Y7.10 
G01 X-3.12 Y6.98 
G01 X-3.25 Y6.89 
G01 X-3.40 Y6.81 
G01 X-3.45 Y6.79 
G01 X-3.45 Y6.74 
G01 X-3.38 Y6.76 
G00 Z1.00 
G00 X-21.84 Y37.77 
G01 Z-0.20 F60.00 
G01 X-21.73 Y37.66 F80.00 
G01 X-21.67 Y37.63 
G01 X-21.75 Y37.68 
G01 X-21.82 Y37.75 
G01 X-21.87 Y37.83 
G01 X-21.84 Y37.77 
G00 Z1.00 
G00 X-20.01 Y44.05 
G01 Z-0.20 F60.00 
G01 X-20.01 Y44.85 F80.00 
G01 X-19.45 Y45.41 
G01 X-18.65 Y45.41 
G01 X-18.09 Y44.85 
G01 X-18.09 Y44.40 
G01 X-7.31 Y44.40 
G01 X-7.31 Y44.85 
G01 X-6.75 Y45.41 
G01 X-5.95 Y45.41 
G01 X-5.39 Y44.85 
G01 X-5.39 Y44.57 
G01 X-5.38 Y44.59 
G01 X-5.38 Y44.62 
G01 X-5.38 Y44.63 
G01 X-5.38 Y44.64 
G01 X-5.37 Y44.67 
G01 X-5.36 Y44.70 
G01 X-5.36 Y44.71 
G01 X-5.36 Y44.72 
G01 X-5.34 Y44.74 
G01 X-5.32 Y44.77 
G01 X-5.32 Y44.77 
G01 X-5.31 Y44.78 
G01 X-5.29 Y44.80 
G01 X-5.27 Y44.82 
G01 X-5.26 Y44.83 
G01 X-5.25 Y44.84 
G01 X-5.22 Y44.85 
G01 X-5.20 Y44.86 
G01 X-5.19 Y44.87 
G01 X-5.18 Y44.87 
G01 X-5.15 Y44.88 
G01 X-5.12 Y44.89 
G01 X-5.11 Y44.89 
G01 X-5.10 Y44.89 
G01 X-5.07 Y44.89 
G01 X-5.04 Y44.89 
G01 X-5.03 Y44.88 
G01 X-5.02 Y44.88 
G01 X-4.99 Y44.87 
G01 X-4.96 Y44.86 
G01 X-4.95 Y44.86 
G01 X-4.95 Y44.86 
G01 X-4.92 Y44.84 
G01 X-4.89 Y44.82 
G01 X-4.89 Y44.82 
G01 X-4.88 Y44.81 
G01 X-5.67 Y45.60 
G01 X-48.83 Y45.60 
G01 X-49.21 Y45.22 
G01 X-49.20 Y45.23 
G01 X-49.19 Y45.24 
G01 X-49.17 Y45.25 
G01 X-49.15 Y45.27 
G01 X-49.13 Y45.27 
G01 X-49.12 Y45.28 
G01 X-49.10 Y45.29 
G01 X-49.08 Y45.30 
G01 X-49.06 Y45.30 
G01 X-49.04 Y45.31 
G01 X-49.02 Y45.31 
G01 X-49.00 Y45.31 
G01 X-48.98 Y45.31 
G01 X-48.96 Y45.31 
G01 X-48.94 Y45.30 
G01 X-48.92 Y45.30 
G01 X-48.90 Y45.29 
G01 X-48.88 Y45.28 
G01 X-48.87 Y45.27 
G01 X-48.85 Y45.27 
G01 X-48.83 Y45.25 
G01 X-48.81 Y45.24 
G01 X-48.80 Y45.23 
G01 X-48.78 Y45.22 
G01 X-48.77 Y45.20 
G01 X-48.76 Y45.19 
G01 X-48.75 Y45.17 
G01 X-48.73 Y45.15 
G01 X-48.73 Y45.14 
G01 X-48.72 Y45.12 
G01 X-48.71 Y45.10 
G01 X-48.70 Y45.08 
G01 X-48.70 Y45.06 
G01 X-48.70 Y45.04 
G01 X-48.70 Y45.02 
G01 X-48.69 Y45.00 
G01 X-48.70 Y44.98 
G01 X-48.70 Y44.96 
G01 X-48.70 Y44.94 
G01 X-48.70 Y44.92 
G01 X-48.71 Y44.90 
G01 X-48.71 Y44.89 
G01 X-48.71 Y44.91 
G01 X-48.60 Y45.06 
G01 X-48.47 Y45.20 
G01 X-48.31 Y45.30 
G01 X-48.13 Y45.38 
G01 X-47.95 Y45.41 
G01 X-46.03 Y45.41 
G01 X-45.85 Y45.38 
G01 X-45.67 Y45.30 
G01 X-45.51 Y45.20 
G01 X-45.38 Y45.06 
G01 X-45.27 Y44.91 
G01 X-45.20 Y44.73 
G01 X-45.16 Y44.55 
G01 X-45.16 Y44.35 
G01 X-45.18 Y44.25 
G01 X-45.18 Y44.25 
G01 X-43.33 Y42.40 
G01 X-28.95 Y42.40 
G01 X-28.86 Y42.38 
G01 X-28.92 Y42.40 
G01 X-43.25 Y42.40 
G01 X-43.32 Y42.42 
G01 X-43.39 Y42.46 
G01 X-43.42 Y42.49 
G01 X-45.04 Y44.11 
G01 X-45.07 Y44.14 
G01 X-45.10 Y44.17 
G01 X-45.14 Y44.24 
G01 X-45.16 Y44.32 
G01 X-45.16 Y44.64 
G01 X-45.31 Y45.00 
G01 X-45.36 Y45.05 
G01 X-45.41 Y45.10 
G01 X-45.42 Y45.11 
G01 X-45.43 Y45.14 
G01 X-45.46 Y45.18 
G01 X-45.48 Y45.25 
G01 X-45.48 Y45.33 
G01 X-45.47 Y45.35 
G01 X-45.46 Y45.41 
G01 X-45.42 Y45.48 
G01 X-45.36 Y45.54 
G01 X-45.33 Y45.55 
G01 X-45.29 Y45.58 
G01 X-45.21 Y45.60 
G01 X-38.61 Y45.60 
G01 X-38.53 Y45.58 
G01 X-38.49 Y45.55 
G01 X-38.46 Y45.54 
G01 X-38.40 Y45.48 
G01 X-38.36 Y45.41 
G01 X-38.35 Y45.36 
G01 X-38.34 Y45.33 
G01 X-38.34 Y45.25 
G01 X-38.36 Y45.18 
G01 X-38.39 Y45.14 
G01 X-38.40 Y45.11 
G01 X-38.46 Y45.05 
G01 X-38.51 Y45.00 
G01 X-38.66 Y44.64 
G01 X-38.66 Y44.26 
G01 X-38.51 Y43.90 
G01 X-38.24 Y43.63 
G01 X-37.89 Y43.48 
G01 X-35.77 Y43.48 
G01 X-35.42 Y43.63 
G01 X-35.15 Y43.90 
G01 X-35.15 Y43.91 
G01 X-35.14 Y43.93 
G01 X-35.13 Y43.95 
G01 X-35.12 Y43.96 
G01 X-35.11 Y43.98 
G01 X-35.09 Y43.99 
G01 X-35.08 Y44.01 
G01 X-35.06 Y44.02 
G01 X-35.05 Y44.04 
G01 X-35.03 Y44.05 
G01 X-35.02 Y44.06 
G01 X-35.00 Y44.07 
G01 X-34.98 Y44.08 
G01 X-34.96 Y44.08 
G01 X-34.94 Y44.09 
G01 X-34.92 Y44.09 
G01 X-34.90 Y44.10 
G01 X-34.88 Y44.10 
G01 X-34.87 Y44.10 
G01 X-35.07 Y44.10 
G01 X-35.11 Y43.99 
G01 X-35.22 Y43.84 
G01 X-35.35 Y43.70 
G01 X-35.51 Y43.60 
G01 X-35.69 Y43.52 
G01 X-35.87 Y43.49 
G01 X-37.79 Y43.49 
G01 X-37.97 Y43.52 
G01 X-38.15 Y43.60 
G01 X-38.31 Y43.70 
G01 X-38.44 Y43.84 
G01 X-38.55 Y43.99 
G01 X-38.62 Y44.17 
G01 X-38.66 Y44.35 
G01 X-38.66 Y44.55 
G01 X-38.62 Y44.73 
G01 X-38.55 Y44.91 
G01 X-38.44 Y45.06 
G01 X-38.31 Y45.20 
G01 X-38.15 Y45.30 
G01 X-37.97 Y45.38 
G01 X-37.79 Y45.41 
G01 X-35.87 Y45.41 
G01 X-35.69 Y45.38 
G01 X-35.51 Y45.30 
G01 X-35.35 Y45.20 
G01 X-35.22 Y45.06 
G01 X-35.11 Y44.91 
G01 X-35.11 Y44.90 
G01 X-22.50 Y44.90 
G01 X-21.99 Y45.41 
G01 X-21.19 Y45.41 
G01 X-20.63 Y44.85 
G01 X-20.63 Y44.05 
G01 X-21.10 Y43.58 
G01 X-21.10 Y38.40 
G01 X-8.58 Y38.40 
G01 X-8.58 Y39.06 
G01 X-8.55 Y39.24 
G01 X-8.47 Y39.42 
G01 X-8.37 Y39.58 
G01 X-8.23 Y39.71 
G01 X-8.08 Y39.82 
G01 X-7.90 Y39.89 
G01 X-7.72 Y39.93 
G01 X-7.52 Y39.93 
G01 X-7.34 Y39.89 
G01 X-7.16 Y39.82 
G01 X-7.01 Y39.71 
G01 X-6.87 Y39.58 
G01 X-6.77 Y39.42 
G01 X-6.69 Y39.24 
G01 X-6.66 Y39.06 
G01 X-6.66 Y37.14 
G01 X-6.69 Y36.96 
G01 X-6.77 Y36.78 
G01 X-6.87 Y36.62 
G01 X-7.01 Y36.49 
G01 X-7.16 Y36.38 
G01 X-7.34 Y36.31 
G01 X-7.52 Y36.27 
G01 X-7.72 Y36.27 
G01 X-7.90 Y36.31 
G01 X-8.08 Y36.38 
G01 X-8.23 Y36.49 
G01 X-8.37 Y36.62 
G01 X-8.47 Y36.78 
G01 X-8.55 Y36.96 
G01 X-8.58 Y37.14 
G01 X-8.58 Y37.60 
G01 X-13.83 Y37.60 
G01 X-19.36 Y32.08 
G01 X-19.36 Y31.35 
G01 X-19.92 Y30.79 
G01 X-20.72 Y30.79 
G01 X-21.28 Y31.35 
G01 X-21.28 Y32.15 
G01 X-20.72 Y32.71 
G01 X-19.92 Y32.71 
G01 X-19.89 Y32.68 
G01 X-14.97 Y37.60 
G01 X-21.55 Y37.60 
G01 X-21.64 Y37.62 
G01 X-21.58 Y37.60 
G01 X-15.67 Y37.60 
G01 X-15.59 Y37.58 
G01 X-15.52 Y37.54 
G01 X-15.46 Y37.48 
G01 X-15.42 Y37.41 
G01 X-15.40 Y37.33 
G01 X-15.40 Y37.25 
G01 X-15.42 Y37.18 
G01 X-15.46 Y37.11 
G01 X-15.52 Y37.05 
G01 X-19.79 Y32.78 
G01 X-19.86 Y32.74 
G01 X-19.94 Y32.72 
G01 X-20.72 Y32.72 
G01 X-21.29 Y32.15 
G01 X-21.29 Y31.35 
G01 X-20.89 Y30.95 
G01 X-20.84 Y30.90 
G01 X-20.83 Y30.89 
G01 X-20.79 Y30.82 
G01 X-20.77 Y30.75 
G01 X-20.77 Y30.67 
G01 X-20.79 Y30.59 
G01 X-20.83 Y30.52 
G01 X-20.89 Y30.46 
G01 X-20.96 Y30.42 
G01 X-21.03 Y30.40 
G01 X-26.71 Y30.40 
G01 X-26.79 Y30.42 
G01 X-26.86 Y30.46 
G01 X-26.91 Y30.52 
G01 X-26.95 Y30.59 
G01 X-26.97 Y30.67 
G01 X-26.97 Y31.54 
G01 X-27.12 Y31.89 
G01 X-27.39 Y32.16 
G01 X-27.75 Y32.31 
G01 X-28.13 Y32.31 
G01 X-28.49 Y32.16 
G01 X-28.76 Y31.89 
G01 X-28.91 Y31.54 
G01 X-28.91 Y29.42 
G01 X-28.76 Y29.07 
G01 X-28.49 Y28.80 
G01 X-28.13 Y28.65 
G01 X-27.75 Y28.65 
G01 X-27.39 Y28.80 
G01 X-27.12 Y29.07 
G01 X-26.99 Y29.39 
G01 X-26.98 Y29.41 
G01 X-26.97 Y29.43 
G01 X-26.96 Y29.45 
G01 X-26.95 Y29.46 
G01 X-26.94 Y29.48 
G01 X-26.93 Y29.49 
G01 X-26.92 Y29.51 
G01 X-26.90 Y29.52 
G01 X-26.89 Y29.54 
G01 X-26.87 Y29.55 
G01 X-26.85 Y29.56 
G01 X-26.83 Y29.57 
G01 X-26.82 Y29.58 
G01 X-26.80 Y29.58 
G01 X-26.78 Y29.59 
G01 X-26.76 Y29.59 
G01 X-26.74 Y29.60 
G01 X-26.72 Y29.60 
G01 X-26.71 Y29.60 
G01 X-26.98 Y29.60 
G01 X-26.98 Y29.52 
G01 X-27.01 Y29.34 
G01 X-27.09 Y29.16 
G01 X-27.19 Y29.00 
G01 X-27.33 Y28.87 
G01 X-27.48 Y28.76 
G01 X-27.66 Y28.69 
G01 X-27.84 Y28.65 
G01 X-28.04 Y28.65 
G01 X-28.22 Y28.69 
G01 X-28.40 Y28.76 
G01 X-28.55 Y28.87 
G01 X-28.69 Y29.00 
G01 X-28.79 Y29.16 
G01 X-28.87 Y29.34 
G01 X-28.90 Y29.52 
G01 X-28.90 Y31.44 
G01 X-28.87 Y31.62 
G01 X-28.79 Y31.80 
G01 X-28.69 Y31.96 
G01 X-28.55 Y32.09 
G01 X-28.40 Y32.20 
G01 X-28.22 Y32.27 
G01 X-28.04 Y32.31 
G01 X-27.84 Y32.31 
G01 X-27.66 Y32.27 
G01 X-27.48 Y32.20 
G01 X-27.33 Y32.09 
G01 X-27.19 Y31.96 
G01 X-27.09 Y31.80 
G01 X-27.01 Y31.62 
G01 X-26.98 Y31.44 
G01 X-26.98 Y30.40 
G01 X-19.67 Y30.40 
G01 X-18.73 Y31.34 
G01 X-18.74 Y31.35 
G01 X-18.74 Y32.15 
G01 X-18.18 Y32.71 
G01 X-17.38 Y32.71 
G01 X-17.37 Y32.70 
G01 X-16.32 Y33.75 
G01 X-16.25 Y33.82 
G01 X-16.17 Y33.87 
G01 X-16.23 Y33.84 
G01 X-16.36 Y33.71 
G01 X-16.41 Y33.66 
G01 X-17.29 Y32.78 
G01 X-17.36 Y32.74 
G01 X-17.44 Y32.72 
G01 X-18.02 Y32.72 
G01 X-18.10 Y32.74 
G01 X-18.17 Y32.78 
G01 X-18.22 Y32.83 
G01 X-18.26 Y32.90 
G01 X-18.29 Y32.98 
G01 X-18.29 Y33.06 
G01 X-18.26 Y33.14 
G01 X-18.22 Y33.21 
G01 X-18.17 Y33.26 
G01 X-13.89 Y37.54 
G01 X-13.82 Y37.58 
G01 X-13.75 Y37.60 
G01 X-8.85 Y37.60 
G01 X-8.77 Y37.58 
G01 X-8.70 Y37.54 
G01 X-8.65 Y37.48 
G01 X-8.61 Y37.41 
G01 X-8.59 Y37.33 
G01 X-8.59 Y37.04 
G01 X-8.44 Y36.69 
G01 X-8.17 Y36.42 
G01 X-7.81 Y36.27 
G01 X-7.43 Y36.27 
G01 X-7.07 Y36.42 
G01 X-6.80 Y36.69 
G01 X-6.65 Y37.04 
G01 X-6.65 Y39.16 
G01 X-6.80 Y39.51 
G01 X-7.07 Y39.78 
G01 X-7.43 Y39.93 
G01 X-7.81 Y39.93 
G01 X-8.17 Y39.78 
G01 X-8.44 Y39.51 
G01 X-8.59 Y39.16 
G01 X-8.59 Y38.67 
G01 X-8.61 Y38.59 
G01 X-8.65 Y38.52 
G01 X-8.70 Y38.46 
G01 X-8.77 Y38.42 
G01 X-8.85 Y38.40 
G01 X-20.83 Y38.40 
G01 X-20.91 Y38.42 
G01 X-20.98 Y38.46 
G01 X-21.04 Y38.52 
G01 X-21.08 Y38.59 
G01 X-21.10 Y38.67 
G01 X-21.10 Y43.49 
G01 X-21.08 Y43.56 
G01 X-21.08 Y43.57 
G01 X-21.04 Y43.64 
G01 X-20.98 Y43.69 
G01 X-20.62 Y44.05 
G01 X-20.62 Y44.85 
G01 X-20.82 Y45.05 
G01 X-20.88 Y45.11 
G01 X-20.92 Y45.18 
G01 X-20.94 Y45.25 
G01 X-20.94 Y45.33 
G01 X-20.92 Y45.41 
G01 X-20.88 Y45.48 
G01 X-20.82 Y45.54 
G01 X-20.76 Y45.58 
G01 X-20.68 Y45.60 
G01 X-19.96 Y45.60 
G01 X-19.89 Y45.58 
G01 X-19.89 Y45.58 
G01 X-19.82 Y45.54 
G01 X-19.76 Y45.48 
G01 X-19.72 Y45.41 
G01 X-19.70 Y45.33 
G01 X-19.70 Y45.25 
G01 X-19.72 Y45.18 
G01 X-19.72 Y45.18 
G01 X-19.76 Y45.11 
G01 X-19.82 Y45.05 
G01 X-20.02 Y44.85 
G01 X-20.02 Y44.05 
G01 X-19.45 Y43.48 
G01 X-18.65 Y43.48 
G01 X-18.60 Y43.53 
G01 X-18.60 Y43.54 
G01 X-18.57 Y43.55 
G01 X-18.53 Y43.58 
G01 X-18.45 Y43.60 
G01 X-6.95 Y43.60 
G01 X-6.87 Y43.58 
G01 X-6.80 Y43.54 
G01 X-6.75 Y43.48 
G01 X-5.95 Y43.48 
G01 X-5.38 Y44.05 
G01 X-5.38 Y44.18 
G01 X-5.39 Y44.19 
G01 X-5.39 Y44.05 
G01 X-5.95 Y43.49 
G01 X-6.75 Y43.49 
G01 X-6.86 Y43.60 
G01 X-18.54 Y43.60 
G01 X-18.65 Y43.49 
G01 X-19.45 Y43.49 
G01 X-20.01 Y44.05 
G00 Z1.00 
G00 X-2.77 Y5.16 
G01 Z-0.20 F60.00 
G01 X-2.77 Y5.15 F80.00 
G01 X-2.74 Y4.99 
G01 X-2.74 Y4.82 
G01 X-2.77 Y4.65 
G01 X-2.81 Y4.52 
G01 X-2.74 Y4.69 
G01 X-2.74 Y5.10 
G01 X-2.72 Y5.18 
G01 X-2.68 Y5.25 
G01 X-2.66 Y5.27 
G01 X-1.46 Y6.47 
G01 X-1.43 Y6.51 
G01 X-1.41 Y6.53 
G01 X-1.34 Y6.57 
G01 X-1.26 Y6.59 
G01 X-1.18 Y6.59 
G01 X-1.10 Y6.57 
G01 X-1.03 Y6.53 
G01 X-0.98 Y6.47 
G01 X-0.94 Y6.40 
G01 X-0.91 Y6.32 
G01 X-0.91 Y1.18 
G01 X-0.94 Y1.10 
G01 X-0.98 Y1.03 
G01 X-1.03 Y0.98 
G01 X-1.10 Y0.94 
G01 X-1.18 Y0.91 
G01 X-68.34 Y0.91 
G01 X-68.42 Y0.94 
G01 X-68.49 Y0.98 
G01 X-68.54 Y1.03 
G01 X-68.58 Y1.10 
G01 X-68.60 Y1.18 
G01 X-68.60 Y47.07 
G01 X-68.58 Y47.15 
G01 X-68.54 Y47.22 
G01 X-68.49 Y47.27 
G01 X-68.42 Y47.31 
G01 X-68.34 Y47.33 
G01 X-1.18 Y47.33 
G01 X-1.10 Y47.31 
G01 X-1.03 Y47.27 
G01 X-0.98 Y47.22 
G01 X-0.94 Y47.15 
G01 X-0.91 Y47.07 
G01 X-0.91 Y30.18 
G01 X-0.93 Y30.10 
G01 X-0.94 Y30.10 
G01 X-0.98 Y30.03 
G01 X-1.03 Y29.97 
G01 X-1.10 Y29.93 
G01 X-1.18 Y29.91 
G01 X-1.26 Y29.91 
G01 X-1.33 Y29.93 
G01 X-1.34 Y29.93 
G01 X-1.41 Y29.97 
G01 X-1.46 Y30.03 
G01 X-2.27 Y30.84 
G01 X-2.33 Y30.87 
G01 X-2.25 Y30.82 
G01 X-1.25 Y29.82 
G01 X-1.18 Y29.75 
G01 X-1.13 Y29.65 
G01 X-1.10 Y29.55 
G01 X-1.10 Y6.95 
G01 X-1.13 Y6.85 
G01 X-1.18 Y6.75 
G01 X-1.25 Y6.68 
G01 X-2.77 Y5.16 
G00 Z1.00 
G00 Z2.00 
M05
M02
