(.../pcb-gcode-3.6.0.4/pcb-gcode.ulp)
(Copyright 2005 - 2012 by John Johnson)
(See readme.txt for licensing terms.)
(This file generated from the board:)
(.../Copperclad_CooperBuffer_Amp2.brd)
(Current profile is .../pcb-gcode-3.6.0.4/profiles/imodela.pp  )
(This file generated 8/3/16 4:05 PM)
(Settings from pcb-machine.h)
(  Tool Size)
(0.20 )
(Z Axis Settings)
(  High     Up        Down     Drill)
(2.00 	1.00 	-0.20 	-1.80 )
(spindle on time = 1.0000)
(milling depth = -0.2000)
(text depth = -0.1270)
(tool change at 0.00 0.00 10.00 )
(feed rate xy = F80.00 )
(feed rate z  = F60.00 )
(Settings from pcb-defaults.h)
(isolate min = 0.0010)
(isolate max = 0.2000)
(isolate step = 0.2000)
(Generated bottom outlines, bottom drill, )
(Unit of measure: mm)
( Tool|       Size       |  Min Sub |  Max Sub |   Count )
( T01  0.813mm 0.0320in 0.0000in 0.0000in )
( T02  0.900mm 0.0354in 0.0000in 0.0000in )
( T03  1.016mm 0.0400in 0.0000in 0.0000in )
(Metric Mode)
G21
(Absolute Coordinates)
G90
M05
G00 Z10.00 
G00 X0.00 Y0.00 
(M06 T01  ; 0.81 )
G01 Z0.00 F60.00 
(M06 T01  ; 0.81 )
G00 Z1.00 
M03
G04 P 1
G00 Z1.000000
G00 X-3.18 Y26.04 
G01 Z-1.80 F60.00 
G01 Z1.000000
(R1.00  P1.000000)
(G00 Z1.000000)
G00 X-3.18 Y28.58 
G01 Z-1.800000
G01 Z1.000000
(G00 Z1.000000)
G00 X-3.81 Y44.45 
G01 Z-1.800000
G01 Z1.000000
(G00 Z1.000000)
G00 X-3.81 Y20.32 
G01 Z-1.800000
G01 Z1.000000
(G00 Z1.000000)
G00 X-3.81 Y22.86 
G01 Z-1.800000
G01 Z1.000000
(G00 Z1.000000)
G00 X-5.08 Y36.83 
G01 Z-1.800000
G01 Z1.000000
(G00 Z1.000000)
G00 X-6.35 Y44.45 
G01 Z-1.800000
G01 Z1.000000
(G00 Z1.000000)
G00 X-6.35 Y30.48 
G01 Z-1.800000
G01 Z1.000000
(G00 Z1.000000)
G00 X-7.62 Y36.83 
G01 Z-1.800000
G01 Z1.000000
(G00 Z1.000000)
G00 X-8.89 Y30.48 
G01 Z-1.800000
G01 Z1.000000
(G00 Z1.000000)
G00 X-11.43 Y44.45 
G01 Z-1.800000
G01 Z1.000000
(G00 Z1.000000)
G00 X-11.43 Y12.07 
G01 Z-1.800000
G01 Z1.000000
(G00 Z1.000000)
G00 X-11.43 Y18.41 
G01 Z-1.800000
G01 Z1.000000
(G00 Z1.000000)
G00 X-11.43 Y24.13 
G01 Z-1.800000
G01 Z1.000000
(G00 Z1.000000)
G00 X-11.43 Y26.67 
G01 Z-1.800000
G01 Z1.000000
(G00 Z1.000000)
G00 X-12.70 Y40.64 
G01 Z-1.800000
G01 Z1.000000
(G00 Z1.000000)
G00 X-12.70 Y30.48 
G01 Z-1.800000
G01 Z1.000000
(G00 Z1.000000)
G00 X-13.97 Y12.07 
G01 Z-1.800000
G01 Z1.000000
(G00 Z1.000000)
G00 X-13.97 Y18.41 
G01 Z-1.800000
G01 Z1.000000
(G00 Z1.000000)
G00 X-15.24 Y8.26 
G01 Z-1.800000
G01 Z1.000000
(G00 Z1.000000)
G00 X-17.78 Y8.26 
G01 Z-1.800000
G01 Z1.000000
(G00 Z1.000000)
G00 X-17.78 Y21.59 
G01 Z-1.800000
G01 Z1.000000
(G00 Z1.000000)
G00 X-17.78 Y29.21 
G01 Z-1.800000
G01 Z1.000000
(G00 Z1.000000)
G00 X-20.32 Y14.61 
G01 Z-1.800000
G01 Z1.000000
(G00 Z1.000000)
G00 X-20.32 Y21.59 
G01 Z-1.800000
G01 Z1.000000
(G00 Z1.000000)
G00 X-20.32 Y29.21 
G01 Z-1.800000
G01 Z1.000000
(G00 Z1.000000)
G00 X-21.59 Y44.45 
G01 Z-1.800000
G01 Z1.000000
(G00 Z1.000000)
G00 X-22.86 Y14.61 
G01 Z-1.800000
G01 Z1.000000
(G00 Z1.000000)
G00 X-22.86 Y21.59 
G01 Z-1.800000
G01 Z1.000000
(G00 Z1.000000)
G00 X-22.86 Y29.21 
G01 Z-1.800000
G01 Z1.000000
(G00 Z1.000000)
G00 X-23.50 Y3.81 
G01 Z-1.800000
G01 Z1.000000
(G00 Z1.000000)
G00 X-23.50 Y6.35 
G01 Z-1.800000
G01 Z1.000000
(G00 Z1.000000)
G00 X-2.54 Y36.83 
G01 Z-1.800000
G01 Z1.000000
(G00 Z1.000000)
G00 X-25.40 Y21.59 
G01 Z-1.800000
G01 Z1.000000
(G00 Z1.000000)
G00 X-25.40 Y29.21 
G01 Z-1.800000
G01 Z1.000000
M05
G00 Z10.00 
(M06 T02  ; 0.90 )
G01 Z0.00 F60.00 
(M06 T02  ; 0.90 )
G00 Z1.00 
M03
G04 P 1
G00 Z1.000000
G00 X-20.32 Y33.97 
G01 Z-1.80 F60.00 
G01 Z1.000000
(R1.00  P1.000000)
(G00 Z1.000000)
G00 X-22.86 Y33.97 
G01 Z-1.800000
G01 Z1.000000
(G00 Z1.000000)
G00 X-25.40 Y33.97 
G01 Z-1.800000
G01 Z1.000000
M05
G00 Z10.00 
(M06 T03  ; 1.02 )
G01 Z0.00 F60.00 
(M06 T03  ; 1.02 )
G00 Z1.00 
M03
G04 P 1
G00 Z1.000000
G00 X-3.81 Y4.90 
G01 Z-1.80 F60.00 
G01 Z1.000000
(R1.00  P1.000000)
(G00 Z1.000000)
G00 X-3.81 Y7.80 
G01 Z-1.800000
G01 Z1.000000
(G00 Z1.000000)
G00 X-3.81 Y12.52 
G01 Z-1.800000
G01 Z1.000000
(G00 Z1.000000)
G00 X-3.81 Y15.42 
G01 Z-1.800000
G01 Z1.000000
(G00 Z1.000000)
G00 X-9.98 Y3.81 
G01 Z-1.800000
G01 Z1.000000
(G00 Z1.000000)
G00 X-12.88 Y3.81 
G01 Z-1.800000
G01 Z1.000000
T01 
G00 Z2.00 
M05
M02
