(.../pcb-gcode-3.6.0.4/pcb-gcode.ulp)
(Copyright 2005 - 2012 by John Johnson)
(See readme.txt for licensing terms.)
(This file generated from the board:)
(.../TRRSBreakout/BreakoutTRRS-V0-2.brd)
(Current profile is .../pcb-gcode-3.6.0.4/profiles/imodela.pp  )
(This file generated 8/3/16 12:42 PM)
(Settings from pcb-machine.h)
(  Tool Size)
(0.20 )
(Z Axis Settings)
(  High     Up        Down     Drill)
(2.00 	1.00 	-0.20 	-1.70 )
(spindle on time = 1.0000)
(milling depth = -0.2000)
(text depth = -0.1270)
(tool change at 0.00 0.00 10.00 )
(feed rate xy = F80.00 )
(feed rate z  = F60.00 )
(Settings from pcb-defaults.h)
(isolate min = 0.0010)
(isolate max = 0.2000)
(isolate step = 0.2000)
(Generated bottom outlines, bottom drill, )
(Unit of measure: mm)
(Metric Mode)
G21
(Absolute Coordinates)
G90
G00 X0.00 Y0.00 
M03
G04 P 1
G00 Z1.00 
G00 X-2.95 Y16.09 
G01 Z-0.20 F60.00 
G01 X-2.95 Y14.39 F80.00 
G01 X-2.98 Y14.23 
G01 X-3.05 Y14.07 
G01 X-3.14 Y13.93 
G01 X-3.26 Y13.81 
G01 X-3.40 Y13.71 
G01 X-3.56 Y13.65 
G01 X-3.73 Y13.62 
G01 X-3.89 Y13.62 
G01 X-4.06 Y13.65 
G01 X-4.22 Y13.71 
G01 X-4.36 Y13.81 
G01 X-4.48 Y13.93 
G01 X-4.57 Y14.07 
G01 X-4.64 Y14.23 
G01 X-4.67 Y14.39 
G01 X-4.67 Y16.09 
G01 X-4.64 Y16.25 
G01 X-4.57 Y16.41 
G01 X-4.48 Y16.55 
G01 X-4.36 Y16.67 
G01 X-4.22 Y16.77 
G01 X-4.06 Y16.83 
G01 X-3.89 Y16.86 
G01 X-3.73 Y16.86 
G01 X-3.56 Y16.83 
G01 X-3.40 Y16.77 
G01 X-3.26 Y16.67 
G01 X-3.14 Y16.55 
G01 X-3.05 Y16.41 
G01 X-2.98 Y16.25 
G01 X-2.95 Y16.09 
G00 Z1.00 
G00 X-5.49 Y16.09 
G01 Z-0.20 F60.00 
G01 X-5.49 Y14.39 F80.00 
G01 X-5.52 Y14.23 
G01 X-5.59 Y14.07 
G01 X-5.68 Y13.93 
G01 X-5.80 Y13.81 
G01 X-5.94 Y13.71 
G01 X-6.10 Y13.65 
G01 X-6.27 Y13.62 
G01 X-6.43 Y13.62 
G01 X-6.60 Y13.65 
G01 X-6.76 Y13.71 
G01 X-6.90 Y13.81 
G01 X-7.02 Y13.93 
G01 X-7.11 Y14.07 
G01 X-7.18 Y14.23 
G01 X-7.21 Y14.39 
G01 X-7.21 Y16.09 
G01 X-7.18 Y16.25 
G01 X-7.11 Y16.41 
G01 X-7.02 Y16.55 
G01 X-6.90 Y16.67 
G01 X-6.76 Y16.77 
G01 X-6.60 Y16.83 
G01 X-6.43 Y16.86 
G01 X-6.27 Y16.86 
G01 X-6.10 Y16.83 
G01 X-5.94 Y16.77 
G01 X-5.80 Y16.67 
G01 X-5.68 Y16.55 
G01 X-5.59 Y16.41 
G01 X-5.52 Y16.25 
G01 X-5.49 Y16.09 
G00 Z1.00 
G00 X-8.03 Y16.09 
G01 Z-0.20 F60.00 
G01 X-8.03 Y14.39 F80.00 
G01 X-8.06 Y14.23 
G01 X-8.13 Y14.07 
G01 X-8.22 Y13.93 
G01 X-8.34 Y13.81 
G01 X-8.48 Y13.71 
G01 X-8.64 Y13.65 
G01 X-8.80 Y13.62 
G01 X-8.97 Y13.62 
G01 X-9.14 Y13.65 
G01 X-9.30 Y13.71 
G01 X-9.44 Y13.81 
G01 X-9.56 Y13.93 
G01 X-9.65 Y14.07 
G01 X-9.72 Y14.23 
G01 X-9.75 Y14.39 
G01 X-9.75 Y16.09 
G01 X-9.72 Y16.25 
G01 X-9.65 Y16.41 
G01 X-9.56 Y16.55 
G01 X-9.44 Y16.67 
G01 X-9.30 Y16.77 
G01 X-9.14 Y16.83 
G01 X-8.97 Y16.86 
G01 X-8.80 Y16.86 
G01 X-8.64 Y16.83 
G01 X-8.48 Y16.77 
G01 X-8.34 Y16.67 
G01 X-8.22 Y16.55 
G01 X-8.13 Y16.41 
G01 X-8.06 Y16.25 
G01 X-8.03 Y16.09 
G00 Z1.00 
G00 X-10.57 Y16.09 
G01 Z-0.20 F60.00 
G01 X-10.57 Y14.39 F80.00 
G01 X-10.60 Y14.23 
G01 X-10.67 Y14.07 
G01 X-10.76 Y13.93 
G01 X-10.88 Y13.81 
G01 X-11.02 Y13.71 
G01 X-11.18 Y13.65 
G01 X-11.35 Y13.62 
G01 X-11.51 Y13.62 
G01 X-11.68 Y13.65 
G01 X-11.84 Y13.71 
G01 X-11.98 Y13.81 
G01 X-12.10 Y13.93 
G01 X-12.19 Y14.07 
G01 X-12.26 Y14.23 
G01 X-12.29 Y14.39 
G01 X-12.29 Y16.09 
G01 X-12.26 Y16.25 
G01 X-12.19 Y16.41 
G01 X-12.10 Y16.55 
G01 X-11.98 Y16.67 
G01 X-11.84 Y16.77 
G01 X-11.68 Y16.83 
G01 X-11.51 Y16.86 
G01 X-11.35 Y16.86 
G01 X-11.18 Y16.83 
G01 X-11.02 Y16.77 
G01 X-10.88 Y16.67 
G01 X-10.76 Y16.55 
G01 X-10.67 Y16.41 
G01 X-10.60 Y16.25 
G01 X-10.57 Y16.09 
G00 Z1.00 
G00 X-22.00 Y16.09 
G01 Z-0.20 F60.00 
G01 X-22.00 Y14.39 F80.00 
G01 X-22.03 Y14.23 
G01 X-22.10 Y14.07 
G01 X-22.19 Y13.93 
G01 X-22.31 Y13.81 
G01 X-22.45 Y13.71 
G01 X-22.61 Y13.65 
G01 X-22.78 Y13.62 
G01 X-22.94 Y13.62 
G01 X-23.11 Y13.65 
G01 X-23.27 Y13.71 
G01 X-23.41 Y13.81 
G01 X-23.53 Y13.93 
G01 X-23.62 Y14.07 
G01 X-23.69 Y14.23 
G01 X-23.72 Y14.39 
G01 X-23.72 Y16.09 
G01 X-23.69 Y16.25 
G01 X-23.62 Y16.41 
G01 X-23.53 Y16.55 
G01 X-23.41 Y16.67 
G01 X-23.27 Y16.77 
G01 X-23.11 Y16.83 
G01 X-22.94 Y16.86 
G01 X-22.78 Y16.86 
G01 X-22.61 Y16.83 
G01 X-22.45 Y16.77 
G01 X-22.31 Y16.67 
G01 X-22.19 Y16.55 
G01 X-22.10 Y16.41 
G01 X-22.03 Y16.25 
G01 X-22.00 Y16.09 
G00 Z1.00 
G00 X-24.54 Y16.09 
G01 Z-0.20 F60.00 
G01 X-24.54 Y14.39 F80.00 
G01 X-24.57 Y14.23 
G01 X-24.64 Y14.07 
G01 X-24.73 Y13.93 
G01 X-24.85 Y13.81 
G01 X-24.99 Y13.71 
G01 X-25.15 Y13.65 
G01 X-25.32 Y13.62 
G01 X-25.48 Y13.62 
G01 X-25.65 Y13.65 
G01 X-25.81 Y13.71 
G01 X-25.95 Y13.81 
G01 X-26.07 Y13.93 
G01 X-26.16 Y14.07 
G01 X-26.23 Y14.23 
G01 X-26.26 Y14.39 
G01 X-26.26 Y16.09 
G01 X-26.23 Y16.25 
G01 X-26.16 Y16.41 
G01 X-26.07 Y16.55 
G01 X-25.95 Y16.67 
G01 X-25.81 Y16.77 
G01 X-25.65 Y16.83 
G01 X-25.48 Y16.86 
G01 X-25.32 Y16.86 
G01 X-25.15 Y16.83 
G01 X-24.99 Y16.77 
G01 X-24.85 Y16.67 
G01 X-24.73 Y16.55 
G01 X-24.64 Y16.41 
G01 X-24.57 Y16.25 
G01 X-24.54 Y16.09 
G00 Z1.00 
G00 X-27.08 Y16.09 
G01 Z-0.20 F60.00 
G01 X-27.08 Y14.39 F80.00 
G01 X-27.11 Y14.23 
G01 X-27.18 Y14.07 
G01 X-27.27 Y13.93 
G01 X-27.39 Y13.81 
G01 X-27.53 Y13.71 
G01 X-27.69 Y13.65 
G01 X-27.86 Y13.62 
G01 X-28.02 Y13.62 
G01 X-28.19 Y13.65 
G01 X-28.35 Y13.71 
G01 X-28.49 Y13.81 
G01 X-28.61 Y13.93 
G01 X-28.70 Y14.07 
G01 X-28.77 Y14.23 
G01 X-28.80 Y14.39 
G01 X-28.80 Y16.09 
G01 X-28.77 Y16.25 
G01 X-28.70 Y16.41 
G01 X-28.61 Y16.55 
G01 X-28.49 Y16.67 
G01 X-28.35 Y16.77 
G01 X-28.19 Y16.83 
G01 X-28.02 Y16.86 
G01 X-27.86 Y16.86 
G01 X-27.69 Y16.83 
G01 X-27.53 Y16.77 
G01 X-27.39 Y16.67 
G01 X-27.27 Y16.55 
G01 X-27.18 Y16.41 
G01 X-27.11 Y16.25 
G01 X-27.08 Y16.09 
G00 Z1.00 
G00 X-29.62 Y16.09 
G01 Z-0.20 F60.00 
G01 X-29.62 Y14.39 F80.00 
G01 X-29.65 Y14.23 
G01 X-29.72 Y14.07 
G01 X-29.81 Y13.93 
G01 X-29.93 Y13.81 
G01 X-30.07 Y13.71 
G01 X-30.23 Y13.65 
G01 X-30.40 Y13.62 
G01 X-30.56 Y13.62 
G01 X-30.73 Y13.65 
G01 X-30.89 Y13.71 
G01 X-31.03 Y13.81 
G01 X-31.15 Y13.93 
G01 X-31.24 Y14.07 
G01 X-31.31 Y14.23 
G01 X-31.34 Y14.39 
G01 X-31.34 Y16.09 
G01 X-31.31 Y16.25 
G01 X-31.24 Y16.41 
G01 X-31.15 Y16.55 
G01 X-31.03 Y16.67 
G01 X-30.89 Y16.77 
G01 X-30.73 Y16.83 
G01 X-30.56 Y16.86 
G01 X-30.40 Y16.86 
G01 X-30.23 Y16.83 
G01 X-30.07 Y16.77 
G01 X-29.93 Y16.67 
G01 X-29.81 Y16.55 
G01 X-29.72 Y16.41 
G01 X-29.65 Y16.25 
G01 X-29.62 Y16.09 
G00 Z1.00 
G00 X-42.32 Y16.09 
G01 Z-0.20 F60.00 
G01 X-42.32 Y14.39 F80.00 
G01 X-42.35 Y14.23 
G01 X-42.42 Y14.07 
G01 X-42.51 Y13.93 
G01 X-42.63 Y13.81 
G01 X-42.77 Y13.71 
G01 X-42.93 Y13.65 
G01 X-43.09 Y13.62 
G01 X-43.26 Y13.62 
G01 X-43.43 Y13.65 
G01 X-43.59 Y13.71 
G01 X-43.73 Y13.81 
G01 X-43.85 Y13.93 
G01 X-43.94 Y14.07 
G01 X-44.01 Y14.23 
G01 X-44.04 Y14.39 
G01 X-44.04 Y16.09 
G01 X-44.01 Y16.25 
G01 X-43.94 Y16.41 
G01 X-43.85 Y16.55 
G01 X-43.73 Y16.67 
G01 X-43.59 Y16.77 
G01 X-43.43 Y16.83 
G01 X-43.26 Y16.86 
G01 X-43.09 Y16.86 
G01 X-42.93 Y16.83 
G01 X-42.77 Y16.77 
G01 X-42.63 Y16.67 
G01 X-42.51 Y16.55 
G01 X-42.42 Y16.41 
G01 X-42.35 Y16.25 
G01 X-42.32 Y16.09 
G00 Z1.00 
G00 X-44.86 Y16.09 
G01 Z-0.20 F60.00 
G01 X-44.86 Y14.39 F80.00 
G01 X-44.89 Y14.23 
G01 X-44.96 Y14.07 
G01 X-45.05 Y13.93 
G01 X-45.17 Y13.81 
G01 X-45.31 Y13.71 
G01 X-45.47 Y13.65 
G01 X-45.64 Y13.62 
G01 X-45.80 Y13.62 
G01 X-45.97 Y13.65 
G01 X-46.13 Y13.71 
G01 X-46.27 Y13.81 
G01 X-46.39 Y13.93 
G01 X-46.48 Y14.07 
G01 X-46.55 Y14.23 
G01 X-46.58 Y14.39 
G01 X-46.58 Y16.09 
G01 X-46.55 Y16.25 
G01 X-46.48 Y16.41 
G01 X-46.39 Y16.55 
G01 X-46.27 Y16.67 
G01 X-46.13 Y16.77 
G01 X-45.97 Y16.83 
G01 X-45.80 Y16.86 
G01 X-45.64 Y16.86 
G01 X-45.47 Y16.83 
G01 X-45.31 Y16.77 
G01 X-45.17 Y16.67 
G01 X-45.05 Y16.55 
G01 X-44.96 Y16.41 
G01 X-44.89 Y16.25 
G01 X-44.86 Y16.09 
G00 Z1.00 
G00 X-47.40 Y16.09 
G01 Z-0.20 F60.00 
G01 X-47.40 Y14.39 F80.00 
G01 X-47.43 Y14.23 
G01 X-47.50 Y14.07 
G01 X-47.59 Y13.93 
G01 X-47.71 Y13.81 
G01 X-47.85 Y13.71 
G01 X-48.01 Y13.65 
G01 X-48.18 Y13.62 
G01 X-48.34 Y13.62 
G01 X-48.51 Y13.65 
G01 X-48.67 Y13.71 
G01 X-48.81 Y13.81 
G01 X-48.93 Y13.93 
G01 X-49.02 Y14.07 
G01 X-49.09 Y14.23 
G01 X-49.12 Y14.39 
G01 X-49.12 Y16.09 
G01 X-49.09 Y16.25 
G01 X-49.02 Y16.41 
G01 X-48.93 Y16.55 
G01 X-48.81 Y16.67 
G01 X-48.67 Y16.77 
G01 X-48.51 Y16.83 
G01 X-48.34 Y16.86 
G01 X-48.18 Y16.86 
G01 X-48.01 Y16.83 
G01 X-47.85 Y16.77 
G01 X-47.71 Y16.67 
G01 X-47.59 Y16.55 
G01 X-47.50 Y16.41 
G01 X-47.43 Y16.25 
G01 X-47.40 Y16.09 
G00 Z1.00 
G00 X-49.94 Y16.09 
G01 Z-0.20 F60.00 
G01 X-49.94 Y14.39 F80.00 
G01 X-49.97 Y14.23 
G01 X-50.04 Y14.07 
G01 X-50.13 Y13.93 
G01 X-50.25 Y13.81 
G01 X-50.39 Y13.71 
G01 X-50.55 Y13.65 
G01 X-50.72 Y13.62 
G01 X-50.88 Y13.62 
G01 X-51.05 Y13.65 
G01 X-51.21 Y13.71 
G01 X-51.35 Y13.81 
G01 X-51.47 Y13.93 
G01 X-51.56 Y14.07 
G01 X-51.63 Y14.23 
G01 X-51.66 Y14.39 
G01 X-51.66 Y16.09 
G01 X-51.63 Y16.25 
G01 X-51.56 Y16.41 
G01 X-51.47 Y16.55 
G01 X-51.35 Y16.67 
G01 X-51.21 Y16.77 
G01 X-51.05 Y16.83 
G01 X-50.88 Y16.86 
G01 X-50.72 Y16.86 
G01 X-50.55 Y16.83 
G01 X-50.39 Y16.77 
G01 X-50.25 Y16.67 
G01 X-50.13 Y16.55 
G01 X-50.04 Y16.41 
G01 X-49.97 Y16.25 
G01 X-49.94 Y16.09 
G00 Z1.00 
G00 Z2.00 
M05
M02
