(.../pcb-gcode-3.6.0.4/pcb-gcode.ulp)
(Copyright 2005 - 2012 by John Johnson)
(See readme.txt for licensing terms.)
(This file generated from the board:)
(.../TRRSBreakout/BreakoutTRRS-V0-2.brd)
(Current profile is .../pcb-gcode-3.6.0.4/profiles/imodela.pp  )
(This file generated 8/3/16 1:01 PM)
(Settings from pcb-machine.h)
(  Tool Size)
(0.20 )
(Z Axis Settings)
(  High     Up        Down     Drill)
(2.00 	1.00 	-0.20 	-1.70 )
(spindle on time = 1.0000)
(milling depth = -0.2000)
(text depth = -0.1270)
(tool change at 0.00 0.00 10.00 )
(feed rate xy = F80.00 )
(feed rate z  = F60.00 )
(Settings from pcb-defaults.h)
(isolate min = 0.0010)
(isolate max = 0.2000)
(isolate step = 0.2000)
(Generated top outlines, top drill, )
(Unit of measure: mm)
(Metric Mode)
G21
(Absolute Coordinates)
G90
G00 X0.00 Y0.00 
M03
G04 P 1
G00 Z1.00 
G00 X10.95 Y13.70 
G01 Z-0.20 F60.00 
G01 X10.83 Y13.78 F80.00 
G01 X10.73 Y13.88 
G01 X10.65 Y14.00 
G01 X10.58 Y14.13 
G01 X10.54 Y14.26 
G01 X10.51 Y14.41 
G01 X10.51 Y14.88 
G01 X10.57 Y14.88 
G01 X10.57 Y14.39 
G01 X10.60 Y14.23 
G01 X10.67 Y14.07 
G01 X10.76 Y13.93 
G01 X10.88 Y13.81 
G01 X11.02 Y13.71 
G01 X11.07 Y13.69 
G01 X11.07 Y13.63 
G01 X10.95 Y13.70 
G00 Z1.00 
G00 X12.13 Y16.60 
G01 Z-0.20 F60.00 
G01 X12.21 Y16.48 F80.00 
G01 X12.28 Y16.35 
G01 X12.32 Y16.22 
G01 X12.34 Y16.07 
G01 X12.34 Y15.59 
G01 X12.29 Y15.59 
G01 X12.29 Y16.09 
G01 X12.26 Y16.25 
G01 X12.19 Y16.41 
G01 X12.10 Y16.55 
G01 X11.98 Y16.67 
G01 X11.84 Y16.77 
G01 X11.78 Y16.79 
G01 X11.78 Y16.85 
G01 X11.91 Y16.78 
G01 X12.03 Y16.70 
G01 X12.13 Y16.60 
G00 Z1.00 
G00 X12.34 Y14.41 
G01 Z-0.20 F60.00 
G01 X12.32 Y14.26 F80.00 
G01 X12.28 Y14.13 
G01 X12.21 Y14.00 
G01 X12.13 Y13.88 
G01 X12.03 Y13.78 
G01 X11.91 Y13.70 
G01 X11.78 Y13.63 
G01 X11.78 Y13.69 
G01 X11.84 Y13.71 
G01 X11.98 Y13.81 
G01 X12.10 Y13.93 
G01 X12.19 Y14.07 
G01 X12.26 Y14.23 
G01 X12.29 Y14.39 
G01 X12.29 Y14.88 
G01 X12.34 Y14.88 
G01 X12.34 Y14.41 
G00 Z1.00 
G00 X10.51 Y16.07 
G01 Z-0.20 F60.00 
G01 X10.54 Y16.22 F80.00 
G01 X10.58 Y16.35 
G01 X10.65 Y16.48 
G01 X10.73 Y16.60 
G01 X10.83 Y16.70 
G01 X10.95 Y16.78 
G01 X11.07 Y16.85 
G01 X11.07 Y16.79 
G01 X11.02 Y16.77 
G01 X10.88 Y16.67 
G01 X10.76 Y16.55 
G01 X10.67 Y16.41 
G01 X10.60 Y16.25 
G01 X10.57 Y16.09 
G01 X10.57 Y15.59 
G01 X10.51 Y15.59 
G01 X10.51 Y16.07 
G00 Z1.00 
G00 X43.22 Y6.05 
G01 Z-0.20 F60.00 
G01 X43.22 Y6.65 F80.00 
G01 X43.46 Y7.21 
G01 X43.88 Y7.63 
G01 X44.44 Y7.86 
G01 X45.04 Y7.86 
G01 X45.60 Y7.63 
G01 X46.02 Y7.21 
G01 X46.25 Y6.65 
G01 X46.25 Y6.05 
G01 X46.02 Y5.49 
G01 X45.60 Y5.07 
G01 X45.04 Y4.83 
G01 X44.44 Y4.83 
G01 X44.10 Y4.98 
G01 X44.08 Y4.99 
G01 X44.06 Y4.99 
G01 X44.04 Y5.00 
G01 X44.02 Y5.00 
G01 X44.01 Y5.00 
G01 X44.00 Y5.01 
G01 X43.99 Y5.02 
G01 X43.97 Y5.03 
G01 X43.95 Y5.04 
G01 X43.93 Y5.05 
G01 X43.88 Y5.07 
G01 X43.46 Y5.49 
G01 X43.22 Y6.05 
G00 Z1.00 
G00 X22.90 Y6.05 
G01 Z-0.20 F60.00 
G01 X22.90 Y6.65 F80.00 
G01 X23.14 Y7.21 
G01 X23.56 Y7.63 
G01 X24.12 Y7.86 
G01 X24.72 Y7.86 
G01 X25.28 Y7.63 
G01 X25.70 Y7.21 
G01 X25.93 Y6.65 
G01 X25.93 Y6.05 
G01 X25.70 Y5.49 
G01 X25.28 Y5.07 
G01 X24.72 Y4.83 
G01 X24.12 Y4.83 
G01 X23.78 Y4.98 
G01 X23.76 Y4.99 
G01 X23.74 Y4.99 
G01 X23.72 Y5.00 
G01 X23.70 Y5.00 
G01 X23.69 Y5.00 
G01 X23.68 Y5.01 
G01 X23.67 Y5.02 
G01 X23.65 Y5.03 
G01 X23.63 Y5.04 
G01 X23.61 Y5.05 
G01 X23.56 Y5.07 
G01 X23.14 Y5.49 
G01 X22.90 Y6.05 
G00 Z1.00 
G00 X49.94 Y16.09 
G01 Z-0.20 F60.00 
G01 X49.94 Y14.39 F80.00 
G01 X49.97 Y14.23 
G01 X50.03 Y14.08 
G01 X49.89 Y13.95 
G01 X49.90 Y13.95 
G01 X49.91 Y13.97 
G01 X49.92 Y13.99 
G01 X49.93 Y14.00 
G01 X49.94 Y14.02 
G01 X49.95 Y14.04 
G01 X49.96 Y14.06 
G01 X49.97 Y14.08 
G01 X49.97 Y14.10 
G01 X49.97 Y14.12 
G01 X49.97 Y14.14 
G01 X49.98 Y14.16 
G01 X49.97 Y14.18 
G01 X49.97 Y14.20 
G01 X49.97 Y14.21 
G01 X49.97 Y14.23 
G01 X49.96 Y14.25 
G01 X49.95 Y14.27 
G01 X49.94 Y14.29 
G01 X49.94 Y14.31 
G01 X49.94 Y16.17 
G01 X50.07 Y16.49 
G01 X50.31 Y16.73 
G01 X50.63 Y16.87 
G01 X50.97 Y16.87 
G01 X51.29 Y16.73 
G01 X51.53 Y16.49 
G01 X51.66 Y16.17 
G01 X51.66 Y14.31 
G01 X51.53 Y13.99 
G01 X51.29 Y13.75 
G01 X50.97 Y13.61 
G01 X50.78 Y13.61 
G01 X50.70 Y13.59 
G01 X50.63 Y13.55 
G01 X50.58 Y13.50 
G01 X49.75 Y12.67 
G01 X49.73 Y12.66 
G01 X49.72 Y12.64 
G01 X49.70 Y12.63 
G01 X49.69 Y12.62 
G01 X49.68 Y12.60 
G01 X49.67 Y12.58 
G01 X49.65 Y12.57 
G01 X49.65 Y12.55 
G01 X49.64 Y12.53 
G01 X49.63 Y12.51 
G01 X49.62 Y12.49 
G01 X49.62 Y12.47 
G01 X49.61 Y12.45 
G01 X49.61 Y12.43 
G01 X49.61 Y12.42 
G01 X49.61 Y12.62 
G01 X49.68 Y12.64 
G01 X49.78 Y12.70 
G01 X50.70 Y13.62 
G01 X50.72 Y13.62 
G01 X50.88 Y13.62 
G01 X51.05 Y13.65 
G01 X51.21 Y13.71 
G01 X51.35 Y13.81 
G01 X51.47 Y13.93 
G01 X51.56 Y14.07 
G01 X51.63 Y14.23 
G01 X51.66 Y14.39 
G01 X51.66 Y16.09 
G01 X51.63 Y16.25 
G01 X51.56 Y16.41 
G01 X51.47 Y16.55 
G01 X51.35 Y16.67 
G01 X51.21 Y16.77 
G01 X51.05 Y16.83 
G01 X50.88 Y16.86 
G01 X50.72 Y16.86 
G01 X50.55 Y16.83 
G01 X50.39 Y16.77 
G01 X50.25 Y16.67 
G01 X50.13 Y16.55 
G01 X50.04 Y16.41 
G01 X49.97 Y16.25 
G01 X49.94 Y16.09 
G00 Z1.00 
G00 X46.44 Y4.37 
G01 Z-0.20 F60.00 
G01 X46.44 Y1.83 F80.00 
G01 X46.45 Y1.79 
G01 X46.48 Y1.76 
G01 X46.52 Y1.75 
G01 X47.76 Y1.75 
G01 X47.80 Y1.76 
G01 X47.83 Y1.79 
G01 X47.84 Y1.83 
G01 X47.84 Y4.37 
G01 X47.83 Y4.41 
G01 X47.80 Y4.44 
G01 X47.76 Y4.45 
G01 X47.71 Y4.45 
G01 X47.71 Y13.07 
G01 X47.69 Y13.16 
G01 X47.71 Y13.10 
G01 X47.71 Y4.61 
G01 X47.73 Y4.53 
G01 X47.77 Y4.46 
G01 X47.83 Y4.41 
G01 X47.84 Y4.39 
G01 X47.84 Y1.81 
G01 X47.78 Y1.75 
G01 X46.50 Y1.75 
G01 X46.44 Y1.81 
G01 X46.44 Y4.39 
G01 X46.50 Y4.45 
G01 X46.64 Y4.45 
G01 X46.72 Y4.47 
G01 X46.79 Y4.51 
G01 X46.84 Y4.57 
G01 X46.88 Y4.64 
G01 X46.91 Y4.72 
G01 X46.91 Y12.39 
G01 X46.91 Y12.40 
G01 X46.91 Y4.45 
G01 X46.52 Y4.45 
G01 X46.48 Y4.44 
G01 X46.45 Y4.41 
G01 X46.44 Y4.37 
G00 Z1.00 
G00 X42.11 Y15.63 
G01 Z-0.20 F60.00 
G01 X42.13 Y15.63 F80.00 
G01 X42.15 Y15.64 
G01 X42.17 Y15.65 
G01 X42.18 Y15.66 
G01 X42.20 Y15.67 
G01 X42.21 Y15.69 
G01 X42.23 Y15.70 
G01 X42.24 Y15.71 
G01 X42.26 Y15.73 
G01 X42.27 Y15.75 
G01 X42.28 Y15.76 
G01 X42.29 Y15.78 
G01 X42.30 Y15.80 
G01 X42.30 Y15.82 
G01 X42.31 Y15.84 
G01 X42.31 Y15.86 
G01 X42.32 Y15.88 
G01 X42.32 Y15.90 
G01 X42.32 Y15.90 
G01 X42.32 Y15.64 
G01 X42.17 Y15.64 
G01 X42.09 Y15.62 
G01 X42.11 Y15.63 
G00 Z1.00 
G00 X41.89 Y15.47 
G01 Z-0.20 F60.00 
G01 X42.00 Y15.58 F80.00 
G01 X42.06 Y15.61 
G01 X41.98 Y15.56 
G01 X41.91 Y15.49 
G01 X41.86 Y15.41 
G01 X41.89 Y15.47 
G00 Z1.00 
G00 X41.34 Y10.87 
G01 Z-0.20 F60.00 
G01 X41.34 Y8.33 F80.00 
G01 X41.35 Y8.29 
G01 X41.38 Y8.26 
G01 X41.42 Y8.25 
G01 X42.66 Y8.25 
G01 X42.70 Y8.26 
G01 X42.73 Y8.29 
G01 X42.74 Y8.33 
G01 X42.74 Y10.87 
G01 X42.73 Y10.91 
G01 X42.70 Y10.94 
G01 X42.66 Y10.95 
G01 X42.63 Y10.95 
G01 X42.63 Y13.30 
G01 X42.63 Y13.30 
G01 X42.63 Y11.09 
G01 X42.65 Y11.01 
G01 X42.69 Y10.94 
G01 X42.74 Y10.89 
G01 X42.74 Y8.31 
G01 X42.68 Y8.25 
G01 X41.40 Y8.25 
G01 X41.34 Y8.31 
G01 X41.34 Y10.89 
G01 X41.40 Y10.95 
G01 X41.56 Y10.95 
G01 X41.64 Y10.97 
G01 X41.71 Y11.01 
G01 X41.76 Y11.07 
G01 X41.80 Y11.14 
G01 X41.83 Y11.22 
G01 X41.83 Y15.32 
G01 X41.85 Y15.38 
G01 X41.83 Y15.29 
G01 X41.83 Y10.95 
G01 X41.42 Y10.95 
G01 X41.38 Y10.94 
G01 X41.35 Y10.91 
G01 X41.34 Y10.87 
G00 Z1.00 
G00 X39.92 Y5.63 
G01 Z-0.20 F60.00 
G01 X39.92 Y17.54 F80.00 
G01 X39.94 Y17.60 
G01 X39.92 Y17.52 
G01 X39.92 Y5.66 
G01 X39.94 Y5.58 
G01 X39.92 Y5.63 
G00 Z1.00 
G00 X29.62 Y16.09 
G01 Z-0.20 F60.00 
G01 X29.62 Y14.39 F80.00 
G01 X29.65 Y14.23 
G01 X29.71 Y14.08 
G01 X29.57 Y13.95 
G01 X29.58 Y13.95 
G01 X29.59 Y13.97 
G01 X29.60 Y13.99 
G01 X29.61 Y14.00 
G01 X29.62 Y14.02 
G01 X29.63 Y14.04 
G01 X29.64 Y14.06 
G01 X29.65 Y14.08 
G01 X29.65 Y14.10 
G01 X29.65 Y14.12 
G01 X29.65 Y14.14 
G01 X29.66 Y14.16 
G01 X29.65 Y14.18 
G01 X29.65 Y14.20 
G01 X29.65 Y14.21 
G01 X29.65 Y14.23 
G01 X29.64 Y14.25 
G01 X29.63 Y14.27 
G01 X29.62 Y14.29 
G01 X29.62 Y14.31 
G01 X29.62 Y16.17 
G01 X29.75 Y16.49 
G01 X29.99 Y16.73 
G01 X30.31 Y16.87 
G01 X30.65 Y16.87 
G01 X30.97 Y16.73 
G01 X31.21 Y16.49 
G01 X31.34 Y16.17 
G01 X31.34 Y14.31 
G01 X31.21 Y13.99 
G01 X30.97 Y13.75 
G01 X30.65 Y13.61 
G01 X30.46 Y13.61 
G01 X30.38 Y13.59 
G01 X30.31 Y13.55 
G01 X30.26 Y13.50 
G01 X29.43 Y12.67 
G01 X29.41 Y12.66 
G01 X29.40 Y12.64 
G01 X29.38 Y12.63 
G01 X29.37 Y12.62 
G01 X29.36 Y12.60 
G01 X29.35 Y12.58 
G01 X29.33 Y12.57 
G01 X29.33 Y12.55 
G01 X29.32 Y12.53 
G01 X29.31 Y12.51 
G01 X29.30 Y12.49 
G01 X29.30 Y12.47 
G01 X29.29 Y12.45 
G01 X29.29 Y12.43 
G01 X29.29 Y12.42 
G01 X29.29 Y12.62 
G01 X29.36 Y12.64 
G01 X29.46 Y12.70 
G01 X30.38 Y13.62 
G01 X30.40 Y13.62 
G01 X30.56 Y13.62 
G01 X30.73 Y13.65 
G01 X30.89 Y13.71 
G01 X31.03 Y13.81 
G01 X31.15 Y13.93 
G01 X31.24 Y14.07 
G01 X31.31 Y14.23 
G01 X31.34 Y14.39 
G01 X31.34 Y16.09 
G01 X31.31 Y16.25 
G01 X31.24 Y16.41 
G01 X31.15 Y16.55 
G01 X31.03 Y16.67 
G01 X30.89 Y16.77 
G01 X30.73 Y16.83 
G01 X30.56 Y16.86 
G01 X30.40 Y16.86 
G01 X30.23 Y16.83 
G01 X30.07 Y16.77 
G01 X29.93 Y16.67 
G01 X29.81 Y16.55 
G01 X29.72 Y16.41 
G01 X29.65 Y16.25 
G01 X29.62 Y16.09 
G00 Z1.00 
G00 X49.45 Y4.39 
G01 Z-0.20 F60.00 
G01 X49.44 Y4.37 F80.00 
G01 X49.44 Y3.19 
G01 X49.44 Y3.20 
G01 X49.44 Y3.24 
G01 X49.44 Y4.46 
G01 X49.45 Y4.49 
G01 X49.45 Y5.46 
G01 X49.42 Y5.54 
G01 X49.38 Y5.61 
G01 X49.33 Y5.67 
G01 X49.00 Y5.99 
G01 X48.87 Y6.12 
G01 X48.85 Y6.18 
G01 X48.89 Y6.10 
G01 X48.97 Y6.03 
G01 X49.45 Y5.55 
G01 X49.45 Y4.39 
G00 Z1.00 
G00 X49.61 Y12.39 
G01 Z-0.20 F60.00 
G01 X49.61 Y6.72 F80.00 
G01 X49.61 Y6.71 
G01 X49.61 Y6.71 
G01 X49.61 Y6.64 
G01 X49.61 Y6.60 
G01 X49.63 Y6.56 
G01 X49.64 Y6.53 
G01 X49.66 Y6.49 
G01 X49.68 Y6.46 
G01 X49.71 Y6.43 
G01 X49.73 Y6.40 
G01 X49.77 Y6.38 
G01 X49.80 Y6.36 
G01 X49.84 Y6.35 
G01 X49.88 Y6.34 
G01 X49.92 Y6.34 
G01 X49.96 Y6.34 
G01 X50.00 Y6.35 
G01 X50.04 Y6.36 
G01 X50.07 Y6.38 
G01 X50.11 Y6.40 
G01 X50.14 Y6.43 
G01 X50.16 Y6.45 
G01 X50.18 Y6.49 
G01 X50.20 Y6.52 
G01 X50.21 Y6.56 
G01 X50.22 Y6.60 
G01 X50.22 Y6.64 
G01 X50.23 Y6.65 
G01 X50.46 Y7.21 
G01 X50.88 Y7.63 
G01 X51.44 Y7.86 
G01 X52.04 Y7.86 
G01 X52.60 Y7.63 
G01 X53.02 Y7.21 
G01 X53.25 Y6.65 
G01 X53.25 Y6.05 
G01 X53.02 Y5.49 
G01 X52.60 Y5.07 
G01 X52.04 Y4.83 
G01 X51.44 Y4.83 
G01 X51.10 Y4.98 
G01 X51.08 Y4.99 
G01 X51.06 Y4.99 
G01 X51.04 Y5.00 
G01 X51.02 Y5.00 
G01 X51.00 Y5.01 
G01 X50.98 Y5.01 
G01 X50.96 Y5.01 
G01 X50.94 Y5.01 
G01 X50.92 Y5.01 
G01 X50.90 Y5.00 
G01 X50.88 Y5.00 
G01 X50.86 Y4.99 
G01 X50.84 Y4.99 
G01 X50.83 Y4.98 
G01 X50.81 Y4.97 
G01 X50.79 Y4.96 
G01 X50.77 Y4.95 
G01 X50.76 Y4.93 
G01 X50.74 Y4.92 
G01 X50.73 Y4.90 
G01 X50.72 Y4.89 
G01 X50.71 Y4.87 
G01 X50.70 Y4.86 
G01 X50.69 Y4.84 
G01 X50.68 Y4.82 
G01 X50.67 Y4.80 
G01 X50.66 Y4.78 
G01 X50.66 Y4.76 
G01 X50.66 Y4.74 
G01 X50.66 Y4.72 
G01 X50.65 Y4.70 
G01 X50.66 Y4.68 
G01 X50.66 Y4.66 
G01 X50.66 Y4.64 
G01 X50.66 Y4.62 
G01 X50.67 Y4.61 
G01 X50.68 Y4.59 
G01 X50.69 Y4.57 
G01 X50.70 Y4.55 
G01 X50.71 Y4.53 
G01 X50.72 Y4.52 
G01 X50.73 Y4.50 
G01 X50.74 Y4.49 
G01 X50.76 Y4.47 
G01 X50.84 Y4.39 
G01 X50.84 Y1.81 
G01 X50.78 Y1.75 
G01 X49.50 Y1.75 
G01 X49.44 Y1.81 
G01 X49.44 Y3.16 
G01 X49.44 Y3.17 
G01 X49.44 Y1.83 
G01 X49.45 Y1.79 
G01 X49.48 Y1.76 
G01 X49.52 Y1.75 
G01 X50.76 Y1.75 
G01 X50.80 Y1.76 
G01 X50.83 Y1.79 
G01 X50.84 Y1.83 
G01 X50.84 Y4.37 
G01 X50.83 Y4.41 
G01 X50.80 Y4.44 
G01 X50.76 Y4.45 
G01 X50.25 Y4.45 
G01 X50.25 Y5.77 
G01 X50.22 Y5.87 
G01 X50.17 Y5.96 
G01 X49.61 Y6.52 
G01 X49.61 Y12.40 
G01 X49.61 Y12.39 
G00 Z1.00 
G00 X48.81 Y6.27 
G01 Z-0.20 F60.00 
G01 X48.81 Y13.10 F80.00 
G01 X48.83 Y13.16 
G01 X48.81 Y13.07 
G01 X48.81 Y6.30 
G01 X48.83 Y6.21 
G01 X48.81 Y6.27 
G00 Z1.00 
G00 X26.12 Y4.37 
G01 Z-0.20 F60.00 
G01 X26.12 Y1.83 F80.00 
G01 X26.13 Y1.79 
G01 X26.16 Y1.76 
G01 X26.20 Y1.75 
G01 X27.44 Y1.75 
G01 X27.48 Y1.76 
G01 X27.51 Y1.79 
G01 X27.52 Y1.83 
G01 X27.52 Y4.37 
G01 X27.51 Y4.41 
G01 X27.48 Y4.44 
G01 X27.44 Y4.45 
G01 X27.39 Y4.45 
G01 X27.39 Y13.07 
G01 X27.37 Y13.16 
G01 X27.39 Y13.10 
G01 X27.39 Y4.61 
G01 X27.41 Y4.53 
G01 X27.45 Y4.46 
G01 X27.51 Y4.41 
G01 X27.52 Y4.39 
G01 X27.52 Y1.81 
G01 X27.46 Y1.75 
G01 X26.18 Y1.75 
G01 X26.12 Y1.81 
G01 X26.12 Y4.39 
G01 X26.18 Y4.45 
G01 X26.32 Y4.45 
G01 X26.40 Y4.47 
G01 X26.47 Y4.51 
G01 X26.52 Y4.57 
G01 X26.56 Y4.64 
G01 X26.59 Y4.72 
G01 X26.59 Y12.39 
G01 X26.59 Y12.40 
G01 X26.59 Y4.45 
G01 X26.20 Y4.45 
G01 X26.16 Y4.44 
G01 X26.13 Y4.41 
G01 X26.12 Y4.37 
G00 Z1.00 
G00 X21.79 Y15.63 
G01 Z-0.20 F60.00 
G01 X21.81 Y15.63 F80.00 
G01 X21.83 Y15.64 
G01 X21.85 Y15.65 
G01 X21.86 Y15.66 
G01 X21.88 Y15.67 
G01 X21.89 Y15.69 
G01 X21.91 Y15.70 
G01 X21.92 Y15.71 
G01 X21.94 Y15.73 
G01 X21.95 Y15.75 
G01 X21.96 Y15.76 
G01 X21.97 Y15.78 
G01 X21.98 Y15.80 
G01 X21.98 Y15.82 
G01 X21.99 Y15.84 
G01 X21.99 Y15.86 
G01 X22.00 Y15.88 
G01 X22.00 Y15.90 
G01 X22.00 Y15.90 
G01 X22.00 Y15.64 
G01 X21.85 Y15.64 
G01 X21.77 Y15.62 
G01 X21.79 Y15.63 
G00 Z1.00 
G00 X21.57 Y15.47 
G01 Z-0.20 F60.00 
G01 X21.68 Y15.58 F80.00 
G01 X21.74 Y15.61 
G01 X21.66 Y15.56 
G01 X21.59 Y15.49 
G01 X21.54 Y15.41 
G01 X21.57 Y15.47 
G00 Z1.00 
G00 X21.02 Y10.87 
G01 Z-0.20 F60.00 
G01 X21.02 Y8.33 F80.00 
G01 X21.03 Y8.29 
G01 X21.06 Y8.26 
G01 X21.10 Y8.25 
G01 X22.34 Y8.25 
G01 X22.38 Y8.26 
G01 X22.41 Y8.29 
G01 X22.42 Y8.33 
G01 X22.42 Y10.87 
G01 X22.41 Y10.91 
G01 X22.38 Y10.94 
G01 X22.34 Y10.95 
G01 X22.31 Y10.95 
G01 X22.31 Y13.30 
G01 X22.31 Y13.30 
G01 X22.31 Y11.09 
G01 X22.33 Y11.01 
G01 X22.35 Y10.97 
G01 X22.37 Y10.94 
G01 X22.42 Y10.89 
G01 X22.42 Y8.31 
G01 X22.36 Y8.25 
G01 X21.08 Y8.25 
G01 X21.02 Y8.31 
G01 X21.02 Y10.89 
G01 X21.08 Y10.95 
G01 X21.24 Y10.95 
G01 X21.32 Y10.97 
G01 X21.39 Y11.01 
G01 X21.44 Y11.07 
G01 X21.48 Y11.14 
G01 X21.51 Y11.22 
G01 X21.51 Y15.32 
G01 X21.53 Y15.38 
G01 X21.51 Y15.29 
G01 X21.51 Y10.95 
G01 X21.10 Y10.95 
G01 X21.06 Y10.94 
G01 X21.03 Y10.91 
G01 X21.02 Y10.87 
G00 Z1.00 
G00 X19.60 Y5.63 
G01 Z-0.20 F60.00 
G01 X19.60 Y17.54 F80.00 
G01 X19.62 Y17.60 
G01 X19.60 Y17.52 
G01 X19.60 Y5.66 
G01 X19.62 Y5.58 
G01 X19.60 Y5.63 
G00 Z1.00 
G00 X10.02 Y4.37 
G01 Z-0.20 F60.00 
G01 X10.03 Y4.41 F80.00 
G01 X10.05 Y4.44 
G01 X10.08 Y4.47 
G01 X10.11 Y4.49 
G01 X10.15 Y4.50 
G01 X10.37 Y4.50 
G01 X10.37 Y4.45 
G01 X10.15 Y4.45 
G01 X10.11 Y4.44 
G01 X10.08 Y4.41 
G01 X10.07 Y4.37 
G01 X10.07 Y3.50 
G01 X10.02 Y3.50 
G01 X10.02 Y4.37 
G00 Z1.00 
G00 X11.47 Y4.37 
G01 Z-0.20 F60.00 
G01 X11.46 Y4.41 F80.00 
G01 X11.43 Y4.44 
G01 X11.39 Y4.45 
G01 X11.17 Y4.45 
G01 X11.17 Y4.50 
G01 X11.32 Y4.50 
G01 X11.34 Y4.50 
G01 X11.36 Y4.50 
G01 X11.38 Y4.50 
G01 X11.40 Y4.51 
G01 X11.42 Y4.51 
G01 X11.44 Y4.52 
G01 X11.45 Y4.50 
G01 X11.46 Y4.48 
G01 X11.47 Y4.47 
G01 X11.48 Y4.45 
G01 X11.50 Y4.44 
G01 X11.51 Y4.41 
G01 X11.52 Y4.37 
G01 X11.52 Y3.50 
G01 X11.47 Y3.50 
G01 X11.47 Y4.37 
G00 Z1.00 
G00 X10.85 Y6.05 
G01 Z-0.20 F60.00 
G01 X10.85 Y6.65 F80.00 
G01 X11.09 Y7.21 
G01 X11.51 Y7.63 
G01 X12.07 Y7.86 
G01 X12.67 Y7.86 
G01 X13.23 Y7.63 
G01 X13.65 Y7.21 
G01 X13.88 Y6.65 
G01 X13.88 Y6.05 
G01 X13.65 Y5.49 
G01 X13.23 Y5.07 
G01 X12.67 Y4.83 
G01 X12.07 Y4.83 
G01 X11.85 Y4.93 
G01 X11.83 Y4.94 
G01 X11.81 Y4.94 
G01 X11.79 Y4.95 
G01 X11.77 Y4.95 
G01 X11.75 Y4.96 
G01 X11.73 Y4.96 
G01 X11.71 Y4.96 
G01 X11.69 Y4.96 
G01 X11.67 Y4.96 
G01 X11.65 Y4.95 
G01 X11.63 Y4.95 
G01 X11.62 Y4.94 
G01 X11.61 Y4.96 
G01 X11.59 Y4.98 
G01 X11.58 Y4.99 
G01 X11.57 Y5.01 
G01 X11.56 Y5.02 
G01 X11.54 Y5.04 
G01 X11.53 Y5.05 
G01 X11.09 Y5.49 
G01 X10.85 Y6.05 
G00 Z1.00 
G00 X11.47 Y1.83 
G01 Z-0.20 F60.00 
G01 X11.47 Y2.70 F80.00 
G01 X11.52 Y2.70 
G01 X11.52 Y1.83 
G01 X11.51 Y1.79 
G01 X11.49 Y1.76 
G01 X11.46 Y1.73 
G01 X11.43 Y1.71 
G01 X11.39 Y1.70 
G01 X11.17 Y1.70 
G01 X11.17 Y1.75 
G01 X11.39 Y1.75 
G01 X11.43 Y1.76 
G01 X11.46 Y1.79 
G01 X11.47 Y1.83 
G00 Z1.00 
G00 X10.15 Y1.70 
G01 Z-0.20 F60.00 
G01 X10.11 Y1.71 F80.00 
G01 X10.08 Y1.73 
G01 X10.05 Y1.76 
G01 X10.03 Y1.79 
G01 X10.02 Y1.83 
G01 X10.02 Y2.70 
G01 X10.07 Y2.70 
G01 X10.07 Y1.83 
G01 X10.08 Y1.79 
G01 X10.11 Y1.76 
G01 X10.15 Y1.75 
G01 X10.37 Y1.75 
G01 X10.37 Y1.70 
G01 X10.15 Y1.70 
G00 Z1.00 
G00 X29.13 Y4.39 
G01 Z-0.20 F60.00 
G01 X29.12 Y4.37 F80.00 
G01 X29.12 Y3.19 
G01 X29.12 Y3.20 
G01 X29.12 Y3.24 
G01 X29.12 Y4.46 
G01 X29.13 Y4.49 
G01 X29.13 Y5.46 
G01 X29.10 Y5.54 
G01 X29.06 Y5.61 
G01 X29.01 Y5.67 
G01 X28.68 Y5.99 
G01 X28.55 Y6.12 
G01 X28.53 Y6.18 
G01 X28.57 Y6.10 
G01 X28.65 Y6.03 
G01 X29.13 Y5.55 
G01 X29.13 Y4.39 
G00 Z1.00 
G00 X29.29 Y12.39 
G01 Z-0.20 F60.00 
G01 X29.29 Y6.72 F80.00 
G01 X29.29 Y6.71 
G01 X29.29 Y6.71 
G01 X29.29 Y6.64 
G01 X29.29 Y6.60 
G01 X29.31 Y6.56 
G01 X29.32 Y6.53 
G01 X29.34 Y6.49 
G01 X29.36 Y6.46 
G01 X29.39 Y6.43 
G01 X29.41 Y6.40 
G01 X29.45 Y6.38 
G01 X29.48 Y6.36 
G01 X29.52 Y6.35 
G01 X29.56 Y6.34 
G01 X29.60 Y6.34 
G01 X29.64 Y6.34 
G01 X29.68 Y6.35 
G01 X29.72 Y6.36 
G01 X29.75 Y6.38 
G01 X29.79 Y6.40 
G01 X29.82 Y6.43 
G01 X29.84 Y6.45 
G01 X29.86 Y6.49 
G01 X29.88 Y6.52 
G01 X29.89 Y6.56 
G01 X29.90 Y6.60 
G01 X29.90 Y6.64 
G01 X29.91 Y6.65 
G01 X30.14 Y7.21 
G01 X30.56 Y7.63 
G01 X31.12 Y7.86 
G01 X31.72 Y7.86 
G01 X32.28 Y7.63 
G01 X32.70 Y7.21 
G01 X32.93 Y6.65 
G01 X32.93 Y6.05 
G01 X32.70 Y5.49 
G01 X32.28 Y5.07 
G01 X31.72 Y4.83 
G01 X31.12 Y4.83 
G01 X30.78 Y4.98 
G01 X30.76 Y4.99 
G01 X30.74 Y4.99 
G01 X30.72 Y5.00 
G01 X30.70 Y5.00 
G01 X30.68 Y5.01 
G01 X30.66 Y5.01 
G01 X30.64 Y5.01 
G01 X30.62 Y5.01 
G01 X30.60 Y5.01 
G01 X30.58 Y5.00 
G01 X30.56 Y5.00 
G01 X30.54 Y4.99 
G01 X30.52 Y4.99 
G01 X30.51 Y4.98 
G01 X30.49 Y4.97 
G01 X30.47 Y4.96 
G01 X30.45 Y4.95 
G01 X30.44 Y4.93 
G01 X30.42 Y4.92 
G01 X30.41 Y4.90 
G01 X30.40 Y4.89 
G01 X30.39 Y4.87 
G01 X30.38 Y4.86 
G01 X30.37 Y4.84 
G01 X30.36 Y4.82 
G01 X30.35 Y4.80 
G01 X30.34 Y4.78 
G01 X30.34 Y4.76 
G01 X30.34 Y4.74 
G01 X30.34 Y4.72 
G01 X30.33 Y4.70 
G01 X30.34 Y4.68 
G01 X30.34 Y4.66 
G01 X30.34 Y4.64 
G01 X30.34 Y4.62 
G01 X30.35 Y4.61 
G01 X30.36 Y4.59 
G01 X30.37 Y4.57 
G01 X30.38 Y4.55 
G01 X30.39 Y4.53 
G01 X30.40 Y4.52 
G01 X30.41 Y4.50 
G01 X30.42 Y4.49 
G01 X30.44 Y4.47 
G01 X30.52 Y4.39 
G01 X30.52 Y1.81 
G01 X30.46 Y1.75 
G01 X29.18 Y1.75 
G01 X29.12 Y1.81 
G01 X29.12 Y3.16 
G01 X29.12 Y3.17 
G01 X29.12 Y1.83 
G01 X29.13 Y1.79 
G01 X29.16 Y1.76 
G01 X29.20 Y1.75 
G01 X30.44 Y1.75 
G01 X30.48 Y1.76 
G01 X30.51 Y1.79 
G01 X30.52 Y1.83 
G01 X30.52 Y4.37 
G01 X30.51 Y4.41 
G01 X30.48 Y4.44 
G01 X30.44 Y4.45 
G01 X29.93 Y4.45 
G01 X29.93 Y5.77 
G01 X29.90 Y5.87 
G01 X29.85 Y5.96 
G01 X29.29 Y6.52 
G01 X29.29 Y12.40 
G01 X29.29 Y12.39 
G00 Z1.00 
G00 X28.49 Y6.27 
G01 Z-0.20 F60.00 
G01 X28.49 Y13.10 F80.00 
G01 X28.51 Y13.16 
G01 X28.49 Y13.07 
G01 X28.49 Y6.30 
G01 X28.51 Y6.21 
G01 X28.49 Y6.27 
G00 Z1.00 
G00 X7.07 Y4.37 
G01 Z-0.20 F60.00 
G01 X7.07 Y1.83 F80.00 
G01 X7.08 Y1.79 
G01 X7.11 Y1.76 
G01 X7.15 Y1.75 
G01 X8.39 Y1.75 
G01 X8.43 Y1.76 
G01 X8.46 Y1.79 
G01 X8.47 Y1.83 
G01 X8.47 Y4.37 
G01 X8.46 Y4.41 
G01 X8.43 Y4.44 
G01 X8.39 Y4.45 
G01 X8.34 Y4.45 
G01 X8.34 Y13.07 
G01 X8.32 Y13.16 
G01 X8.34 Y13.10 
G01 X8.34 Y4.61 
G01 X8.36 Y4.53 
G01 X8.38 Y4.49 
G01 X8.40 Y4.46 
G01 X8.46 Y4.41 
G01 X8.47 Y4.39 
G01 X8.47 Y1.81 
G01 X8.41 Y1.75 
G01 X7.13 Y1.75 
G01 X7.07 Y1.81 
G01 X7.07 Y4.39 
G01 X7.13 Y4.45 
G01 X7.27 Y4.45 
G01 X7.35 Y4.47 
G01 X7.42 Y4.51 
G01 X7.47 Y4.57 
G01 X7.51 Y4.64 
G01 X7.54 Y4.72 
G01 X7.54 Y12.39 
G01 X7.54 Y12.40 
G01 X7.54 Y4.45 
G01 X7.15 Y4.45 
G01 X7.11 Y4.44 
G01 X7.08 Y4.41 
G01 X7.07 Y4.37 
G00 Z1.00 
G00 X3.07 Y4.37 
G01 Z-0.20 F60.00 
G01 X3.07 Y4.17 F80.00 
G01 X2.31 Y4.93 
G01 X2.31 Y6.27 
G01 X2.38 Y6.29 
G01 X2.47 Y6.35 
G01 X3.34 Y7.22 
G01 X3.55 Y7.22 
G01 X3.65 Y7.25 
G01 X3.74 Y7.30 
G01 X5.33 Y8.89 
G01 X5.40 Y8.96 
G01 X5.45 Y9.04 
G01 X5.42 Y8.98 
G01 X5.29 Y8.84 
G01 X4.85 Y8.41 
G01 X4.80 Y8.36 
G01 X4.80 Y8.36 
G01 X4.76 Y8.29 
G01 X4.74 Y8.21 
G01 X4.74 Y8.13 
G01 X4.76 Y8.05 
G01 X4.80 Y7.98 
G01 X4.85 Y7.93 
G01 X4.92 Y7.89 
G01 X5.00 Y7.86 
G01 X5.67 Y7.86 
G01 X6.23 Y7.63 
G01 X6.65 Y7.21 
G01 X6.88 Y6.65 
G01 X6.88 Y6.05 
G01 X6.65 Y5.49 
G01 X6.23 Y5.07 
G01 X5.67 Y4.83 
G01 X5.07 Y4.83 
G01 X4.73 Y4.98 
G01 X4.71 Y4.99 
G01 X4.69 Y4.99 
G01 X4.67 Y5.00 
G01 X4.65 Y5.00 
G01 X4.63 Y5.01 
G01 X4.61 Y5.01 
G01 X4.59 Y5.01 
G01 X4.57 Y5.01 
G01 X4.55 Y5.01 
G01 X4.53 Y5.00 
G01 X4.51 Y5.00 
G01 X4.49 Y4.99 
G01 X4.47 Y4.99 
G01 X4.46 Y4.98 
G01 X4.44 Y4.97 
G01 X4.42 Y4.96 
G01 X4.40 Y4.95 
G01 X4.39 Y4.93 
G01 X4.37 Y4.92 
G01 X4.36 Y4.90 
G01 X4.35 Y4.89 
G01 X4.34 Y4.87 
G01 X4.33 Y4.86 
G01 X4.32 Y4.84 
G01 X4.31 Y4.82 
G01 X4.30 Y4.80 
G01 X4.29 Y4.78 
G01 X4.29 Y4.76 
G01 X4.29 Y4.74 
G01 X4.29 Y4.72 
G01 X4.28 Y4.70 
G01 X4.29 Y4.68 
G01 X4.29 Y4.66 
G01 X4.29 Y4.64 
G01 X4.29 Y4.62 
G01 X4.30 Y4.61 
G01 X4.31 Y4.59 
G01 X4.32 Y4.57 
G01 X4.33 Y4.55 
G01 X4.34 Y4.53 
G01 X4.35 Y4.52 
G01 X4.36 Y4.50 
G01 X4.37 Y4.49 
G01 X4.39 Y4.47 
G01 X4.47 Y4.39 
G01 X4.47 Y1.81 
G01 X4.41 Y1.75 
G01 X3.13 Y1.75 
G01 X3.07 Y1.81 
G01 X3.07 Y2.94 
G01 X3.05 Y3.02 
G01 X3.01 Y3.09 
G01 X2.95 Y3.15 
G01 X1.69 Y4.41 
G01 X1.56 Y4.53 
G01 X1.54 Y4.59 
G01 X1.58 Y4.52 
G01 X1.66 Y4.44 
G01 X3.07 Y3.03 
G01 X3.07 Y1.83 
G01 X3.08 Y1.79 
G01 X3.11 Y1.76 
G01 X3.15 Y1.75 
G01 X4.39 Y1.75 
G01 X4.43 Y1.76 
G01 X4.46 Y1.79 
G01 X4.47 Y1.83 
G01 X4.47 Y4.37 
G01 X4.46 Y4.41 
G01 X4.43 Y4.44 
G01 X4.39 Y4.45 
G01 X3.15 Y4.45 
G01 X3.11 Y4.44 
G01 X3.08 Y4.41 
G01 X3.07 Y4.37 
G00 Z1.00 
G00 X5.48 Y13.43 
G01 Z-0.20 F60.00 
G01 X5.48 Y9.13 F80.00 
G01 X5.46 Y9.07 
G01 X5.48 Y9.15 
G01 X5.48 Y13.44 
G01 X5.48 Y13.43 
G00 Z1.00 
G00 X1.97 Y10.87 
G01 Z-0.20 F60.00 
G01 X1.97 Y8.33 F80.00 
G01 X1.98 Y8.29 
G01 X2.01 Y8.26 
G01 X2.05 Y8.25 
G01 X3.29 Y8.25 
G01 X3.33 Y8.26 
G01 X3.36 Y8.29 
G01 X3.37 Y8.33 
G01 X3.37 Y10.87 
G01 X3.36 Y10.91 
G01 X3.33 Y10.94 
G01 X3.29 Y10.95 
G01 X3.26 Y10.95 
G01 X3.26 Y13.81 
G01 X3.40 Y13.71 
G01 X3.56 Y13.65 
G01 X3.73 Y13.62 
G01 X3.89 Y13.62 
G01 X4.06 Y13.65 
G01 X4.22 Y13.71 
G01 X4.36 Y13.81 
G01 X4.48 Y13.93 
G01 X4.57 Y14.07 
G01 X4.64 Y14.23 
G01 X4.67 Y14.39 
G01 X4.67 Y16.09 
G01 X4.64 Y16.25 
G01 X4.57 Y16.41 
G01 X4.48 Y16.55 
G01 X4.36 Y16.67 
G01 X4.22 Y16.77 
G01 X4.06 Y16.83 
G01 X3.89 Y16.86 
G01 X3.73 Y16.86 
G01 X3.56 Y16.83 
G01 X3.40 Y16.77 
G01 X3.26 Y16.67 
G01 X3.14 Y16.55 
G01 X3.05 Y16.41 
G01 X2.98 Y16.25 
G01 X2.95 Y16.09 
G01 X2.95 Y15.64 
G01 X2.80 Y15.64 
G01 X2.70 Y15.61 
G01 X2.61 Y15.56 
G01 X2.54 Y15.49 
G01 X2.48 Y15.39 
G01 X2.46 Y15.29 
G01 X2.46 Y10.95 
G01 X2.05 Y10.95 
G01 X2.01 Y10.94 
G01 X1.98 Y10.91 
G01 X1.97 Y10.87 
G00 Z1.00 
G00 X46.91 Y12.43 
G01 Z-0.20 F60.00 
G01 X46.91 Y12.45 F80.00 
G01 X46.90 Y12.47 
G01 X46.90 Y12.49 
G01 X46.89 Y12.51 
G01 X46.88 Y12.53 
G01 X46.87 Y12.55 
G01 X46.87 Y12.57 
G01 X46.85 Y12.58 
G01 X46.84 Y12.60 
G01 X46.83 Y12.62 
G01 X46.82 Y12.63 
G01 X46.80 Y12.64 
G01 X46.79 Y12.66 
G01 X46.77 Y12.67 
G01 X45.89 Y13.55 
G01 X45.82 Y13.59 
G01 X45.74 Y13.61 
G01 X45.55 Y13.61 
G01 X45.23 Y13.75 
G01 X44.99 Y13.99 
G01 X44.86 Y14.31 
G01 X44.86 Y16.17 
G01 X44.99 Y16.49 
G01 X45.01 Y16.51 
G01 X45.06 Y16.57 
G01 X45.08 Y16.59 
G01 X45.11 Y16.64 
G01 X45.13 Y16.72 
G01 X45.13 Y16.80 
G01 X45.12 Y16.82 
G01 X45.11 Y16.87 
G01 X45.10 Y16.89 
G01 X45.07 Y16.94 
G01 X45.01 Y17.00 
G01 X44.99 Y17.01 
G01 X44.94 Y17.04 
G01 X44.86 Y17.06 
G01 X44.04 Y17.06 
G01 X43.96 Y17.04 
G01 X43.91 Y17.01 
G01 X43.89 Y17.00 
G01 X43.83 Y16.94 
G01 X43.81 Y16.89 
G01 X43.79 Y16.87 
G01 X43.78 Y16.83 
G01 X43.77 Y16.80 
G01 X43.77 Y16.72 
G01 X43.79 Y16.64 
G01 X43.82 Y16.59 
G01 X43.83 Y16.57 
G01 X43.89 Y16.51 
G01 X43.91 Y16.49 
G01 X44.04 Y16.17 
G01 X44.04 Y14.31 
G01 X43.91 Y13.99 
G01 X43.67 Y13.75 
G01 X43.35 Y13.61 
G01 X43.00 Y13.61 
G01 X42.99 Y13.61 
G01 X42.97 Y13.62 
G01 X42.95 Y13.62 
G01 X42.93 Y13.62 
G01 X42.91 Y13.62 
G01 X42.89 Y13.62 
G01 X42.87 Y13.61 
G01 X42.85 Y13.61 
G01 X42.84 Y13.60 
G01 X42.82 Y13.60 
G01 X42.80 Y13.59 
G01 X42.78 Y13.58 
G01 X42.76 Y13.57 
G01 X42.75 Y13.56 
G01 X42.73 Y13.54 
G01 X42.72 Y13.53 
G01 X42.70 Y13.52 
G01 X42.69 Y13.50 
G01 X42.68 Y13.48 
G01 X42.67 Y13.47 
G01 X42.66 Y13.45 
G01 X42.65 Y13.43 
G01 X42.65 Y13.41 
G01 X42.64 Y13.39 
G01 X42.63 Y13.37 
G01 X42.63 Y13.36 
G01 X42.63 Y13.34 
G01 X42.63 Y13.33 
G01 X42.63 Y13.81 
G01 X42.77 Y13.71 
G01 X42.93 Y13.65 
G01 X43.09 Y13.62 
G01 X43.26 Y13.62 
G01 X43.43 Y13.65 
G01 X43.59 Y13.71 
G01 X43.73 Y13.81 
G01 X43.85 Y13.93 
G01 X43.94 Y14.07 
G01 X44.01 Y14.23 
G01 X44.04 Y14.39 
G01 X44.04 Y16.09 
G01 X44.01 Y16.25 
G01 X43.94 Y16.41 
G01 X43.85 Y16.55 
G01 X43.73 Y16.67 
G01 X43.59 Y16.77 
G01 X43.43 Y16.83 
G01 X43.26 Y16.86 
G01 X43.09 Y16.86 
G01 X42.93 Y16.83 
G01 X42.77 Y16.77 
G01 X42.63 Y16.67 
G01 X42.51 Y16.55 
G01 X42.42 Y16.41 
G01 X42.35 Y16.25 
G01 X42.32 Y16.09 
G01 X42.32 Y15.93 
G01 X42.32 Y15.94 
G01 X42.32 Y16.17 
G01 X42.45 Y16.49 
G01 X42.47 Y16.51 
G01 X42.52 Y16.57 
G01 X42.54 Y16.59 
G01 X42.57 Y16.64 
G01 X42.59 Y16.72 
G01 X42.59 Y16.80 
G01 X42.58 Y16.82 
G01 X42.57 Y16.87 
G01 X42.56 Y16.89 
G01 X42.53 Y16.94 
G01 X42.47 Y17.00 
G01 X42.45 Y17.01 
G01 X42.40 Y17.04 
G01 X42.32 Y17.06 
G01 X40.99 Y17.06 
G01 X40.91 Y17.04 
G01 X40.84 Y17.00 
G01 X40.79 Y16.94 
G01 X40.75 Y16.87 
G01 X40.72 Y16.80 
G01 X40.72 Y5.97 
G01 X40.75 Y5.89 
G01 X40.79 Y5.82 
G01 X40.81 Y5.80 
G01 X42.08 Y4.52 
G01 X42.12 Y4.49 
G01 X42.14 Y4.47 
G01 X42.21 Y4.43 
G01 X42.29 Y4.41 
G01 X42.37 Y4.41 
G01 X42.44 Y4.43 
G01 X42.49 Y4.45 
G01 X43.78 Y4.45 
G01 X43.84 Y4.39 
G01 X43.84 Y1.81 
G01 X43.78 Y1.75 
G01 X42.50 Y1.75 
G01 X42.44 Y1.81 
G01 X42.44 Y2.94 
G01 X42.42 Y3.02 
G01 X42.42 Y3.02 
G01 X42.38 Y3.09 
G01 X42.32 Y3.15 
G01 X40.11 Y5.36 
G01 X39.98 Y5.49 
G01 X39.96 Y5.55 
G01 X40.00 Y5.47 
G01 X40.08 Y5.39 
G01 X42.44 Y3.03 
G01 X42.44 Y1.83 
G01 X42.45 Y1.79 
G01 X42.48 Y1.76 
G01 X42.52 Y1.75 
G01 X43.76 Y1.75 
G01 X43.80 Y1.76 
G01 X43.83 Y1.79 
G01 X43.84 Y1.83 
G01 X43.84 Y4.37 
G01 X43.83 Y4.41 
G01 X43.80 Y4.44 
G01 X43.76 Y4.45 
G01 X42.52 Y4.45 
G01 X42.48 Y4.44 
G01 X42.45 Y4.41 
G01 X42.44 Y4.37 
G01 X42.44 Y4.17 
G01 X40.72 Y5.88 
G01 X40.72 Y17.06 
G01 X46.82 Y17.06 
G01 X47.49 Y16.40 
G01 X47.43 Y16.25 
G01 X47.40 Y16.09 
G01 X47.40 Y14.39 
G01 X47.43 Y14.23 
G01 X47.50 Y14.07 
G01 X47.59 Y13.93 
G01 X47.71 Y13.81 
G01 X47.85 Y13.71 
G01 X48.01 Y13.65 
G01 X48.18 Y13.62 
G01 X48.34 Y13.62 
G01 X48.51 Y13.65 
G01 X48.67 Y13.71 
G01 X48.81 Y13.81 
G01 X48.93 Y13.93 
G01 X49.02 Y14.07 
G01 X49.09 Y14.23 
G01 X49.12 Y14.39 
G01 X49.12 Y16.09 
G01 X49.09 Y16.25 
G01 X49.02 Y16.41 
G01 X48.93 Y16.55 
G01 X48.81 Y16.67 
G01 X48.67 Y16.77 
G01 X48.51 Y16.83 
G01 X48.34 Y16.86 
G01 X48.18 Y16.86 
G01 X48.16 Y16.86 
G01 X47.24 Y17.78 
G01 X47.14 Y17.84 
G01 X47.04 Y17.86 
G01 X40.27 Y17.86 
G01 X40.17 Y17.84 
G01 X40.08 Y17.78 
G01 X40.00 Y17.71 
G01 X39.96 Y17.63 
G01 X39.98 Y17.70 
G01 X39.99 Y17.71 
G01 X40.00 Y17.73 
G01 X40.01 Y17.75 
G01 X40.01 Y17.77 
G01 X40.01 Y17.79 
G01 X40.01 Y17.81 
G01 X40.02 Y17.83 
G01 X40.01 Y17.85 
G01 X40.01 Y17.87 
G01 X40.01 Y17.89 
G01 X40.01 Y17.91 
G01 X40.00 Y17.93 
G01 X39.99 Y17.95 
G01 X39.98 Y17.97 
G01 X39.98 Y17.98 
G01 X39.96 Y18.00 
G01 X39.95 Y18.02 
G01 X39.94 Y18.03 
G01 X39.93 Y18.05 
G01 X39.91 Y18.06 
G01 X39.90 Y18.07 
G01 X39.88 Y18.08 
G01 X39.86 Y18.10 
G01 X39.85 Y18.10 
G01 X39.83 Y18.11 
G01 X39.81 Y18.12 
G01 X39.79 Y18.13 
G01 X39.77 Y18.13 
G01 X39.75 Y18.13 
G01 X39.73 Y18.13 
G01 X39.71 Y18.14 
G01 X39.69 Y18.13 
G01 X27.26 Y18.13 
G01 X27.18 Y18.11 
G01 X27.11 Y18.07 
G01 X27.06 Y18.02 
G01 X27.02 Y17.95 
G01 X27.00 Y17.87 
G01 X27.00 Y17.79 
G01 X27.02 Y17.71 
G01 X27.06 Y17.64 
G01 X27.11 Y17.59 
G01 X27.77 Y16.93 
G01 X27.84 Y16.89 
G01 X27.92 Y16.87 
G01 X28.11 Y16.87 
G01 X28.43 Y16.73 
G01 X28.67 Y16.49 
G01 X28.80 Y16.17 
G01 X28.80 Y14.31 
G01 X28.67 Y13.99 
G01 X28.65 Y13.97 
G01 X28.60 Y13.91 
G01 X28.58 Y13.89 
G01 X28.55 Y13.84 
G01 X28.53 Y13.76 
G01 X28.53 Y13.68 
G01 X28.54 Y13.66 
G01 X28.55 Y13.61 
G01 X28.56 Y13.59 
G01 X28.59 Y13.54 
G01 X28.65 Y13.48 
G01 X28.67 Y13.47 
G01 X28.72 Y13.44 
G01 X28.80 Y13.42 
G01 X28.96 Y13.42 
G01 X29.03 Y13.44 
G01 X29.10 Y13.48 
G01 X29.11 Y13.49 
G01 X29.55 Y13.93 
G01 X29.56 Y13.93 
G01 X29.04 Y13.42 
G01 X28.84 Y13.42 
G01 X28.74 Y13.39 
G01 X28.65 Y13.34 
G01 X28.57 Y13.26 
G01 X28.53 Y13.19 
G01 X28.53 Y13.19 
G01 X28.55 Y13.25 
G01 X28.56 Y13.27 
G01 X28.57 Y13.32 
G01 X28.57 Y13.35 
G01 X28.57 Y13.38 
G01 X28.56 Y13.43 
G01 X28.55 Y13.44 
G01 X28.53 Y13.50 
G01 X28.51 Y13.53 
G01 X28.48 Y13.56 
G01 X28.44 Y13.59 
G01 X28.42 Y13.61 
G01 X28.36 Y13.64 
G01 X28.34 Y13.64 
G01 X28.30 Y13.65 
G01 X28.26 Y13.65 
G01 X28.23 Y13.65 
G01 X28.19 Y13.64 
G01 X28.17 Y13.64 
G01 X28.11 Y13.61 
G01 X27.77 Y13.61 
G01 X27.71 Y13.64 
G01 X27.69 Y13.64 
G01 X27.65 Y13.65 
G01 X27.62 Y13.65 
G01 X27.58 Y13.65 
G01 X27.54 Y13.64 
G01 X27.52 Y13.64 
G01 X27.46 Y13.61 
G01 X27.44 Y13.60 
G01 X27.40 Y13.56 
G01 X27.37 Y13.53 
G01 X27.35 Y13.50 
G01 X27.33 Y13.45 
G01 X27.32 Y13.43 
G01 X27.31 Y13.38 
G01 X27.31 Y13.35 
G01 X27.31 Y13.32 
G01 X27.32 Y13.27 
G01 X27.33 Y13.25 
G01 X27.35 Y13.19 
G01 X27.35 Y13.19 
G01 X27.31 Y13.26 
G01 X27.23 Y13.34 
G01 X27.14 Y13.39 
G01 X27.04 Y13.42 
G01 X26.84 Y13.42 
G01 X26.17 Y14.08 
G01 X26.23 Y14.23 
G01 X26.26 Y14.39 
G01 X26.26 Y16.09 
G01 X26.23 Y16.25 
G01 X26.16 Y16.41 
G01 X26.07 Y16.55 
G01 X25.95 Y16.67 
G01 X25.81 Y16.77 
G01 X25.65 Y16.83 
G01 X25.48 Y16.86 
G01 X25.32 Y16.86 
G01 X25.15 Y16.83 
G01 X24.99 Y16.77 
G01 X24.85 Y16.67 
G01 X24.73 Y16.55 
G01 X24.64 Y16.41 
G01 X24.57 Y16.25 
G01 X24.54 Y16.09 
G01 X24.54 Y14.39 
G01 X24.57 Y14.23 
G01 X24.64 Y14.07 
G01 X24.73 Y13.93 
G01 X24.85 Y13.81 
G01 X24.99 Y13.71 
G01 X25.15 Y13.65 
G01 X25.32 Y13.62 
G01 X25.48 Y13.62 
G01 X25.50 Y13.62 
G01 X26.35 Y12.77 
G01 X26.42 Y12.70 
G01 X26.52 Y12.64 
G01 X26.59 Y12.62 
G01 X26.59 Y12.42 
G01 X26.59 Y12.43 
G01 X26.59 Y12.45 
G01 X26.58 Y12.47 
G01 X26.58 Y12.49 
G01 X26.57 Y12.51 
G01 X26.56 Y12.53 
G01 X26.55 Y12.55 
G01 X26.55 Y12.57 
G01 X26.53 Y12.58 
G01 X26.52 Y12.60 
G01 X26.51 Y12.62 
G01 X26.50 Y12.63 
G01 X26.48 Y12.64 
G01 X26.47 Y12.66 
G01 X26.45 Y12.67 
G01 X25.62 Y13.50 
G01 X25.58 Y13.54 
G01 X25.57 Y13.55 
G01 X25.50 Y13.59 
G01 X25.42 Y13.61 
G01 X25.23 Y13.61 
G01 X24.91 Y13.75 
G01 X24.67 Y13.99 
G01 X24.54 Y14.31 
G01 X24.54 Y16.17 
G01 X24.67 Y16.49 
G01 X24.69 Y16.51 
G01 X24.74 Y16.57 
G01 X24.76 Y16.59 
G01 X24.79 Y16.64 
G01 X24.81 Y16.72 
G01 X24.81 Y16.80 
G01 X24.80 Y16.82 
G01 X24.79 Y16.87 
G01 X24.78 Y16.89 
G01 X24.75 Y16.94 
G01 X24.69 Y17.00 
G01 X24.67 Y17.01 
G01 X24.62 Y17.04 
G01 X24.54 Y17.06 
G01 X23.72 Y17.06 
G01 X23.64 Y17.04 
G01 X23.59 Y17.01 
G01 X23.57 Y17.00 
G01 X23.51 Y16.94 
G01 X23.49 Y16.89 
G01 X23.47 Y16.87 
G01 X23.46 Y16.83 
G01 X23.45 Y16.80 
G01 X23.45 Y16.72 
G01 X23.47 Y16.64 
G01 X23.50 Y16.59 
G01 X23.51 Y16.57 
G01 X23.57 Y16.51 
G01 X23.59 Y16.49 
G01 X23.72 Y16.17 
G01 X23.72 Y14.31 
G01 X23.59 Y13.99 
G01 X23.35 Y13.75 
G01 X23.03 Y13.61 
G01 X22.68 Y13.61 
G01 X22.67 Y13.61 
G01 X22.65 Y13.62 
G01 X22.63 Y13.62 
G01 X22.61 Y13.62 
G01 X22.59 Y13.62 
G01 X22.57 Y13.62 
G01 X22.55 Y13.61 
G01 X22.53 Y13.61 
G01 X22.52 Y13.60 
G01 X22.50 Y13.60 
G01 X22.48 Y13.59 
G01 X22.46 Y13.58 
G01 X22.44 Y13.57 
G01 X22.43 Y13.56 
G01 X22.41 Y13.54 
G01 X22.40 Y13.53 
G01 X22.38 Y13.52 
G01 X22.37 Y13.50 
G01 X22.36 Y13.48 
G01 X22.35 Y13.47 
G01 X22.34 Y13.45 
G01 X22.33 Y13.43 
G01 X22.33 Y13.41 
G01 X22.32 Y13.39 
G01 X22.31 Y13.37 
G01 X22.31 Y13.36 
G01 X22.31 Y13.34 
G01 X22.31 Y13.33 
G01 X22.31 Y13.81 
G01 X22.45 Y13.71 
G01 X22.61 Y13.65 
G01 X22.78 Y13.62 
G01 X22.94 Y13.62 
G01 X23.11 Y13.65 
G01 X23.27 Y13.71 
G01 X23.41 Y13.81 
G01 X23.53 Y13.93 
G01 X23.62 Y14.07 
G01 X23.69 Y14.23 
G01 X23.72 Y14.39 
G01 X23.72 Y16.09 
G01 X23.69 Y16.25 
G01 X23.62 Y16.41 
G01 X23.53 Y16.55 
G01 X23.41 Y16.67 
G01 X23.27 Y16.77 
G01 X23.11 Y16.83 
G01 X22.94 Y16.86 
G01 X22.78 Y16.86 
G01 X22.61 Y16.83 
G01 X22.45 Y16.77 
G01 X22.31 Y16.67 
G01 X22.19 Y16.55 
G01 X22.10 Y16.41 
G01 X22.03 Y16.25 
G01 X22.00 Y16.09 
G01 X22.00 Y15.93 
G01 X22.00 Y15.94 
G01 X22.00 Y16.17 
G01 X22.13 Y16.49 
G01 X22.15 Y16.51 
G01 X22.20 Y16.57 
G01 X22.22 Y16.59 
G01 X22.25 Y16.64 
G01 X22.27 Y16.72 
G01 X22.27 Y16.80 
G01 X22.26 Y16.82 
G01 X22.25 Y16.87 
G01 X22.24 Y16.89 
G01 X22.21 Y16.94 
G01 X22.15 Y17.00 
G01 X22.13 Y17.01 
G01 X22.08 Y17.04 
G01 X22.00 Y17.06 
G01 X20.67 Y17.06 
G01 X20.59 Y17.04 
G01 X20.52 Y17.00 
G01 X20.47 Y16.94 
G01 X20.43 Y16.87 
G01 X20.40 Y16.80 
G01 X20.40 Y5.97 
G01 X20.43 Y5.89 
G01 X20.47 Y5.82 
G01 X20.52 Y5.76 
G01 X21.76 Y4.52 
G01 X21.79 Y4.50 
G01 X21.82 Y4.47 
G01 X21.89 Y4.43 
G01 X21.93 Y4.41 
G01 X21.97 Y4.41 
G01 X22.05 Y4.41 
G01 X22.11 Y4.42 
G01 X22.12 Y4.43 
G01 X22.17 Y4.45 
G01 X23.46 Y4.45 
G01 X23.52 Y4.39 
G01 X23.52 Y1.81 
G01 X23.46 Y1.75 
G01 X22.18 Y1.75 
G01 X22.12 Y1.81 
G01 X22.12 Y2.94 
G01 X22.10 Y3.02 
G01 X22.06 Y3.09 
G01 X22.00 Y3.15 
G01 X19.66 Y5.49 
G01 X19.64 Y5.55 
G01 X19.68 Y5.47 
G01 X19.76 Y5.39 
G01 X22.12 Y3.03 
G01 X22.12 Y1.83 
G01 X22.13 Y1.79 
G01 X22.16 Y1.76 
G01 X22.20 Y1.75 
G01 X23.44 Y1.75 
G01 X23.48 Y1.76 
G01 X23.51 Y1.79 
G01 X23.52 Y1.83 
G01 X23.52 Y4.37 
G01 X23.51 Y4.41 
G01 X23.48 Y4.44 
G01 X23.44 Y4.45 
G01 X22.20 Y4.45 
G01 X22.16 Y4.44 
G01 X22.13 Y4.41 
G01 X22.12 Y4.37 
G01 X22.12 Y4.17 
G01 X20.40 Y5.88 
G01 X20.40 Y17.06 
G01 X26.50 Y17.06 
G01 X27.17 Y16.40 
G01 X27.11 Y16.25 
G01 X27.08 Y16.09 
G01 X27.08 Y14.39 
G01 X27.11 Y14.23 
G01 X27.18 Y14.07 
G01 X27.27 Y13.93 
G01 X27.39 Y13.81 
G01 X27.53 Y13.71 
G01 X27.69 Y13.65 
G01 X27.86 Y13.62 
G01 X28.02 Y13.62 
G01 X28.19 Y13.65 
G01 X28.35 Y13.71 
G01 X28.49 Y13.81 
G01 X28.61 Y13.93 
G01 X28.70 Y14.07 
G01 X28.77 Y14.23 
G01 X28.80 Y14.39 
G01 X28.80 Y16.09 
G01 X28.77 Y16.25 
G01 X28.70 Y16.41 
G01 X28.61 Y16.55 
G01 X28.49 Y16.67 
G01 X28.35 Y16.77 
G01 X28.19 Y16.83 
G01 X28.02 Y16.86 
G01 X27.86 Y16.86 
G01 X27.84 Y16.86 
G01 X26.92 Y17.78 
G01 X26.82 Y17.84 
G01 X26.72 Y17.86 
G01 X19.95 Y17.86 
G01 X19.85 Y17.84 
G01 X19.76 Y17.78 
G01 X19.68 Y17.71 
G01 X19.64 Y17.63 
G01 X19.66 Y17.70 
G01 X19.67 Y17.71 
G01 X19.68 Y17.73 
G01 X19.69 Y17.75 
G01 X19.69 Y17.77 
G01 X19.69 Y17.79 
G01 X19.69 Y17.81 
G01 X19.70 Y17.83 
G01 X19.69 Y17.85 
G01 X19.69 Y17.87 
G01 X19.69 Y17.89 
G01 X19.69 Y17.91 
G01 X19.68 Y17.93 
G01 X19.67 Y17.95 
G01 X19.66 Y17.97 
G01 X19.66 Y17.98 
G01 X19.64 Y18.00 
G01 X19.63 Y18.02 
G01 X19.62 Y18.03 
G01 X19.61 Y18.05 
G01 X19.59 Y18.06 
G01 X19.58 Y18.07 
G01 X19.56 Y18.08 
G01 X19.54 Y18.10 
G01 X19.53 Y18.10 
G01 X19.51 Y18.11 
G01 X19.49 Y18.12 
G01 X19.47 Y18.13 
G01 X19.45 Y18.13 
G01 X19.43 Y18.13 
G01 X19.41 Y18.13 
G01 X19.39 Y18.14 
G01 X19.37 Y18.13 
G01 X8.21 Y18.13 
G01 X8.14 Y18.12 
G01 X8.13 Y18.11 
G01 X8.06 Y18.07 
G01 X8.01 Y18.02 
G01 X7.97 Y17.95 
G01 X7.95 Y17.87 
G01 X7.95 Y17.79 
G01 X7.97 Y17.72 
G01 X7.97 Y17.71 
G01 X8.01 Y17.64 
G01 X8.06 Y17.59 
G01 X8.72 Y16.93 
G01 X8.79 Y16.89 
G01 X8.87 Y16.87 
G01 X9.06 Y16.87 
G01 X9.38 Y16.73 
G01 X9.62 Y16.49 
G01 X9.75 Y16.17 
G01 X9.75 Y14.31 
G01 X9.62 Y13.99 
G01 X9.38 Y13.75 
G01 X9.06 Y13.61 
G01 X8.72 Y13.61 
G01 X8.66 Y13.64 
G01 X8.64 Y13.64 
G01 X8.60 Y13.65 
G01 X8.57 Y13.65 
G01 X8.53 Y13.65 
G01 X8.49 Y13.64 
G01 X8.47 Y13.64 
G01 X8.41 Y13.61 
G01 X8.39 Y13.60 
G01 X8.35 Y13.56 
G01 X8.32 Y13.53 
G01 X8.30 Y13.50 
G01 X8.28 Y13.45 
G01 X8.27 Y13.43 
G01 X8.26 Y13.38 
G01 X8.26 Y13.35 
G01 X8.26 Y13.32 
G01 X8.27 Y13.27 
G01 X8.28 Y13.25 
G01 X8.30 Y13.19 
G01 X8.30 Y13.19 
G01 X8.26 Y13.26 
G01 X8.18 Y13.34 
G01 X8.09 Y13.39 
G01 X7.99 Y13.42 
G01 X7.79 Y13.42 
G01 X7.12 Y14.08 
G01 X7.18 Y14.23 
G01 X7.21 Y14.39 
G01 X7.21 Y16.09 
G01 X7.18 Y16.25 
G01 X7.11 Y16.41 
G01 X7.02 Y16.55 
G01 X6.90 Y16.67 
G01 X6.76 Y16.77 
G01 X6.60 Y16.83 
G01 X6.43 Y16.86 
G01 X6.27 Y16.86 
G01 X6.10 Y16.83 
G01 X5.94 Y16.77 
G01 X5.80 Y16.67 
G01 X5.68 Y16.55 
G01 X5.59 Y16.41 
G01 X5.52 Y16.25 
G01 X5.49 Y16.09 
G01 X5.49 Y14.39 
G01 X5.52 Y14.23 
G01 X5.59 Y14.07 
G01 X5.68 Y13.93 
G01 X5.80 Y13.81 
G01 X5.94 Y13.71 
G01 X6.10 Y13.65 
G01 X6.27 Y13.62 
G01 X6.43 Y13.62 
G01 X6.45 Y13.62 
G01 X7.37 Y12.70 
G01 X7.47 Y12.64 
G01 X7.54 Y12.62 
G01 X7.54 Y12.42 
G01 X7.54 Y12.43 
G01 X7.54 Y12.45 
G01 X7.53 Y12.47 
G01 X7.53 Y12.49 
G01 X7.52 Y12.51 
G01 X7.51 Y12.53 
G01 X7.50 Y12.55 
G01 X7.50 Y12.57 
G01 X7.48 Y12.58 
G01 X7.47 Y12.60 
G01 X7.46 Y12.62 
G01 X7.45 Y12.63 
G01 X7.43 Y12.64 
G01 X7.42 Y12.66 
G01 X7.40 Y12.67 
G01 X6.52 Y13.55 
G01 X6.45 Y13.59 
G01 X6.37 Y13.61 
G01 X6.18 Y13.61 
G01 X5.92 Y13.72 
G01 X5.90 Y13.73 
G01 X5.88 Y13.74 
G01 X5.87 Y13.74 
G01 X5.85 Y13.75 
G01 X5.83 Y13.75 
G01 X5.81 Y13.75 
G01 X5.79 Y13.75 
G01 X5.77 Y13.75 
G01 X5.75 Y13.75 
G01 X5.73 Y13.75 
G01 X5.71 Y13.74 
G01 X5.69 Y13.74 
G01 X5.67 Y13.73 
G01 X5.65 Y13.72 
G01 X5.63 Y13.71 
G01 X5.62 Y13.70 
G01 X5.60 Y13.69 
G01 X5.59 Y13.68 
G01 X5.57 Y13.66 
G01 X5.56 Y13.65 
G01 X5.54 Y13.63 
G01 X5.53 Y13.62 
G01 X5.52 Y13.60 
G01 X5.51 Y13.58 
G01 X5.50 Y13.56 
G01 X5.50 Y13.54 
G01 X5.49 Y13.53 
G01 X5.49 Y13.51 
G01 X5.48 Y13.49 
G01 X5.48 Y13.47 
G01 X5.48 Y13.46 
G01 X5.48 Y16.66 
G01 X5.88 Y17.06 
G01 X7.45 Y17.06 
G01 X8.12 Y16.40 
G01 X8.06 Y16.25 
G01 X8.03 Y16.09 
G01 X8.03 Y14.39 
G01 X8.06 Y14.23 
G01 X8.13 Y14.07 
G01 X8.22 Y13.93 
G01 X8.34 Y13.81 
G01 X8.48 Y13.71 
G01 X8.64 Y13.65 
G01 X8.80 Y13.62 
G01 X8.97 Y13.62 
G01 X9.14 Y13.65 
G01 X9.30 Y13.71 
G01 X9.44 Y13.81 
G01 X9.56 Y13.93 
G01 X9.65 Y14.07 
G01 X9.72 Y14.23 
G01 X9.75 Y14.39 
G01 X9.75 Y16.09 
G01 X9.72 Y16.25 
G01 X9.65 Y16.41 
G01 X9.56 Y16.55 
G01 X9.44 Y16.67 
G01 X9.30 Y16.77 
G01 X9.14 Y16.83 
G01 X8.97 Y16.86 
G01 X8.80 Y16.86 
G01 X8.79 Y16.86 
G01 X7.87 Y17.78 
G01 X7.77 Y17.84 
G01 X7.67 Y17.86 
G01 X5.66 Y17.86 
G01 X5.56 Y17.84 
G01 X5.47 Y17.78 
G01 X5.39 Y17.71 
G01 X4.76 Y17.07 
G01 X4.71 Y16.98 
G01 X4.68 Y16.88 
G01 X4.68 Y9.37 
G01 X3.33 Y8.02 
G01 X3.12 Y8.02 
G01 X3.02 Y7.99 
G01 X2.93 Y7.94 
G01 X2.85 Y7.87 
G01 X2.06 Y7.07 
G01 X1.85 Y7.07 
G01 X1.75 Y7.04 
G01 X1.66 Y6.99 
G01 X1.58 Y6.91 
G01 X1.53 Y6.82 
G01 X1.50 Y6.72 
G01 X1.50 Y4.71 
G01 X1.53 Y4.62 
G01 X1.51 Y4.67 
G01 X1.50 Y4.69 
G01 X1.49 Y4.71 
G01 X1.48 Y4.73 
G01 X1.47 Y4.74 
G01 X1.46 Y4.76 
G01 X1.45 Y4.77 
G01 X1.44 Y4.79 
G01 X1.42 Y4.80 
G01 X1.41 Y4.82 
G01 X1.39 Y4.83 
G01 X1.37 Y4.84 
G01 X1.35 Y4.85 
G01 X1.34 Y4.86 
G01 X1.32 Y4.86 
G01 X1.30 Y4.87 
G01 X1.28 Y4.87 
G01 X1.26 Y4.88 
G01 X1.24 Y4.88 
G01 X1.22 Y4.88 
G01 X1.20 Y4.88 
G01 X1.18 Y4.88 
G01 X1.16 Y4.87 
G01 X1.14 Y4.87 
G01 X1.12 Y4.86 
G01 X1.10 Y4.86 
G01 X1.08 Y4.85 
G01 X1.07 Y4.84 
G01 X1.05 Y4.83 
G01 X1.03 Y4.82 
G01 X1.02 Y4.80 
G01 X1.00 Y4.79 
G01 X0.99 Y4.77 
G01 X0.98 Y4.76 
G01 X0.97 Y4.74 
G01 X0.95 Y4.73 
G01 X0.95 Y4.71 
G01 X0.94 Y4.69 
G01 X0.93 Y4.67 
G01 X0.92 Y4.65 
G01 X0.92 Y4.63 
G01 X0.91 Y4.61 
G01 X0.91 Y4.59 
G01 X0.91 Y4.57 
G01 X0.91 Y4.55 
G01 X0.91 Y1.18 
G01 X0.94 Y1.10 
G01 X0.98 Y1.03 
G01 X1.03 Y0.98 
G01 X1.10 Y0.94 
G01 X1.18 Y0.91 
G01 X55.97 Y0.91 
G01 X56.05 Y0.94 
G01 X56.12 Y0.98 
G01 X56.17 Y1.03 
G01 X56.21 Y1.10 
G01 X56.23 Y1.18 
G01 X56.23 Y17.87 
G01 X56.21 Y17.95 
G01 X56.17 Y18.02 
G01 X56.12 Y18.07 
G01 X56.05 Y18.11 
G01 X55.97 Y18.13 
G01 X47.58 Y18.13 
G01 X47.51 Y18.12 
G01 X47.50 Y18.11 
G01 X47.43 Y18.07 
G01 X47.38 Y18.02 
G01 X47.34 Y17.95 
G01 X47.32 Y17.87 
G01 X47.32 Y17.79 
G01 X47.34 Y17.72 
G01 X47.34 Y17.71 
G01 X47.38 Y17.64 
G01 X47.43 Y17.59 
G01 X48.09 Y16.93 
G01 X48.16 Y16.89 
G01 X48.24 Y16.87 
G01 X48.43 Y16.87 
G01 X48.75 Y16.73 
G01 X48.99 Y16.49 
G01 X49.12 Y16.17 
G01 X49.12 Y14.31 
G01 X48.99 Y13.99 
G01 X48.97 Y13.97 
G01 X48.92 Y13.91 
G01 X48.90 Y13.89 
G01 X48.87 Y13.84 
G01 X48.85 Y13.76 
G01 X48.85 Y13.68 
G01 X48.86 Y13.66 
G01 X48.87 Y13.61 
G01 X48.88 Y13.59 
G01 X48.91 Y13.54 
G01 X48.97 Y13.48 
G01 X48.99 Y13.47 
G01 X49.04 Y13.44 
G01 X49.12 Y13.42 
G01 X49.28 Y13.42 
G01 X49.35 Y13.44 
G01 X49.42 Y13.48 
G01 X49.43 Y13.49 
G01 X49.87 Y13.93 
G01 X49.88 Y13.93 
G01 X49.36 Y13.42 
G01 X49.16 Y13.42 
G01 X49.06 Y13.39 
G01 X48.97 Y13.34 
G01 X48.89 Y13.26 
G01 X48.85 Y13.19 
G01 X48.85 Y13.19 
G01 X48.87 Y13.25 
G01 X48.88 Y13.27 
G01 X48.89 Y13.32 
G01 X48.89 Y13.35 
G01 X48.89 Y13.38 
G01 X48.88 Y13.43 
G01 X48.87 Y13.44 
G01 X48.85 Y13.50 
G01 X48.83 Y13.53 
G01 X48.80 Y13.56 
G01 X48.76 Y13.59 
G01 X48.74 Y13.61 
G01 X48.68 Y13.64 
G01 X48.66 Y13.64 
G01 X48.62 Y13.65 
G01 X48.58 Y13.65 
G01 X48.55 Y13.65 
G01 X48.51 Y13.64 
G01 X48.49 Y13.64 
G01 X48.43 Y13.61 
G01 X48.09 Y13.61 
G01 X48.03 Y13.64 
G01 X48.01 Y13.64 
G01 X47.97 Y13.65 
G01 X47.94 Y13.65 
G01 X47.90 Y13.65 
G01 X47.86 Y13.64 
G01 X47.84 Y13.64 
G01 X47.78 Y13.61 
G01 X47.76 Y13.60 
G01 X47.72 Y13.56 
G01 X47.69 Y13.53 
G01 X47.67 Y13.50 
G01 X47.65 Y13.45 
G01 X47.64 Y13.43 
G01 X47.63 Y13.38 
G01 X47.63 Y13.35 
G01 X47.63 Y13.32 
G01 X47.64 Y13.27 
G01 X47.65 Y13.25 
G01 X47.67 Y13.19 
G01 X47.67 Y13.19 
G01 X47.63 Y13.26 
G01 X47.55 Y13.34 
G01 X47.46 Y13.39 
G01 X47.36 Y13.42 
G01 X47.16 Y13.42 
G01 X46.49 Y14.08 
G01 X46.55 Y14.23 
G01 X46.58 Y14.39 
G01 X46.58 Y16.09 
G01 X46.55 Y16.25 
G01 X46.48 Y16.41 
G01 X46.39 Y16.55 
G01 X46.27 Y16.67 
G01 X46.13 Y16.77 
G01 X45.97 Y16.83 
G01 X45.80 Y16.86 
G01 X45.64 Y16.86 
G01 X45.47 Y16.83 
G01 X45.31 Y16.77 
G01 X45.17 Y16.67 
G01 X45.05 Y16.55 
G01 X44.96 Y16.41 
G01 X44.89 Y16.25 
G01 X44.86 Y16.09 
G01 X44.86 Y14.39 
G01 X44.89 Y14.23 
G01 X44.96 Y14.07 
G01 X45.05 Y13.93 
G01 X45.17 Y13.81 
G01 X45.31 Y13.71 
G01 X45.47 Y13.65 
G01 X45.64 Y13.62 
G01 X45.80 Y13.62 
G01 X45.82 Y13.62 
G01 X46.74 Y12.70 
G01 X46.84 Y12.64 
G01 X46.91 Y12.62 
G01 X46.91 Y12.42 
G01 X46.91 Y12.43 
G00 Z1.00 
G00 Z2.00 
M05
M02
