(.../pcb-gcode-3.6.0.4/pcb-gcode.ulp)
(Copyright 2005 - 2012 by John Johnson)
(See readme.txt for licensing terms.)
(This file generated from the board:)
(.../Sydney/Desktop/BreakoutTRRS.brd)
(Current profile is .../pcb-gcode-3.6.0.4/profiles/imodela.pp  )
(This file generated 8/3/16 11:55 AM)
(Settings from pcb-machine.h)
(  Tool Size)
(0.20 )
(Z Axis Settings)
(  High     Up        Down     Drill)
(2.00 	1.00 	-0.20 	-1.70 )
(spindle on time = 1.0000)
(milling depth = -0.2000)
(text depth = -0.1270)
(tool change at 0.00 0.00 10.00 )
(feed rate xy = F80.00 )
(feed rate z  = F60.00 )
(Settings from pcb-defaults.h)
(isolate min = 0.0010)
(isolate max = 0.2000)
(isolate step = 0.2000)
(Generated bottom outlines, bottom drill, )
(Unit of measure: mm)
(Metric Mode)
G21
(Absolute Coordinates)
G90
G00 X0.00 Y0.00 
M03
G04 P 1
G00 Z1.00 
G00 X-77.35 Y6.34 
G01 Z-0.20 F60.00 
G01 X-76.79 Y6.10 F80.00 
G01 X-76.19 Y6.10 
G01 X-75.63 Y6.34 
G01 X-75.21 Y6.76 
G01 X-74.97 Y7.32 
G01 X-74.97 Y7.92 
G01 X-75.21 Y8.48 
G01 X-75.63 Y8.90 
G01 X-76.19 Y9.13 
G01 X-76.79 Y9.13 
G01 X-77.35 Y8.90 
G01 X-77.77 Y8.48 
G01 X-78.00 Y7.92 
G01 X-78.00 Y7.32 
G01 X-77.77 Y6.76 
G01 X-77.35 Y6.34 
G00 Z1.00 
G00 X-54.44 Y25.76 
G01 Z-0.20 F60.00 
G01 X-54.78 Y25.76 F80.00 
G01 X-55.10 Y25.62 
G01 X-55.34 Y25.38 
G01 X-55.47 Y25.06 
G01 X-55.47 Y23.20 
G01 X-55.34 Y22.88 
G01 X-55.10 Y22.64 
G01 X-54.78 Y22.50 
G01 X-54.44 Y22.50 
G01 X-54.12 Y22.64 
G01 X-53.88 Y22.88 
G01 X-53.75 Y23.20 
G01 X-53.75 Y25.06 
G01 X-53.88 Y25.38 
G01 X-54.12 Y25.62 
G01 X-54.44 Y25.76 
G00 Z1.00 
G00 X-53.75 Y24.98 
G01 Z-0.20 F60.00 
G01 X-53.75 Y23.28 F80.00 
G01 X-53.78 Y23.12 
G01 X-53.85 Y22.96 
G01 X-53.94 Y22.82 
G01 X-54.06 Y22.70 
G01 X-54.20 Y22.60 
G01 X-54.36 Y22.54 
G01 X-54.53 Y22.51 
G01 X-54.69 Y22.51 
G01 X-54.86 Y22.54 
G01 X-55.02 Y22.60 
G01 X-55.16 Y22.70 
G01 X-55.28 Y22.82 
G01 X-55.37 Y22.96 
G01 X-55.44 Y23.12 
G01 X-55.47 Y23.28 
G01 X-55.47 Y24.98 
G01 X-55.44 Y25.14 
G01 X-55.37 Y25.30 
G01 X-55.28 Y25.44 
G01 X-55.16 Y25.56 
G01 X-55.02 Y25.66 
G01 X-54.86 Y25.72 
G01 X-54.69 Y25.75 
G01 X-54.53 Y25.75 
G01 X-54.36 Y25.72 
G01 X-54.20 Y25.66 
G01 X-54.06 Y25.56 
G01 X-53.94 Y25.44 
G01 X-53.85 Y25.30 
G01 X-53.78 Y25.14 
G01 X-53.75 Y24.98 
G00 Z1.00 
G00 X-56.98 Y25.76 
G01 Z-0.20 F60.00 
G01 X-57.32 Y25.76 F80.00 
G01 X-57.64 Y25.62 
G01 X-57.88 Y25.38 
G01 X-58.01 Y25.06 
G01 X-58.01 Y23.20 
G01 X-57.88 Y22.88 
G01 X-57.64 Y22.64 
G01 X-57.32 Y22.50 
G01 X-56.98 Y22.50 
G01 X-56.66 Y22.64 
G01 X-56.42 Y22.88 
G01 X-56.29 Y23.20 
G01 X-56.29 Y25.06 
G01 X-56.42 Y25.38 
G01 X-56.66 Y25.62 
G01 X-56.98 Y25.76 
G00 Z1.00 
G00 X-56.29 Y24.98 
G01 Z-0.20 F60.00 
G01 X-56.29 Y23.28 F80.00 
G01 X-56.32 Y23.12 
G01 X-56.39 Y22.96 
G01 X-56.48 Y22.82 
G01 X-56.60 Y22.70 
G01 X-56.74 Y22.60 
G01 X-56.90 Y22.54 
G01 X-57.07 Y22.51 
G01 X-57.23 Y22.51 
G01 X-57.40 Y22.54 
G01 X-57.56 Y22.60 
G01 X-57.70 Y22.70 
G01 X-57.82 Y22.82 
G01 X-57.91 Y22.96 
G01 X-57.98 Y23.12 
G01 X-58.01 Y23.28 
G01 X-58.01 Y24.98 
G01 X-57.98 Y25.14 
G01 X-57.91 Y25.30 
G01 X-57.82 Y25.44 
G01 X-57.70 Y25.56 
G01 X-57.56 Y25.66 
G01 X-57.40 Y25.72 
G01 X-57.23 Y25.75 
G01 X-57.07 Y25.75 
G01 X-56.90 Y25.72 
G01 X-56.74 Y25.66 
G01 X-56.60 Y25.56 
G01 X-56.48 Y25.44 
G01 X-56.39 Y25.30 
G01 X-56.32 Y25.14 
G01 X-56.29 Y24.98 
G00 Z1.00 
G00 X-59.52 Y25.76 
G01 Z-0.20 F60.00 
G01 X-59.86 Y25.76 F80.00 
G01 X-60.18 Y25.62 
G01 X-60.42 Y25.38 
G01 X-60.55 Y25.06 
G01 X-60.55 Y23.20 
G01 X-60.42 Y22.88 
G01 X-60.18 Y22.64 
G01 X-59.86 Y22.50 
G01 X-59.52 Y22.50 
G01 X-59.20 Y22.64 
G01 X-58.96 Y22.88 
G01 X-58.83 Y23.20 
G01 X-58.83 Y25.06 
G01 X-58.96 Y25.38 
G01 X-59.20 Y25.62 
G01 X-59.52 Y25.76 
G00 Z1.00 
G00 X-58.83 Y24.98 
G01 Z-0.20 F60.00 
G01 X-58.83 Y23.28 F80.00 
G01 X-58.86 Y23.12 
G01 X-58.93 Y22.96 
G01 X-59.02 Y22.82 
G01 X-59.14 Y22.70 
G01 X-59.28 Y22.60 
G01 X-59.44 Y22.54 
G01 X-59.61 Y22.51 
G01 X-59.77 Y22.51 
G01 X-59.94 Y22.54 
G01 X-60.10 Y22.60 
G01 X-60.24 Y22.70 
G01 X-60.36 Y22.82 
G01 X-60.45 Y22.96 
G01 X-60.52 Y23.12 
G01 X-60.55 Y23.28 
G01 X-60.55 Y24.98 
G01 X-60.52 Y25.14 
G01 X-60.45 Y25.30 
G01 X-60.36 Y25.44 
G01 X-60.24 Y25.56 
G01 X-60.10 Y25.66 
G01 X-59.94 Y25.72 
G01 X-59.77 Y25.75 
G01 X-59.61 Y25.75 
G01 X-59.44 Y25.72 
G01 X-59.28 Y25.66 
G01 X-59.14 Y25.56 
G01 X-59.02 Y25.44 
G01 X-58.93 Y25.30 
G01 X-58.86 Y25.14 
G01 X-58.83 Y24.98 
G00 Z1.00 
G00 X-51.58 Y25.62 
G01 Z-0.20 F60.00 
G01 X-51.90 Y25.76 F80.00 
G01 X-52.24 Y25.76 
G01 X-52.56 Y25.62 
G01 X-52.80 Y25.38 
G01 X-52.93 Y25.06 
G01 X-52.93 Y23.20 
G01 X-52.80 Y22.88 
G01 X-52.56 Y22.64 
G01 X-52.24 Y22.50 
G01 X-51.90 Y22.50 
G01 X-51.58 Y22.64 
G01 X-51.34 Y22.88 
G01 X-51.21 Y23.20 
G01 X-51.21 Y25.06 
G01 X-51.34 Y25.38 
G01 X-51.58 Y25.62 
G00 Z1.00 
G00 X-51.21 Y24.98 
G01 Z-0.20 F60.00 
G01 X-51.21 Y23.28 F80.00 
G01 X-51.24 Y23.12 
G01 X-51.31 Y22.96 
G01 X-51.40 Y22.82 
G01 X-51.52 Y22.70 
G01 X-51.66 Y22.60 
G01 X-51.82 Y22.54 
G01 X-51.98 Y22.51 
G01 X-52.15 Y22.51 
G01 X-52.32 Y22.54 
G01 X-52.48 Y22.60 
G01 X-52.62 Y22.70 
G01 X-52.74 Y22.82 
G01 X-52.83 Y22.96 
G01 X-52.90 Y23.12 
G01 X-52.93 Y23.28 
G01 X-52.93 Y24.98 
G01 X-52.90 Y25.14 
G01 X-52.83 Y25.30 
G01 X-52.74 Y25.44 
G01 X-52.62 Y25.56 
G01 X-52.48 Y25.66 
G01 X-52.32 Y25.72 
G01 X-52.15 Y25.75 
G01 X-51.98 Y25.75 
G01 X-51.82 Y25.72 
G01 X-51.66 Y25.66 
G01 X-51.52 Y25.56 
G01 X-51.40 Y25.44 
G01 X-51.31 Y25.30 
G01 X-51.24 Y25.14 
G01 X-51.21 Y24.98 
G00 Z1.00 
G00 X-61.49 Y6.34 
G01 Z-0.20 F60.00 
G01 X-60.93 Y6.10 F80.00 
G01 X-60.33 Y6.10 
G01 X-59.77 Y6.34 
G01 X-59.35 Y6.76 
G01 X-59.11 Y7.32 
G01 X-59.11 Y7.92 
G01 X-59.35 Y8.48 
G01 X-59.77 Y8.90 
G01 X-60.33 Y9.13 
G01 X-60.93 Y9.13 
G01 X-61.49 Y8.90 
G01 X-61.91 Y8.48 
G01 X-62.14 Y7.92 
G01 X-62.14 Y7.32 
G01 X-61.91 Y6.76 
G01 X-61.49 Y6.34 
G00 Z1.00 
G00 X-31.63 Y6.34 
G01 Z-0.20 F60.00 
G01 X-31.07 Y6.10 F80.00 
G01 X-30.47 Y6.10 
G01 X-29.91 Y6.34 
G01 X-29.49 Y6.76 
G01 X-29.25 Y7.32 
G01 X-29.25 Y7.92 
G01 X-29.49 Y8.48 
G01 X-29.91 Y8.90 
G01 X-30.47 Y9.13 
G01 X-31.07 Y9.13 
G01 X-31.63 Y8.90 
G01 X-32.05 Y8.48 
G01 X-32.28 Y7.92 
G01 X-32.28 Y7.32 
G01 X-32.05 Y6.76 
G01 X-31.63 Y6.34 
G00 Z1.00 
G00 X-15.77 Y6.34 
G01 Z-0.20 F60.00 
G01 X-15.21 Y6.10 F80.00 
G01 X-14.61 Y6.10 
G01 X-14.05 Y6.34 
G01 X-13.63 Y6.76 
G01 X-13.39 Y7.32 
G01 X-13.39 Y7.92 
G01 X-13.63 Y8.48 
G01 X-14.05 Y8.90 
G01 X-14.61 Y9.13 
G01 X-15.21 Y9.13 
G01 X-15.77 Y8.90 
G01 X-16.19 Y8.48 
G01 X-16.42 Y7.92 
G01 X-16.42 Y7.32 
G01 X-16.19 Y6.76 
G01 X-15.77 Y6.34 
G00 Z1.00 
G00 X-13.49 Y22.59 
G01 Z-0.20 F60.00 
G01 X-13.37 Y22.67 F80.00 
G01 X-13.27 Y22.77 
G01 X-13.19 Y22.89 
G01 X-13.12 Y23.02 
G01 X-13.08 Y23.15 
G01 X-13.05 Y23.30 
G01 X-13.05 Y23.77 
G01 X-13.11 Y23.77 
G01 X-13.11 Y23.28 
G01 X-13.14 Y23.12 
G01 X-13.21 Y22.96 
G01 X-13.30 Y22.82 
G01 X-13.42 Y22.70 
G01 X-13.56 Y22.60 
G01 X-13.61 Y22.58 
G01 X-13.61 Y22.52 
G01 X-13.49 Y22.59 
G00 Z1.00 
G00 X-11.26 Y25.76 
G01 Z-0.20 F60.00 
G01 X-11.60 Y25.76 F80.00 
G01 X-11.92 Y25.62 
G01 X-12.16 Y25.38 
G01 X-12.29 Y25.06 
G01 X-12.29 Y23.20 
G01 X-12.16 Y22.88 
G01 X-11.92 Y22.64 
G01 X-11.60 Y22.50 
G01 X-11.26 Y22.50 
G01 X-10.94 Y22.64 
G01 X-10.70 Y22.88 
G01 X-10.57 Y23.20 
G01 X-10.57 Y25.06 
G01 X-10.70 Y25.38 
G01 X-10.94 Y25.62 
G01 X-11.26 Y25.76 
G00 Z1.00 
G00 X-10.57 Y24.98 
G01 Z-0.20 F60.00 
G01 X-10.57 Y23.28 F80.00 
G01 X-10.60 Y23.12 
G01 X-10.67 Y22.96 
G01 X-10.76 Y22.82 
G01 X-10.88 Y22.70 
G01 X-11.02 Y22.60 
G01 X-11.18 Y22.54 
G01 X-11.35 Y22.51 
G01 X-11.51 Y22.51 
G01 X-11.68 Y22.54 
G01 X-11.84 Y22.60 
G01 X-11.98 Y22.70 
G01 X-12.10 Y22.82 
G01 X-12.19 Y22.96 
G01 X-12.26 Y23.12 
G01 X-12.29 Y23.28 
G01 X-12.29 Y24.98 
G01 X-12.26 Y25.14 
G01 X-12.19 Y25.30 
G01 X-12.10 Y25.44 
G01 X-11.98 Y25.56 
G01 X-11.84 Y25.66 
G01 X-11.68 Y25.72 
G01 X-11.51 Y25.75 
G01 X-11.35 Y25.75 
G01 X-11.18 Y25.72 
G01 X-11.02 Y25.66 
G01 X-10.88 Y25.56 
G01 X-10.76 Y25.44 
G01 X-10.67 Y25.30 
G01 X-10.60 Y25.14 
G01 X-10.57 Y24.98 
G00 Z1.00 
G00 X-6.18 Y25.76 
G01 Z-0.20 F60.00 
G01 X-6.52 Y25.76 F80.00 
G01 X-6.84 Y25.62 
G01 X-7.08 Y25.38 
G01 X-7.21 Y25.06 
G01 X-7.21 Y23.20 
G01 X-7.08 Y22.88 
G01 X-6.84 Y22.64 
G01 X-6.52 Y22.50 
G01 X-6.18 Y22.50 
G01 X-5.86 Y22.64 
G01 X-5.62 Y22.88 
G01 X-5.49 Y23.20 
G01 X-5.49 Y25.06 
G01 X-5.62 Y25.38 
G01 X-5.86 Y25.62 
G01 X-6.18 Y25.76 
G00 Z1.00 
G00 X-5.49 Y24.98 
G01 Z-0.20 F60.00 
G01 X-5.49 Y23.28 F80.00 
G01 X-5.52 Y23.12 
G01 X-5.59 Y22.96 
G01 X-5.68 Y22.82 
G01 X-5.80 Y22.70 
G01 X-5.94 Y22.60 
G01 X-6.10 Y22.54 
G01 X-6.27 Y22.51 
G01 X-6.43 Y22.51 
G01 X-6.60 Y22.54 
G01 X-6.76 Y22.60 
G01 X-6.90 Y22.70 
G01 X-7.02 Y22.82 
G01 X-7.11 Y22.96 
G01 X-7.18 Y23.12 
G01 X-7.21 Y23.28 
G01 X-7.21 Y24.98 
G01 X-7.18 Y25.14 
G01 X-7.11 Y25.30 
G01 X-7.02 Y25.44 
G01 X-6.90 Y25.56 
G01 X-6.76 Y25.66 
G01 X-6.60 Y25.72 
G01 X-6.43 Y25.75 
G01 X-6.27 Y25.75 
G01 X-6.10 Y25.72 
G01 X-5.94 Y25.66 
G01 X-5.80 Y25.56 
G01 X-5.68 Y25.44 
G01 X-5.59 Y25.30 
G01 X-5.52 Y25.14 
G01 X-5.49 Y24.98 
G00 Z1.00 
G00 X-8.72 Y25.76 
G01 Z-0.20 F60.00 
G01 X-9.06 Y25.76 F80.00 
G01 X-9.38 Y25.62 
G01 X-9.62 Y25.38 
G01 X-9.75 Y25.06 
G01 X-9.75 Y23.20 
G01 X-9.62 Y22.88 
G01 X-9.38 Y22.64 
G01 X-9.06 Y22.50 
G01 X-8.72 Y22.50 
G01 X-8.40 Y22.64 
G01 X-8.16 Y22.88 
G01 X-8.03 Y23.20 
G01 X-8.03 Y25.06 
G01 X-8.16 Y25.38 
G01 X-8.40 Y25.62 
G01 X-8.72 Y25.76 
G00 Z1.00 
G00 X-8.03 Y24.98 
G01 Z-0.20 F60.00 
G01 X-8.03 Y23.28 F80.00 
G01 X-8.06 Y23.12 
G01 X-8.13 Y22.96 
G01 X-8.22 Y22.82 
G01 X-8.34 Y22.70 
G01 X-8.48 Y22.60 
G01 X-8.64 Y22.54 
G01 X-8.80 Y22.51 
G01 X-8.97 Y22.51 
G01 X-9.14 Y22.54 
G01 X-9.30 Y22.60 
G01 X-9.44 Y22.70 
G01 X-9.56 Y22.82 
G01 X-9.65 Y22.96 
G01 X-9.72 Y23.12 
G01 X-9.75 Y23.28 
G01 X-9.75 Y24.98 
G01 X-9.72 Y25.14 
G01 X-9.65 Y25.30 
G01 X-9.56 Y25.44 
G01 X-9.44 Y25.56 
G01 X-9.30 Y25.66 
G01 X-9.14 Y25.72 
G01 X-8.97 Y25.75 
G01 X-8.80 Y25.75 
G01 X-8.64 Y25.72 
G01 X-8.48 Y25.66 
G01 X-8.34 Y25.56 
G01 X-8.22 Y25.44 
G01 X-8.13 Y25.30 
G01 X-8.06 Y25.14 
G01 X-8.03 Y24.98 
G00 Z1.00 
G00 X-14.67 Y25.49 
G01 Z-0.20 F60.00 
G01 X-14.75 Y25.37 F80.00 
G01 X-14.82 Y25.24 
G01 X-14.86 Y25.11 
G01 X-14.88 Y24.96 
G01 X-14.88 Y24.48 
G01 X-14.83 Y24.48 
G01 X-14.83 Y24.98 
G01 X-14.80 Y25.14 
G01 X-14.73 Y25.30 
G01 X-14.64 Y25.44 
G01 X-14.52 Y25.56 
G01 X-14.38 Y25.66 
G01 X-14.32 Y25.68 
G01 X-14.32 Y25.74 
G01 X-14.45 Y25.67 
G01 X-14.57 Y25.59 
G01 X-14.67 Y25.49 
G00 Z1.00 
G00 X-14.88 Y23.30 
G01 Z-0.20 F60.00 
G01 X-14.86 Y23.15 F80.00 
G01 X-14.82 Y23.02 
G01 X-14.75 Y22.89 
G01 X-14.67 Y22.77 
G01 X-14.57 Y22.67 
G01 X-14.45 Y22.59 
G01 X-14.32 Y22.52 
G01 X-14.32 Y22.58 
G01 X-14.38 Y22.60 
G01 X-14.52 Y22.70 
G01 X-14.64 Y22.82 
G01 X-14.73 Y22.96 
G01 X-14.80 Y23.12 
G01 X-14.83 Y23.28 
G01 X-14.83 Y23.77 
G01 X-14.88 Y23.77 
G01 X-14.88 Y23.30 
G00 Z1.00 
G00 X-13.05 Y24.96 
G01 Z-0.20 F60.00 
G01 X-13.08 Y25.11 F80.00 
G01 X-13.12 Y25.24 
G01 X-13.19 Y25.37 
G01 X-13.27 Y25.49 
G01 X-13.37 Y25.59 
G01 X-13.49 Y25.67 
G01 X-13.61 Y25.74 
G01 X-13.61 Y25.68 
G01 X-13.56 Y25.66 
G01 X-13.42 Y25.56 
G01 X-13.30 Y25.44 
G01 X-13.21 Y25.30 
G01 X-13.14 Y25.14 
G01 X-13.11 Y24.98 
G01 X-13.11 Y24.48 
G01 X-13.05 Y24.48 
G01 X-13.05 Y24.96 
G00 Z1.00 
G00 X-8.77 Y6.34 
G01 Z-0.20 F60.00 
G01 X-8.21 Y6.10 F80.00 
G01 X-7.61 Y6.10 
G01 X-7.05 Y6.34 
G01 X-6.63 Y6.76 
G01 X-6.39 Y7.32 
G01 X-6.39 Y7.92 
G01 X-6.63 Y8.48 
G01 X-7.05 Y8.90 
G01 X-7.61 Y9.13 
G01 X-8.21 Y9.13 
G01 X-8.77 Y8.90 
G01 X-9.19 Y8.48 
G01 X-9.42 Y7.92 
G01 X-9.42 Y7.32 
G01 X-9.19 Y6.76 
G01 X-8.77 Y6.34 
G00 Z1.00 
G00 X-38.63 Y6.34 
G01 Z-0.20 F60.00 
G01 X-38.07 Y6.10 F80.00 
G01 X-37.47 Y6.10 
G01 X-36.91 Y6.34 
G01 X-36.49 Y6.76 
G01 X-36.25 Y7.32 
G01 X-36.25 Y7.92 
G01 X-36.49 Y8.48 
G01 X-36.91 Y8.90 
G01 X-37.47 Y9.13 
G01 X-38.07 Y9.13 
G01 X-38.63 Y8.90 
G01 X-39.05 Y8.48 
G01 X-39.28 Y7.92 
G01 X-39.28 Y7.32 
G01 X-39.05 Y6.76 
G01 X-38.63 Y6.34 
G00 Z1.00 
G00 X-28.72 Y25.62 
G01 Z-0.20 F60.00 
G01 X-29.04 Y25.76 F80.00 
G01 X-29.38 Y25.76 
G01 X-29.70 Y25.62 
G01 X-29.94 Y25.38 
G01 X-30.07 Y25.06 
G01 X-30.07 Y23.20 
G01 X-29.94 Y22.88 
G01 X-29.70 Y22.64 
G01 X-29.38 Y22.50 
G01 X-29.04 Y22.50 
G01 X-28.72 Y22.64 
G01 X-28.48 Y22.88 
G01 X-28.35 Y23.20 
G01 X-28.35 Y25.06 
G01 X-28.48 Y25.38 
G01 X-28.72 Y25.62 
G00 Z1.00 
G00 X-28.35 Y24.98 
G01 Z-0.20 F60.00 
G01 X-28.35 Y23.28 F80.00 
G01 X-28.38 Y23.12 
G01 X-28.45 Y22.96 
G01 X-28.54 Y22.82 
G01 X-28.66 Y22.70 
G01 X-28.80 Y22.60 
G01 X-28.96 Y22.54 
G01 X-29.12 Y22.51 
G01 X-29.29 Y22.51 
G01 X-29.46 Y22.54 
G01 X-29.62 Y22.60 
G01 X-29.76 Y22.70 
G01 X-29.88 Y22.82 
G01 X-29.97 Y22.96 
G01 X-30.04 Y23.12 
G01 X-30.07 Y23.28 
G01 X-30.07 Y24.98 
G01 X-30.04 Y25.14 
G01 X-29.97 Y25.30 
G01 X-29.88 Y25.44 
G01 X-29.76 Y25.56 
G01 X-29.62 Y25.66 
G01 X-29.46 Y25.72 
G01 X-29.29 Y25.75 
G01 X-29.12 Y25.75 
G01 X-28.96 Y25.72 
G01 X-28.80 Y25.66 
G01 X-28.66 Y25.56 
G01 X-28.54 Y25.44 
G01 X-28.45 Y25.30 
G01 X-28.38 Y25.14 
G01 X-28.35 Y24.98 
G00 Z1.00 
G00 X-36.66 Y25.76 
G01 Z-0.20 F60.00 
G01 X-37.00 Y25.76 F80.00 
G01 X-37.32 Y25.62 
G01 X-37.56 Y25.38 
G01 X-37.69 Y25.06 
G01 X-37.69 Y23.20 
G01 X-37.56 Y22.88 
G01 X-37.32 Y22.64 
G01 X-37.00 Y22.50 
G01 X-36.66 Y22.50 
G01 X-36.34 Y22.64 
G01 X-36.10 Y22.88 
G01 X-35.97 Y23.20 
G01 X-35.97 Y25.06 
G01 X-36.10 Y25.38 
G01 X-36.34 Y25.62 
G01 X-36.66 Y25.76 
G00 Z1.00 
G00 X-35.97 Y24.98 
G01 Z-0.20 F60.00 
G01 X-35.97 Y23.28 F80.00 
G01 X-36.00 Y23.12 
G01 X-36.07 Y22.96 
G01 X-36.16 Y22.82 
G01 X-36.28 Y22.70 
G01 X-36.42 Y22.60 
G01 X-36.58 Y22.54 
G01 X-36.75 Y22.51 
G01 X-36.91 Y22.51 
G01 X-37.08 Y22.54 
G01 X-37.24 Y22.60 
G01 X-37.38 Y22.70 
G01 X-37.50 Y22.82 
G01 X-37.59 Y22.96 
G01 X-37.66 Y23.12 
G01 X-37.69 Y23.28 
G01 X-37.69 Y24.98 
G01 X-37.66 Y25.14 
G01 X-37.59 Y25.30 
G01 X-37.50 Y25.44 
G01 X-37.38 Y25.56 
G01 X-37.24 Y25.66 
G01 X-37.08 Y25.72 
G01 X-36.91 Y25.75 
G01 X-36.75 Y25.75 
G01 X-36.58 Y25.72 
G01 X-36.42 Y25.66 
G01 X-36.28 Y25.56 
G01 X-36.16 Y25.44 
G01 X-36.07 Y25.30 
G01 X-36.00 Y25.14 
G01 X-35.97 Y24.98 
G00 Z1.00 
G00 X-34.12 Y25.76 
G01 Z-0.20 F60.00 
G01 X-34.46 Y25.76 F80.00 
G01 X-34.78 Y25.62 
G01 X-35.02 Y25.38 
G01 X-35.15 Y25.06 
G01 X-35.15 Y23.20 
G01 X-35.02 Y22.88 
G01 X-34.78 Y22.64 
G01 X-34.46 Y22.50 
G01 X-34.12 Y22.50 
G01 X-33.80 Y22.64 
G01 X-33.56 Y22.88 
G01 X-33.43 Y23.20 
G01 X-33.43 Y25.06 
G01 X-33.56 Y25.38 
G01 X-33.80 Y25.62 
G01 X-34.12 Y25.76 
G00 Z1.00 
G00 X-33.43 Y24.98 
G01 Z-0.20 F60.00 
G01 X-33.43 Y23.28 F80.00 
G01 X-33.46 Y23.12 
G01 X-33.53 Y22.96 
G01 X-33.62 Y22.82 
G01 X-33.74 Y22.70 
G01 X-33.88 Y22.60 
G01 X-34.04 Y22.54 
G01 X-34.20 Y22.51 
G01 X-34.37 Y22.51 
G01 X-34.54 Y22.54 
G01 X-34.70 Y22.60 
G01 X-34.84 Y22.70 
G01 X-34.96 Y22.82 
G01 X-35.05 Y22.96 
G01 X-35.12 Y23.12 
G01 X-35.15 Y23.28 
G01 X-35.15 Y24.98 
G01 X-35.12 Y25.14 
G01 X-35.05 Y25.30 
G01 X-34.96 Y25.44 
G01 X-34.84 Y25.56 
G01 X-34.70 Y25.66 
G01 X-34.54 Y25.72 
G01 X-34.37 Y25.75 
G01 X-34.20 Y25.75 
G01 X-34.04 Y25.72 
G01 X-33.88 Y25.66 
G01 X-33.74 Y25.56 
G01 X-33.62 Y25.44 
G01 X-33.53 Y25.30 
G01 X-33.46 Y25.14 
G01 X-33.43 Y24.98 
G00 Z1.00 
G00 X-31.58 Y25.76 
G01 Z-0.20 F60.00 
G01 X-31.92 Y25.76 F80.00 
G01 X-32.24 Y25.62 
G01 X-32.48 Y25.38 
G01 X-32.61 Y25.06 
G01 X-32.61 Y23.20 
G01 X-32.48 Y22.88 
G01 X-32.24 Y22.64 
G01 X-31.92 Y22.50 
G01 X-31.58 Y22.50 
G01 X-31.26 Y22.64 
G01 X-31.02 Y22.88 
G01 X-30.89 Y23.20 
G01 X-30.89 Y25.06 
G01 X-31.02 Y25.38 
G01 X-31.26 Y25.62 
G01 X-31.58 Y25.76 
G00 Z1.00 
G00 X-30.89 Y24.98 
G01 Z-0.20 F60.00 
G01 X-30.89 Y23.28 F80.00 
G01 X-30.92 Y23.12 
G01 X-30.99 Y22.96 
G01 X-31.08 Y22.82 
G01 X-31.20 Y22.70 
G01 X-31.34 Y22.60 
G01 X-31.50 Y22.54 
G01 X-31.67 Y22.51 
G01 X-31.83 Y22.51 
G01 X-32.00 Y22.54 
G01 X-32.16 Y22.60 
G01 X-32.30 Y22.70 
G01 X-32.42 Y22.82 
G01 X-32.51 Y22.96 
G01 X-32.58 Y23.12 
G01 X-32.61 Y23.28 
G01 X-32.61 Y24.98 
G01 X-32.58 Y25.14 
G01 X-32.51 Y25.30 
G01 X-32.42 Y25.44 
G01 X-32.30 Y25.56 
G01 X-32.16 Y25.66 
G01 X-32.00 Y25.72 
G01 X-31.83 Y25.75 
G01 X-31.67 Y25.75 
G01 X-31.50 Y25.72 
G01 X-31.34 Y25.66 
G01 X-31.20 Y25.56 
G01 X-31.08 Y25.44 
G01 X-30.99 Y25.30 
G01 X-30.92 Y25.14 
G01 X-30.89 Y24.98 
G00 Z1.00 
G00 X-54.49 Y6.34 
G01 Z-0.20 F60.00 
G01 X-53.93 Y6.10 F80.00 
G01 X-53.33 Y6.10 
G01 X-52.77 Y6.34 
G01 X-52.35 Y6.76 
G01 X-52.11 Y7.32 
G01 X-52.11 Y7.92 
G01 X-52.35 Y8.48 
G01 X-52.77 Y8.90 
G01 X-53.33 Y9.13 
G01 X-53.93 Y9.13 
G01 X-54.49 Y8.90 
G01 X-54.91 Y8.48 
G01 X-55.14 Y7.92 
G01 X-55.14 Y7.32 
G01 X-54.91 Y6.76 
G01 X-54.49 Y6.34 
G00 Z1.00 
G00 X-84.35 Y6.34 
G01 Z-0.20 F60.00 
G01 X-83.79 Y6.10 F80.00 
G01 X-83.19 Y6.10 
G01 X-82.63 Y6.34 
G01 X-82.21 Y6.76 
G01 X-81.97 Y7.32 
G01 X-81.97 Y7.92 
G01 X-82.21 Y8.48 
G01 X-82.63 Y8.90 
G01 X-83.19 Y9.13 
G01 X-83.79 Y9.13 
G01 X-84.35 Y8.90 
G01 X-84.77 Y8.48 
G01 X-85.00 Y7.92 
G01 X-85.00 Y7.32 
G01 X-84.77 Y6.76 
G01 X-84.35 Y6.34 
G00 Z1.00 
G00 X-74.44 Y25.62 
G01 Z-0.20 F60.00 
G01 X-74.76 Y25.76 F80.00 
G01 X-75.10 Y25.76 
G01 X-75.42 Y25.62 
G01 X-75.66 Y25.38 
G01 X-75.79 Y25.06 
G01 X-75.79 Y23.20 
G01 X-75.66 Y22.88 
G01 X-75.42 Y22.64 
G01 X-75.10 Y22.50 
G01 X-74.76 Y22.50 
G01 X-74.44 Y22.64 
G01 X-74.20 Y22.88 
G01 X-74.07 Y23.20 
G01 X-74.07 Y25.06 
G01 X-74.20 Y25.38 
G01 X-74.44 Y25.62 
G00 Z1.00 
G00 X-74.07 Y24.98 
G01 Z-0.20 F60.00 
G01 X-74.07 Y23.28 F80.00 
G01 X-74.10 Y23.12 
G01 X-74.17 Y22.96 
G01 X-74.26 Y22.82 
G01 X-74.38 Y22.70 
G01 X-74.52 Y22.60 
G01 X-74.68 Y22.54 
G01 X-74.84 Y22.51 
G01 X-75.01 Y22.51 
G01 X-75.18 Y22.54 
G01 X-75.34 Y22.60 
G01 X-75.48 Y22.70 
G01 X-75.60 Y22.82 
G01 X-75.69 Y22.96 
G01 X-75.76 Y23.12 
G01 X-75.79 Y23.28 
G01 X-75.79 Y24.98 
G01 X-75.76 Y25.14 
G01 X-75.69 Y25.30 
G01 X-75.60 Y25.44 
G01 X-75.48 Y25.56 
G01 X-75.34 Y25.66 
G01 X-75.18 Y25.72 
G01 X-75.01 Y25.75 
G01 X-74.84 Y25.75 
G01 X-74.68 Y25.72 
G01 X-74.52 Y25.66 
G01 X-74.38 Y25.56 
G01 X-74.26 Y25.44 
G01 X-74.17 Y25.30 
G01 X-74.10 Y25.14 
G01 X-74.07 Y24.98 
G00 Z1.00 
G00 X-82.38 Y25.76 
G01 Z-0.20 F60.00 
G01 X-82.72 Y25.76 F80.00 
G01 X-83.04 Y25.62 
G01 X-83.28 Y25.38 
G01 X-83.41 Y25.06 
G01 X-83.41 Y23.20 
G01 X-83.28 Y22.88 
G01 X-83.04 Y22.64 
G01 X-82.72 Y22.50 
G01 X-82.38 Y22.50 
G01 X-82.06 Y22.64 
G01 X-81.82 Y22.88 
G01 X-81.69 Y23.20 
G01 X-81.69 Y25.06 
G01 X-81.82 Y25.38 
G01 X-82.06 Y25.62 
G01 X-82.38 Y25.76 
G00 Z1.00 
G00 X-81.69 Y24.98 
G01 Z-0.20 F60.00 
G01 X-81.69 Y23.28 F80.00 
G01 X-81.72 Y23.12 
G01 X-81.79 Y22.96 
G01 X-81.88 Y22.82 
G01 X-82.00 Y22.70 
G01 X-82.14 Y22.60 
G01 X-82.30 Y22.54 
G01 X-82.47 Y22.51 
G01 X-82.63 Y22.51 
G01 X-82.80 Y22.54 
G01 X-82.96 Y22.60 
G01 X-83.10 Y22.70 
G01 X-83.22 Y22.82 
G01 X-83.31 Y22.96 
G01 X-83.38 Y23.12 
G01 X-83.41 Y23.28 
G01 X-83.41 Y24.98 
G01 X-83.38 Y25.14 
G01 X-83.31 Y25.30 
G01 X-83.22 Y25.44 
G01 X-83.10 Y25.56 
G01 X-82.96 Y25.66 
G01 X-82.80 Y25.72 
G01 X-82.63 Y25.75 
G01 X-82.47 Y25.75 
G01 X-82.30 Y25.72 
G01 X-82.14 Y25.66 
G01 X-82.00 Y25.56 
G01 X-81.88 Y25.44 
G01 X-81.79 Y25.30 
G01 X-81.72 Y25.14 
G01 X-81.69 Y24.98 
G00 Z1.00 
G00 X-79.84 Y25.76 
G01 Z-0.20 F60.00 
G01 X-80.18 Y25.76 F80.00 
G01 X-80.50 Y25.62 
G01 X-80.74 Y25.38 
G01 X-80.87 Y25.06 
G01 X-80.87 Y23.20 
G01 X-80.74 Y22.88 
G01 X-80.50 Y22.64 
G01 X-80.18 Y22.50 
G01 X-79.84 Y22.50 
G01 X-79.52 Y22.64 
G01 X-79.28 Y22.88 
G01 X-79.15 Y23.20 
G01 X-79.15 Y25.06 
G01 X-79.28 Y25.38 
G01 X-79.52 Y25.62 
G01 X-79.84 Y25.76 
G00 Z1.00 
G00 X-79.15 Y24.98 
G01 Z-0.20 F60.00 
G01 X-79.15 Y23.28 F80.00 
G01 X-79.18 Y23.12 
G01 X-79.25 Y22.96 
G01 X-79.34 Y22.82 
G01 X-79.46 Y22.70 
G01 X-79.60 Y22.60 
G01 X-79.76 Y22.54 
G01 X-79.92 Y22.51 
G01 X-80.09 Y22.51 
G01 X-80.26 Y22.54 
G01 X-80.42 Y22.60 
G01 X-80.56 Y22.70 
G01 X-80.68 Y22.82 
G01 X-80.77 Y22.96 
G01 X-80.84 Y23.12 
G01 X-80.87 Y23.28 
G01 X-80.87 Y24.98 
G01 X-80.84 Y25.14 
G01 X-80.77 Y25.30 
G01 X-80.68 Y25.44 
G01 X-80.56 Y25.56 
G01 X-80.42 Y25.66 
G01 X-80.26 Y25.72 
G01 X-80.09 Y25.75 
G01 X-79.92 Y25.75 
G01 X-79.76 Y25.72 
G01 X-79.60 Y25.66 
G01 X-79.46 Y25.56 
G01 X-79.34 Y25.44 
G01 X-79.25 Y25.30 
G01 X-79.18 Y25.14 
G01 X-79.15 Y24.98 
G00 Z1.00 
G00 X-77.30 Y25.76 
G01 Z-0.20 F60.00 
G01 X-77.64 Y25.76 F80.00 
G01 X-77.96 Y25.62 
G01 X-78.20 Y25.38 
G01 X-78.33 Y25.06 
G01 X-78.33 Y23.20 
G01 X-78.20 Y22.88 
G01 X-77.96 Y22.64 
G01 X-77.64 Y22.50 
G01 X-77.30 Y22.50 
G01 X-76.98 Y22.64 
G01 X-76.74 Y22.88 
G01 X-76.61 Y23.20 
G01 X-76.61 Y25.06 
G01 X-76.74 Y25.38 
G01 X-76.98 Y25.62 
G01 X-77.30 Y25.76 
G00 Z1.00 
G00 X-76.61 Y24.98 
G01 Z-0.20 F60.00 
G01 X-76.61 Y23.28 F80.00 
G01 X-76.64 Y23.12 
G01 X-76.71 Y22.96 
G01 X-76.80 Y22.82 
G01 X-76.92 Y22.70 
G01 X-77.06 Y22.60 
G01 X-77.22 Y22.54 
G01 X-77.39 Y22.51 
G01 X-77.55 Y22.51 
G01 X-77.72 Y22.54 
G01 X-77.88 Y22.60 
G01 X-78.02 Y22.70 
G01 X-78.14 Y22.82 
G01 X-78.23 Y22.96 
G01 X-78.30 Y23.12 
G01 X-78.33 Y23.28 
G01 X-78.33 Y24.98 
G01 X-78.30 Y25.14 
G01 X-78.23 Y25.30 
G01 X-78.14 Y25.44 
G01 X-78.02 Y25.56 
G01 X-77.88 Y25.66 
G01 X-77.72 Y25.72 
G01 X-77.55 Y25.75 
G01 X-77.39 Y25.75 
G01 X-77.22 Y25.72 
G01 X-77.06 Y25.66 
G01 X-76.92 Y25.56 
G01 X-76.80 Y25.44 
G01 X-76.71 Y25.30 
G01 X-76.64 Y25.14 
G01 X-76.61 Y24.98 
G00 Z1.00 
G00 X-1.12 Y1.38 
G01 Z-0.20 F60.00 
G01 X-1.14 Y1.30 F80.00 
G01 X-1.18 Y1.24 
G01 X-1.24 Y1.18 
G01 X-1.30 Y1.14 
G01 X-1.38 Y1.12 
G01 X-90.06 Y1.12 
G01 X-90.14 Y1.14 
G01 X-90.20 Y1.18 
G01 X-90.26 Y1.24 
G01 X-90.30 Y1.30 
G01 X-90.32 Y1.38 
G01 X-90.32 Y27.83 
G01 X-90.30 Y27.91 
G01 X-90.26 Y27.97 
G01 X-90.20 Y28.03 
G01 X-90.14 Y28.07 
G01 X-90.06 Y28.09 
G01 X-1.38 Y28.09 
G01 X-1.30 Y28.07 
G01 X-1.24 Y28.03 
G01 X-1.18 Y27.97 
G01 X-1.14 Y27.91 
G01 X-1.12 Y27.83 
G01 X-1.12 Y27.75 
G01 X-1.12 Y1.38 
G00 Z1.00 
G00 Z2.00 
M05
M02
