(.../pcb-gcode-3.6.0.4/pcb-gcode.ulp)
(Copyright 2005 - 2012 by John Johnson)
(See readme.txt for licensing terms.)
(This file generated from the board:)
(.../Sydney/Desktop/BreakoutTRRS.brd)
(Current profile is .../pcb-gcode-3.6.0.4/profiles/imodela.pp  )
(This file generated 8/3/16 11:55 AM)
(Settings from pcb-machine.h)
(  Tool Size)
(0.20 )
(Z Axis Settings)
(  High     Up        Down     Drill)
(2.00 	1.00 	-0.20 	-1.70 )
(spindle on time = 1.0000)
(milling depth = -0.2000)
(text depth = -0.1270)
(tool change at 0.00 0.00 10.00 )
(feed rate xy = F80.00 )
(feed rate z  = F60.00 )
(Settings from pcb-defaults.h)
(isolate min = 0.0010)
(isolate max = 0.2000)
(isolate step = 0.2000)
(Generated bottom outlines, bottom drill, )
(Unit of measure: mm)
( Tool|       Size       |  Min Sub |  Max Sub |   Count )
( T01  1.016mm 0.0400in 0.0000in 0.0000in )
( T02  1.200mm 0.0472in 0.0000in 0.0000in )
(Metric Mode)
G21
(Absolute Coordinates)
G90
M05
G00 Z10.00 
G00 X0.00 Y0.00 
(M06 T01  ; 1.02 )
G01 Z0.00 F60.00 
(M06 T01  ; 1.02 )
G00 Z1.00 
M03
G04 P 1
G00 Z1.000000
G00 X-31.75 Y24.13 
G01 Z-1.70 F60.00 
G01 Z1.000000
(R1.00  P1.000000)
(G00 Z1.000000)
G00 X-34.29 Y24.13 
G01 Z-1.700000
G01 Z1.000000
(G00 Z1.000000)
G00 X-36.83 Y24.13 
G01 Z-1.700000
G01 Z1.000000
(G00 Z1.000000)
G00 X-52.07 Y24.13 
G01 Z-1.700000
G01 Z1.000000
(G00 Z1.000000)
G00 X-54.61 Y24.13 
G01 Z-1.700000
G01 Z1.000000
(G00 Z1.000000)
G00 X-57.15 Y24.13 
G01 Z-1.700000
G01 Z1.000000
(G00 Z1.000000)
G00 X-59.69 Y24.13 
G01 Z-1.700000
G01 Z1.000000
(G00 Z1.000000)
G00 X-6.35 Y24.13 
G01 Z-1.700000
G01 Z1.000000
(G00 Z1.000000)
G00 X-74.93 Y24.13 
G01 Z-1.700000
G01 Z1.000000
(G00 Z1.000000)
G00 X-77.47 Y24.13 
G01 Z-1.700000
G01 Z1.000000
(G00 Z1.000000)
G00 X-80.01 Y24.13 
G01 Z-1.700000
G01 Z1.000000
(G00 Z1.000000)
G00 X-82.55 Y24.13 
G01 Z-1.700000
G01 Z1.000000
(G00 Z1.000000)
G00 X-8.89 Y24.13 
G01 Z-1.700000
G01 Z1.000000
(G00 Z1.000000)
G00 X-11.43 Y24.13 
G01 Z-1.700000
G01 Z1.000000
(G00 Z1.000000)
G00 X-13.97 Y24.13 
G01 Z-1.700000
G01 Z1.000000
(G00 Z1.000000)
G00 X-29.21 Y24.13 
G01 Z-1.700000
G01 Z1.000000
M05
G00 Z10.00 
(M06 T02  ; 1.20 )
G01 Z0.00 F60.00 
(M06 T02  ; 1.20 )
G00 Z1.00 
M03
G04 P 1
G00 Z1.000000
G00 X-37.77 Y7.62 
G01 Z-1.70 F60.00 
G01 Z1.000000
(R1.00  P1.000000)
(G00 Z1.000000)
G00 X-53.63 Y7.62 
G01 Z-1.700000
G01 Z1.000000
(G00 Z1.000000)
G00 X-60.63 Y7.62 
G01 Z-1.700000
G01 Z1.000000
(G00 Z1.000000)
G00 X-76.49 Y7.62 
G01 Z-1.700000
G01 Z1.000000
(G00 Z1.000000)
G00 X-7.91 Y7.62 
G01 Z-1.700000
G01 Z1.000000
(G00 Z1.000000)
G00 X-83.49 Y7.62 
G01 Z-1.700000
G01 Z1.000000
(G00 Z1.000000)
G00 X-14.91 Y7.62 
G01 Z-1.700000
G01 Z1.000000
(G00 Z1.000000)
G00 X-30.77 Y7.62 
G01 Z-1.700000
G01 Z1.000000
T01 
G00 Z2.00 
M05
M02
