(.../pcb-gcode-3.6.0.4/pcb-gcode.ulp)
(Copyright 2005 - 2012 by John Johnson)
(See readme.txt for licensing terms.)
(This file generated from the board:)
(.../piezo-jfet-buffer-simple-4x-one-sided.brd)
(Current profile is .../pcb-gcode-3.6.0.4/profiles/imodela.pp  )
(This file generated 1/25/15 5:45 PM)
(Settings from pcb-machine.h)
(  Tool Size)
(0.02 )
(Z Axis Settings)
(  High     Up        Down     Drill)
(0.50 	0.10 	-0.01 	-0.08 )
(spindle on time = 3.0000)
(milling depth = -0.0100)
(text depth = -0.0050)
(tool change at 0.50 0.60 1.00 )
(feed rate xy = F10.00 )
(feed rate z  = F10.00 )
(Settings from pcb-defaults.h)
(isolate min = 0.0010)
(isolate max = 0.0200)
(isolate step = 0.0050)
(Generated bottom outlines, bottom drill, )
(Unit of measure: inch)
( Tool|       Size       |  Min Sub |  Max Sub |   Count )
( T01  0.700mm 0.0276in 0.0000in 0.0000in )
( T02  0.813mm 0.0320in 0.0000in 0.0000in )
( T03  1.016mm 0.0400in 0.0000in 0.0000in )
(Inch Mode)
G20
(Absolute Coordinates)
G90
M05
G00 Z1.00 
G00 X0.50 Y0.60 
(M06 T01  ; 0.03 )
G01 Z0.00 F10.00 
(M06 T01  ; 0.03 )
G00 Z0.10 
M03
G04 P 3
G00 Z0.100000
G00 X-1.40 Y0.80 
G01 Z-0.08 F10.00 
G01 Z0.100000
(R0.10  P1.000000)
(G00 Z0.100000)
G00 X-1.40 Y0.90 
G01 Z-0.080000
G01 Z0.100000
(G00 Z0.100000)
G00 X-0.20 Y0.80 
G01 Z-0.080000
G01 Z0.100000
(G00 Z0.100000)
G00 X-0.20 Y0.90 
G01 Z-0.080000
G01 Z0.100000
(G00 Z0.100000)
G00 X-0.60 Y0.80 
G01 Z-0.080000
G01 Z0.100000
(G00 Z0.100000)
G00 X-0.60 Y0.90 
G01 Z-0.080000
G01 Z0.100000
(G00 Z0.100000)
G00 X-1.00 Y0.80 
G01 Z-0.080000
G01 Z0.100000
(G00 Z0.100000)
G00 X-1.00 Y0.90 
G01 Z-0.080000
G01 Z0.100000
M05
G00 Z1.00 
(M06 T02  ; 0.03 )
G01 Z0.00 F10.00 
(M06 T02  ; 0.03 )
G00 Z0.10 
M03
G04 P 3
G00 Z0.100000
G00 X-1.40 Y1.00 
G01 Z-0.08 F10.00 
G01 Z0.100000
(R0.10  P1.000000)
(G00 Z0.100000)
G00 X-1.40 Y1.10 
G01 Z-0.080000
G01 Z0.100000
(G00 Z0.100000)
G00 X-1.40 Y1.20 
G01 Z-0.080000
G01 Z0.100000
(G00 Z0.100000)
G00 X-1.60 Y1.30 
G01 Z-0.080000
G01 Z0.100000
(G00 Z0.100000)
G00 X-1.60 Y0.70 
G01 Z-0.080000
G01 Z0.100000
(G00 Z0.100000)
G00 X-1.60 Y1.00 
G01 Z-0.080000
G01 Z0.100000
(G00 Z0.100000)
G00 X-1.60 Y1.10 
G01 Z-0.080000
G01 Z0.100000
(G00 Z0.100000)
G00 X-0.20 Y1.00 
G01 Z-0.080000
G01 Z0.100000
(G00 Z0.100000)
G00 X-0.20 Y1.10 
G01 Z-0.080000
G01 Z0.100000
(G00 Z0.100000)
G00 X-0.20 Y1.20 
G01 Z-0.080000
G01 Z0.100000
(G00 Z0.100000)
G00 X-0.40 Y1.30 
G01 Z-0.080000
G01 Z0.100000
(G00 Z0.100000)
G00 X-0.40 Y0.70 
G01 Z-0.080000
G01 Z0.100000
(G00 Z0.100000)
G00 X-0.40 Y1.00 
G01 Z-0.080000
G01 Z0.100000
(G00 Z0.100000)
G00 X-0.40 Y1.10 
G01 Z-0.080000
G01 Z0.100000
(G00 Z0.100000)
G00 X-0.60 Y1.00 
G01 Z-0.080000
G01 Z0.100000
(G00 Z0.100000)
G00 X-0.60 Y1.10 
G01 Z-0.080000
G01 Z0.100000
(G00 Z0.100000)
G00 X-0.60 Y1.20 
G01 Z-0.080000
G01 Z0.100000
(G00 Z0.100000)
G00 X-0.80 Y1.30 
G01 Z-0.080000
G01 Z0.100000
(G00 Z0.100000)
G00 X-0.80 Y0.70 
G01 Z-0.080000
G01 Z0.100000
(G00 Z0.100000)
G00 X-0.80 Y1.00 
G01 Z-0.080000
G01 Z0.100000
(G00 Z0.100000)
G00 X-0.80 Y1.10 
G01 Z-0.080000
G01 Z0.100000
(G00 Z0.100000)
G00 X-1.00 Y1.00 
G01 Z-0.080000
G01 Z0.100000
(G00 Z0.100000)
G00 X-1.00 Y1.10 
G01 Z-0.080000
G01 Z0.100000
(G00 Z0.100000)
G00 X-1.00 Y1.20 
G01 Z-0.080000
G01 Z0.100000
(G00 Z0.100000)
G00 X-1.20 Y1.30 
G01 Z-0.080000
G01 Z0.100000
(G00 Z0.100000)
G00 X-1.20 Y0.70 
G01 Z-0.080000
G01 Z0.100000
(G00 Z0.100000)
G00 X-1.20 Y1.00 
G01 Z-0.080000
G01 Z0.100000
(G00 Z0.100000)
G00 X-1.20 Y1.10 
G01 Z-0.080000
G01 Z0.100000
M05
G00 Z1.00 
(M06 T03  ; 0.04 )
G01 Z0.00 F10.00 
(M06 T03  ; 0.04 )
G00 Z0.10 
M03
G04 P 3
G00 Z0.100000
G00 X-1.30 Y1.46 
G01 Z-0.08 F10.00 
G01 Z0.100000
(R0.10  P1.000000)
(G00 Z0.100000)
G00 X-1.40 Y0.45 
G01 Z-0.080000
G01 Z0.100000
(G00 Z0.100000)
G00 X-1.44 Y0.15 
G01 Z-0.080000
G01 Z0.100000
(G00 Z0.100000)
G00 X-1.45 Y1.46 
G01 Z-0.080000
G01 Z0.100000
(G00 Z0.100000)
G00 X-0.15 Y1.45 
G01 Z-0.080000
G01 Z0.100000
(G00 Z0.100000)
G00 X-1.50 Y0.45 
G01 Z-0.080000
G01 Z0.100000
(G00 Z0.100000)
G00 X-1.55 Y1.45 
G01 Z-0.080000
G01 Z0.100000
(G00 Z0.100000)
G00 X-1.56 Y0.15 
G01 Z-0.080000
G01 Z0.100000
(G00 Z0.100000)
G00 X-1.60 Y0.45 
G01 Z-0.080000
G01 Z0.100000
(G00 Z0.100000)
G00 X-1.65 Y1.46 
G01 Z-0.080000
G01 Z0.100000
(G00 Z0.100000)
G00 X-0.20 Y0.45 
G01 Z-0.080000
G01 Z0.100000
(G00 Z0.100000)
G00 X-0.24 Y0.15 
G01 Z-0.080000
G01 Z0.100000
(G00 Z0.100000)
G00 X-0.25 Y1.45 
G01 Z-0.080000
G01 Z0.100000
(G00 Z0.100000)
G00 X-0.30 Y0.45 
G01 Z-0.080000
G01 Z0.100000
(G00 Z0.100000)
G00 X-0.36 Y0.15 
G01 Z-0.080000
G01 Z0.100000
(G00 Z0.100000)
G00 X-0.40 Y1.46 
G01 Z-0.080000
G01 Z0.100000
(G00 Z0.100000)
G00 X-0.40 Y0.45 
G01 Z-0.080000
G01 Z0.100000
(G00 Z0.100000)
G00 X-0.50 Y1.45 
G01 Z-0.080000
G01 Z0.100000
(G00 Z0.100000)
G00 X-0.60 Y1.46 
G01 Z-0.080000
G01 Z0.100000
(G00 Z0.100000)
G00 X-0.60 Y0.45 
G01 Z-0.080000
G01 Z0.100000
(G00 Z0.100000)
G00 X-0.64 Y0.15 
G01 Z-0.080000
G01 Z0.100000
(G00 Z0.100000)
G00 X-0.70 Y0.45 
G01 Z-0.080000
G01 Z0.100000
(G00 Z0.100000)
G00 X-0.75 Y1.46 
G01 Z-0.080000
G01 Z0.100000
(G00 Z0.100000)
G00 X-0.76 Y0.15 
G01 Z-0.080000
G01 Z0.100000
(G00 Z0.100000)
G00 X-0.80 Y0.45 
G01 Z-0.080000
G01 Z0.100000
(G00 Z0.100000)
G00 X-0.85 Y1.45 
G01 Z-0.080000
G01 Z0.100000
(G00 Z0.100000)
G00 X-0.95 Y1.46 
G01 Z-0.080000
G01 Z0.100000
(G00 Z0.100000)
G00 X-1.00 Y0.45 
G01 Z-0.080000
G01 Z0.100000
(G00 Z0.100000)
G00 X-1.04 Y0.15 
G01 Z-0.080000
G01 Z0.100000
(G00 Z0.100000)
G00 X-1.10 Y1.46 
G01 Z-0.080000
G01 Z0.100000
(G00 Z0.100000)
G00 X-1.10 Y0.45 
G01 Z-0.080000
G01 Z0.100000
(G00 Z0.100000)
G00 X-1.16 Y0.15 
G01 Z-0.080000
G01 Z0.100000
(G00 Z0.100000)
G00 X-1.20 Y1.45 
G01 Z-0.080000
G01 Z0.100000
(G00 Z0.100000)
G00 X-1.20 Y0.45 
G01 Z-0.080000
G01 Z0.100000
T01 
G00 Z0.50 
M05
M02
