(.../pcb-gcode-3.6.0.4/pcb-gcode.ulp)
(Copyright 2005 - 2012 by John Johnson)
(See readme.txt for licensing terms.)
(This file generated from the board:)
(.../Copperclad_CooperBuffer_Amp_V0-3.brd)
(Current profile is .../pcb-gcode-3.6.0.4/profiles/imodela.pp  )
(This file generated 8/4/16 11:42 AM)
(Settings from pcb-machine.h)
(  Tool Size)
(0.20 )
(Z Axis Settings)
(  High     Up        Down     Drill)
(2.00 	1.00 	-0.20 	-1.80 )
(spindle on time = 1.0000)
(milling depth = -0.2000)
(text depth = -0.1270)
(tool change at 0.00 0.00 10.00 )
(feed rate xy = F80.00 )
(feed rate z  = F60.00 )
(Settings from pcb-defaults.h)
(isolate min = 0.0010)
(isolate max = 0.2000)
(isolate step = 0.2000)
(Generated bottom outlines, bottom drill, )
(Unit of measure: mm)
(Metric Mode)
G21
(Absolute Coordinates)
G90
G00 X0.00 Y0.00 
M03
G04 P 1
G00 Z1.00 
G00 X-47.24 Y40.52 
G01 Z-0.20 F60.00 
G01 X-47.13 Y40.41 F80.00 
G01 X-47.07 Y40.38 
G01 X-47.15 Y40.43 
G01 X-47.22 Y40.50 
G01 X-47.27 Y40.58 
G01 X-47.24 Y40.52 
G00 Z1.00 
G00 X-21.25 Y17.60 
G01 Z-0.20 F60.00 
G01 X-20.78 Y18.08 F80.00 
G01 X-20.78 Y18.11 
G01 X-20.83 Y18.11 
G01 X-20.83 Y18.10 
G01 X-21.27 Y17.65 
G01 X-21.29 Y17.65 
G01 X-21.29 Y17.60 
G01 X-21.25 Y17.60 
G00 Z1.00 
G00 X-22.35 Y18.10 
G01 Z-0.20 F60.00 
G01 X-22.35 Y18.11 F80.00 
G01 X-22.40 Y18.11 
G01 X-22.40 Y18.08 
G01 X-21.93 Y17.60 
G01 X-21.89 Y17.60 
G01 X-21.89 Y17.65 
G01 X-21.91 Y17.65 
G01 X-22.35 Y18.10 
G00 Z1.00 
G00 X-22.35 Y18.73 
G01 Z-0.20 F60.00 
G01 X-21.91 Y19.18 F80.00 
G01 X-21.89 Y19.18 
G01 X-21.89 Y19.23 
G01 X-21.93 Y19.23 
G01 X-22.40 Y18.75 
G01 X-22.40 Y18.72 
G01 X-22.35 Y18.72 
G01 X-22.35 Y18.73 
G00 Z1.00 
G00 X-20.78 Y18.75 
G01 Z-0.20 F60.00 
G01 X-21.25 Y19.23 F80.00 
G01 X-21.29 Y19.23 
G01 X-21.29 Y19.18 
G01 X-21.27 Y19.18 
G01 X-20.83 Y18.73 
G01 X-20.83 Y18.72 
G01 X-20.78 Y18.72 
G01 X-20.78 Y18.75 
G00 Z1.00 
G00 X-47.87 Y13.65 
G01 Z-0.20 F60.00 
G01 X-47.31 Y14.21 F80.00 
G01 X-47.31 Y14.30 
G01 X-47.36 Y14.30 
G01 X-47.36 Y14.23 
G01 X-47.89 Y13.70 
G01 X-47.96 Y13.70 
G01 X-47.96 Y13.65 
G01 X-47.87 Y13.65 
G00 Z1.00 
G00 X-49.16 Y14.23 
G01 Z-0.20 F60.00 
G01 X-49.16 Y14.30 F80.00 
G01 X-49.21 Y14.30 
G01 X-49.21 Y14.21 
G01 X-48.65 Y13.65 
G01 X-48.56 Y13.65 
G01 X-48.56 Y13.70 
G01 X-48.63 Y13.70 
G01 X-49.16 Y14.23 
G00 Z1.00 
G00 X-49.16 Y14.98 
G01 Z-0.20 F60.00 
G01 X-48.63 Y15.51 F80.00 
G01 X-48.56 Y15.51 
G01 X-48.56 Y15.56 
G01 X-48.65 Y15.56 
G01 X-49.21 Y15.00 
G01 X-49.21 Y14.91 
G01 X-49.16 Y14.91 
G01 X-49.16 Y14.98 
G00 Z1.00 
G00 X-47.31 Y15.00 
G01 Z-0.20 F60.00 
G01 X-47.87 Y15.56 F80.00 
G01 X-47.96 Y15.56 
G01 X-47.96 Y15.51 
G01 X-47.89 Y15.51 
G01 X-47.36 Y14.98 
G01 X-47.36 Y14.91 
G01 X-47.31 Y14.91 
G01 X-47.31 Y15.00 
G00 Z1.00 
G00 X-2.93 Y14.83 
G01 Z-0.20 F60.00 
G01 X-2.86 Y15.00 F80.00 
G01 X-2.92 Y14.87 
G01 X-3.02 Y14.74 
G01 X-3.13 Y14.62 
G01 X-3.26 Y14.53 
G01 X-3.39 Y14.46 
G01 X-3.22 Y14.53 
G01 X-2.93 Y14.83 
G00 Z1.00 
G00 X-3.60 Y14.38 
G01 Z-0.20 F60.00 
G01 X-3.43 Y14.45 F80.00 
G01 X-3.57 Y14.40 
G01 X-3.73 Y14.38 
G01 X-3.89 Y14.38 
G01 X-4.05 Y14.40 
G01 X-4.19 Y14.45 
G01 X-4.02 Y14.38 
G01 X-3.60 Y14.38 
G00 Z1.00 
G00 X-4.40 Y14.53 
G01 Z-0.20 F60.00 
G01 X-4.23 Y14.46 F80.00 
G01 X-4.36 Y14.53 
G01 X-4.49 Y14.62 
G01 X-4.60 Y14.74 
G01 X-4.70 Y14.87 
G01 X-4.76 Y15.00 
G01 X-4.69 Y14.83 
G01 X-4.40 Y14.53 
G00 Z1.00 
G00 X-3.39 Y11.51 
G01 Z-0.20 F60.00 
G01 X-3.24 Y11.59 F80.00 
G01 X-3.10 Y11.69 
G01 X-2.98 Y11.81 
G01 X-2.88 Y11.95 
G01 X-2.80 Y12.10 
G01 X-2.78 Y12.17 
G01 X-2.83 Y12.17 
G01 X-2.85 Y12.12 
G01 X-2.92 Y11.98 
G01 X-3.02 Y11.84 
G01 X-3.13 Y11.73 
G01 X-3.26 Y11.63 
G01 X-3.41 Y11.56 
G01 X-3.45 Y11.54 
G01 X-3.45 Y11.49 
G01 X-3.39 Y11.51 
G00 Z1.00 
G00 X-4.64 Y11.81 
G01 Z-0.20 F60.00 
G01 X-4.52 Y11.69 F80.00 
G01 X-4.38 Y11.59 
G01 X-4.23 Y11.51 
G01 X-4.16 Y11.49 
G01 X-4.16 Y11.54 
G01 X-4.21 Y11.56 
G01 X-4.36 Y11.63 
G01 X-4.49 Y11.73 
G01 X-4.60 Y11.84 
G01 X-4.70 Y11.98 
G01 X-4.77 Y12.12 
G01 X-4.79 Y12.17 
G01 X-4.84 Y12.17 
G01 X-4.82 Y12.10 
G01 X-4.74 Y11.95 
G01 X-4.64 Y11.81 
G00 Z1.00 
G00 X-4.77 Y12.92 
G01 Z-0.20 F60.00 
G01 X-4.70 Y13.07 F80.00 
G01 X-4.60 Y13.20 
G01 X-4.49 Y13.32 
G01 X-4.36 Y13.41 
G01 X-4.21 Y13.49 
G01 X-4.16 Y13.50 
G01 X-4.16 Y13.56 
G01 X-4.23 Y13.53 
G01 X-4.38 Y13.46 
G01 X-4.52 Y13.36 
G01 X-4.64 Y13.23 
G01 X-4.74 Y13.09 
G01 X-4.82 Y12.94 
G01 X-4.84 Y12.88 
G01 X-4.79 Y12.88 
G01 X-4.77 Y12.92 
G00 Z1.00 
G00 X-2.80 Y12.94 
G01 Z-0.20 F60.00 
G01 X-2.88 Y13.09 F80.00 
G01 X-2.98 Y13.23 
G01 X-3.10 Y13.36 
G01 X-3.24 Y13.46 
G01 X-3.39 Y13.53 
G01 X-3.45 Y13.56 
G01 X-3.45 Y13.50 
G01 X-3.41 Y13.49 
G01 X-3.26 Y13.41 
G01 X-3.13 Y13.32 
G01 X-3.02 Y13.20 
G01 X-2.92 Y13.07 
G01 X-2.85 Y12.92 
G01 X-2.83 Y12.88 
G01 X-2.78 Y12.88 
G01 X-2.80 Y12.94 
G00 Z1.00 
G00 X-4.85 Y15.21 
G01 Z-0.20 F60.00 
G01 X-4.78 Y15.04 F80.00 
G01 X-4.83 Y15.17 
G01 X-4.85 Y15.34 
G01 X-4.85 Y15.50 
G01 X-4.83 Y15.66 
G01 X-4.78 Y15.79 
G01 X-4.85 Y15.63 
G01 X-4.85 Y15.21 
G00 Z1.00 
G00 X-4.69 Y16.01 
G01 Z-0.20 F60.00 
G01 X-4.76 Y15.84 F80.00 
G01 X-4.70 Y15.96 
G01 X-4.60 Y16.10 
G01 X-4.49 Y16.21 
G01 X-4.36 Y16.31 
G01 X-4.23 Y16.37 
G01 X-4.40 Y16.30 
G01 X-4.69 Y16.01 
G00 Z1.00 
G00 X-23.81 Y17.65 
G01 Z-0.20 F60.00 
G01 X-23.37 Y18.10 F80.00 
G01 X-23.37 Y18.73 
G01 X-23.81 Y19.18 
G01 X-24.45 Y19.18 
G01 X-24.89 Y18.73 
G01 X-24.89 Y18.23 
G01 X-24.89 Y18.22 
G01 X-24.89 Y18.73 
G01 X-24.45 Y19.18 
G01 X-23.81 Y19.18 
G01 X-23.37 Y18.73 
G01 X-23.37 Y18.10 
G01 X-23.81 Y17.65 
G01 X-24.06 Y17.65 
G01 X-24.06 Y17.65 
G01 X-23.81 Y17.65 
G00 Z1.00 
G00 X-1.60 Y17.20 
G01 Z-0.20 F60.00 
G01 X-1.62 Y17.11 F80.00 
G01 X-1.60 Y17.17 
G01 X-1.60 Y33.83 
G01 X-1.62 Y33.89 
G01 X-1.60 Y33.80 
G01 X-1.60 Y22.81 
G01 X-1.60 Y17.20 
G00 Z1.00 
G00 X-27.18 Y30.10 
G01 Z-0.20 F60.00 
G01 X-27.18 Y29.74 F80.00 
G01 X-27.21 Y29.60 
G01 X-27.27 Y29.46 
G01 X-27.35 Y29.33 
G01 X-27.45 Y29.23 
G01 X-27.58 Y29.14 
G01 X-27.72 Y29.09 
G01 X-27.87 Y29.06 
G01 X-28.01 Y29.06 
G01 X-28.16 Y29.09 
G01 X-28.30 Y29.14 
G01 X-28.43 Y29.23 
G01 X-28.53 Y29.33 
G01 X-28.61 Y29.46 
G01 X-28.67 Y29.60 
G01 X-28.70 Y29.74 
G01 X-28.70 Y31.22 
G01 X-28.67 Y31.36 
G01 X-28.61 Y31.50 
G01 X-28.53 Y31.63 
G01 X-28.43 Y31.73 
G01 X-28.30 Y31.82 
G01 X-28.16 Y31.87 
G01 X-28.01 Y31.90 
G01 X-27.87 Y31.90 
G01 X-27.72 Y31.87 
G01 X-27.58 Y31.82 
G01 X-27.45 Y31.73 
G01 X-27.35 Y31.63 
G01 X-27.27 Y31.50 
G01 X-27.21 Y31.36 
G01 X-27.18 Y31.22 
G01 X-27.18 Y30.90 
G01 X-25.94 Y30.90 
G01 X-25.85 Y30.88 
G01 X-25.91 Y30.90 
G01 X-26.91 Y30.90 
G01 X-26.99 Y30.92 
G01 X-27.06 Y30.96 
G01 X-27.12 Y31.02 
G01 X-27.16 Y31.09 
G01 X-27.18 Y31.17 
G01 X-27.18 Y31.29 
G01 X-27.29 Y31.57 
G01 X-27.51 Y31.79 
G01 X-27.79 Y31.90 
G01 X-28.09 Y31.90 
G01 X-28.37 Y31.79 
G01 X-28.59 Y31.57 
G01 X-28.70 Y31.29 
G01 X-28.70 Y29.67 
G01 X-28.59 Y29.39 
G01 X-28.37 Y29.17 
G01 X-28.09 Y29.06 
G01 X-27.79 Y29.06 
G01 X-27.51 Y29.17 
G01 X-27.29 Y29.39 
G01 X-27.18 Y29.67 
G01 X-27.18 Y29.83 
G01 X-27.16 Y29.91 
G01 X-27.12 Y29.98 
G01 X-27.06 Y30.04 
G01 X-26.99 Y30.08 
G01 X-26.91 Y30.10 
G01 X-26.24 Y30.10 
G01 X-26.17 Y30.08 
G01 X-26.10 Y30.04 
G01 X-26.04 Y29.98 
G01 X-24.93 Y28.87 
G01 X-24.87 Y28.84 
G01 X-24.95 Y28.89 
G01 X-26.16 Y30.10 
G01 X-27.18 Y30.10 
G00 Z1.00 
G00 X-12.62 Y29.61 
G01 Z-0.20 F60.00 
G01 X-24.45 Y29.61 F80.00 
G01 X-24.52 Y29.63 
G01 X-24.59 Y29.67 
G01 X-24.65 Y29.73 
G01 X-25.76 Y30.84 
G01 X-25.82 Y30.87 
G01 X-25.74 Y30.82 
G01 X-24.53 Y29.61 
G01 X-12.65 Y29.61 
G01 X-12.56 Y29.59 
G01 X-12.62 Y29.61 
G00 Z1.00 
G00 X-24.78 Y28.81 
G01 Z-0.20 F60.00 
G01 X-12.95 Y28.81 F80.00 
G01 X-12.88 Y28.79 
G01 X-12.81 Y28.75 
G01 X-12.75 Y28.69 
G01 X-12.22 Y28.16 
G01 X-12.16 Y28.13 
G01 X-12.24 Y28.18 
G01 X-12.87 Y28.81 
G01 X-24.75 Y28.81 
G01 X-24.84 Y28.83 
G01 X-24.78 Y28.81 
G00 Z1.00 
G00 X-13.74 Y35.22 
G01 Z-0.20 F60.00 
G01 X-13.56 Y35.40 F80.00 
G01 X-9.92 Y39.04 
G01 X-9.85 Y39.08 
G01 X-9.78 Y39.10 
G01 X-4.42 Y39.10 
G01 X-4.34 Y39.08 
G01 X-4.27 Y39.04 
G01 X-4.21 Y38.98 
G01 X-4.17 Y38.91 
G01 X-4.15 Y38.83 
G01 X-4.15 Y38.42 
G01 X-4.15 Y38.38 
G01 X-4.15 Y38.34 
G01 X-4.16 Y38.30 
G01 X-4.17 Y38.26 
G01 X-4.19 Y38.23 
G01 X-4.21 Y38.19 
G01 X-4.24 Y38.16 
G01 X-4.27 Y38.13 
G01 X-4.31 Y38.11 
G01 X-4.34 Y38.09 
G01 X-4.38 Y38.08 
G01 X-4.42 Y38.07 
G01 X-4.46 Y38.07 
G01 X-4.50 Y38.07 
G01 X-4.54 Y38.08 
G01 X-4.57 Y38.09 
G01 X-4.60 Y38.11 
G01 X-4.64 Y38.13 
G01 X-4.65 Y38.14 
G01 X-4.93 Y38.25 
G01 X-5.23 Y38.25 
G01 X-5.51 Y38.14 
G01 X-5.73 Y37.92 
G01 X-5.84 Y37.64 
G01 X-5.84 Y36.02 
G01 X-5.73 Y35.74 
G01 X-5.51 Y35.52 
G01 X-5.49 Y35.51 
G01 X-5.45 Y35.47 
G01 X-5.44 Y35.46 
G01 X-5.40 Y35.41 
G01 X-5.38 Y35.37 
G01 X-5.38 Y35.36 
G01 X-5.40 Y35.45 
G01 X-5.40 Y35.48 
G01 X-5.44 Y35.49 
G01 X-5.57 Y35.58 
G01 X-5.67 Y35.68 
G01 X-5.75 Y35.81 
G01 X-5.81 Y35.95 
G01 X-5.84 Y36.09 
G01 X-5.84 Y37.57 
G01 X-5.81 Y37.71 
G01 X-5.75 Y37.85 
G01 X-5.67 Y37.98 
G01 X-5.57 Y38.08 
G01 X-5.44 Y38.17 
G01 X-5.30 Y38.22 
G01 X-5.15 Y38.25 
G01 X-5.01 Y38.25 
G01 X-4.86 Y38.22 
G01 X-4.72 Y38.17 
G01 X-4.59 Y38.08 
G01 X-4.49 Y37.98 
G01 X-4.41 Y37.85 
G01 X-4.35 Y37.71 
G01 X-4.32 Y37.57 
G01 X-4.32 Y36.09 
G01 X-4.35 Y35.95 
G01 X-4.41 Y35.81 
G01 X-4.49 Y35.68 
G01 X-4.55 Y35.62 
G01 X-4.18 Y35.25 
G01 X-4.13 Y35.15 
G01 X-4.10 Y35.05 
G01 X-4.10 Y30.17 
G01 X-3.27 Y29.34 
G01 X-2.86 Y29.34 
G01 X-2.41 Y28.89 
G01 X-2.41 Y28.26 
G01 X-2.86 Y27.81 
G01 X-3.49 Y27.81 
G01 X-3.94 Y28.26 
G01 X-3.94 Y28.87 
G01 X-4.75 Y29.68 
G01 X-4.82 Y29.75 
G01 X-4.87 Y29.83 
G01 X-4.84 Y29.77 
G01 X-4.70 Y29.63 
G01 X-4.06 Y28.99 
G01 X-4.01 Y28.94 
G01 X-4.00 Y28.93 
G01 X-3.96 Y28.86 
G01 X-3.94 Y28.78 
G01 X-3.94 Y28.20 
G01 X-3.96 Y28.12 
G01 X-4.00 Y28.05 
G01 X-4.06 Y28.00 
G01 X-4.12 Y27.96 
G01 X-4.20 Y27.94 
G01 X-4.28 Y27.94 
G01 X-4.36 Y27.96 
G01 X-4.43 Y28.00 
G01 X-4.49 Y28.05 
G01 X-5.27 Y28.84 
G01 X-5.41 Y28.98 
G01 X-5.47 Y29.04 
G01 X-5.79 Y29.36 
G01 X-5.83 Y29.43 
G01 X-5.85 Y29.50 
G01 X-5.85 Y29.82 
G01 X-5.83 Y29.90 
G01 X-5.79 Y29.96 
G01 X-5.73 Y30.02 
G01 X-5.59 Y30.16 
G01 X-5.59 Y30.80 
G01 X-6.03 Y31.24 
G01 X-6.67 Y31.24 
G01 X-7.11 Y30.80 
G01 X-7.11 Y30.16 
G01 X-6.71 Y29.76 
G01 X-6.67 Y29.70 
G01 X-6.65 Y29.62 
G01 X-6.65 Y29.17 
G01 X-6.67 Y29.09 
G01 X-6.71 Y29.02 
G01 X-6.77 Y28.96 
G01 X-6.84 Y28.92 
G01 X-6.92 Y28.90 
G01 X-11.74 Y28.90 
G01 X-11.81 Y28.92 
G01 X-11.88 Y28.96 
G01 X-11.94 Y29.02 
G01 X-12.34 Y29.42 
G01 X-12.47 Y29.55 
G01 X-12.53 Y29.58 
G01 X-12.45 Y29.53 
G01 X-12.38 Y29.46 
G01 X-11.82 Y28.90 
G01 X-6.47 Y28.90 
G01 X-6.50 Y28.93 
G01 X-6.57 Y29.00 
G01 X-6.62 Y29.10 
G01 X-6.65 Y29.20 
G01 X-6.65 Y29.72 
G01 X-6.67 Y29.72 
G01 X-7.11 Y30.16 
G01 X-7.11 Y30.80 
G01 X-6.67 Y31.24 
G01 X-6.03 Y31.24 
G01 X-5.59 Y30.80 
G01 X-5.59 Y30.16 
G01 X-5.85 Y29.90 
G01 X-5.85 Y29.42 
G01 X-5.38 Y28.95 
G01 X-5.30 Y28.87 
G01 X-3.23 Y26.80 
G01 X-2.86 Y26.80 
G01 X-2.41 Y26.35 
G01 X-2.41 Y25.72 
G01 X-2.86 Y25.27 
G01 X-3.49 Y25.27 
G01 X-3.94 Y25.72 
G01 X-3.94 Y26.35 
G01 X-3.93 Y26.36 
G01 X-5.67 Y28.11 
G01 X-5.70 Y28.10 
G01 X-12.04 Y28.10 
G01 X-12.13 Y28.12 
G01 X-12.07 Y28.10 
G01 X-5.75 Y28.10 
G01 X-5.68 Y28.08 
G01 X-5.68 Y28.08 
G01 X-5.61 Y28.04 
G01 X-5.55 Y27.98 
G01 X-4.00 Y26.43 
G01 X-3.96 Y26.36 
G01 X-3.94 Y26.28 
G01 X-3.94 Y25.72 
G01 X-3.49 Y25.27 
G01 X-2.83 Y25.27 
G01 X-2.82 Y25.28 
G01 X-2.78 Y25.29 
G01 X-2.75 Y25.30 
G01 X-2.71 Y25.30 
G01 X-2.67 Y25.30 
G01 X-2.64 Y25.29 
G01 X-2.59 Y25.28 
G01 X-2.53 Y25.24 
G01 X-2.52 Y25.24 
G01 X-2.48 Y25.20 
G01 X-2.46 Y25.18 
G01 X-2.44 Y25.14 
G01 X-2.42 Y25.11 
G01 X-2.41 Y25.07 
G01 X-2.40 Y25.03 
G01 X-2.40 Y25.00 
G01 X-2.40 Y24.95 
G01 X-2.40 Y23.53 
G01 X-2.42 Y23.45 
G01 X-2.46 Y23.38 
G01 X-2.52 Y23.32 
G01 X-2.59 Y23.28 
G01 X-2.67 Y23.26 
G01 X-6.86 Y23.26 
G01 X-6.94 Y23.28 
G01 X-7.00 Y23.32 
G01 X-7.06 Y23.38 
G01 X-7.30 Y23.62 
G01 X-7.94 Y23.62 
G01 X-8.38 Y23.18 
G01 X-8.38 Y22.54 
G01 X-7.94 Y22.10 
G01 X-7.30 Y22.10 
G01 X-7.00 Y22.40 
G01 X-6.94 Y22.44 
G01 X-6.86 Y22.46 
G01 X-2.67 Y22.46 
G01 X-2.59 Y22.44 
G01 X-2.52 Y22.40 
G01 X-2.46 Y22.34 
G01 X-2.42 Y22.27 
G01 X-2.40 Y22.19 
G01 X-2.40 Y17.50 
G01 X-2.42 Y17.43 
G01 X-2.46 Y17.36 
G01 X-2.52 Y17.30 
G01 X-3.27 Y16.55 
G01 X-3.28 Y16.54 
G01 X-2.40 Y17.42 
G01 X-2.40 Y22.46 
G01 X-6.94 Y22.46 
G01 X-7.30 Y22.10 
G01 X-7.94 Y22.10 
G01 X-8.38 Y22.54 
G01 X-8.38 Y23.18 
G01 X-7.94 Y23.62 
G01 X-7.30 Y23.62 
G01 X-6.94 Y23.26 
G01 X-2.40 Y23.26 
G01 X-2.40 Y33.58 
G01 X-4.07 Y35.25 
G01 X-4.12 Y35.35 
G01 X-4.15 Y35.45 
G01 X-4.15 Y39.10 
G01 X-9.86 Y39.10 
G01 X-13.65 Y35.31 
G01 X-13.72 Y35.24 
G01 X-13.80 Y35.19 
G01 X-13.74 Y35.22 
G00 Z1.00 
G00 X-3.30 Y16.52 
G01 Z-0.20 F60.00 
G01 X-3.31 Y16.50 F80.00 
G01 X-3.33 Y16.49 
G01 X-3.35 Y16.48 
G01 X-3.37 Y16.47 
G01 X-3.38 Y16.46 
G01 X-3.40 Y16.46 
G01 X-3.42 Y16.45 
G01 X-3.44 Y16.45 
G01 X-3.46 Y16.44 
G01 X-3.48 Y16.44 
G01 X-3.50 Y16.44 
G01 X-3.52 Y16.44 
G01 X-3.54 Y16.44 
G01 X-3.56 Y16.45 
G01 X-3.58 Y16.45 
G01 X-3.60 Y16.46 
G01 X-3.60 Y16.46 
G01 X-4.02 Y16.46 
G01 X-4.19 Y16.39 
G01 X-4.05 Y16.43 
G01 X-3.89 Y16.46 
G01 X-3.73 Y16.46 
G01 X-3.57 Y16.43 
G01 X-3.43 Y16.39 
G01 X-3.29 Y16.52 
G01 X-3.30 Y16.52 
G00 Z1.00 
G00 X-2.85 Y15.82 
G01 Z-0.20 F60.00 
G01 X-2.79 Y15.66 F80.00 
G01 X-2.77 Y15.50 
G01 X-2.77 Y15.34 
G01 X-2.79 Y15.17 
G01 X-2.84 Y15.04 
G01 X-2.77 Y15.21 
G01 X-2.77 Y15.62 
G01 X-2.78 Y15.64 
G01 X-2.78 Y15.66 
G01 X-2.79 Y15.68 
G01 X-2.79 Y15.70 
G01 X-2.80 Y15.72 
G01 X-2.80 Y15.74 
G01 X-2.80 Y15.76 
G01 X-2.80 Y15.78 
G01 X-2.80 Y15.80 
G01 X-2.79 Y15.82 
G01 X-2.79 Y15.84 
G01 X-2.78 Y15.86 
G01 X-2.78 Y15.87 
G01 X-2.77 Y15.89 
G01 X-2.76 Y15.91 
G01 X-2.75 Y15.93 
G01 X-2.74 Y15.94 
G01 X-2.72 Y15.96 
G01 X-2.72 Y15.97 
G01 X-2.85 Y15.83 
G01 X-2.85 Y15.82 
G00 Z1.00 
G00 X-2.69 Y15.99 
G01 Z-0.20 F60.00 
G01 X-1.66 Y17.02 F80.00 
G01 X-1.63 Y17.08 
G01 X-1.68 Y17.00 
G01 X-1.75 Y16.93 
G01 X-2.70 Y15.98 
G01 X-2.69 Y15.99 
G00 Z1.00 
G00 X-5.34 Y35.27 
G01 Z-0.20 F60.00 
G01 X-5.21 Y35.14 F80.00 
G01 X-5.21 Y35.14 
G01 X-4.96 Y34.89 
G01 X-4.92 Y34.82 
G01 X-4.90 Y34.75 
G01 X-4.90 Y29.92 
G01 X-4.88 Y29.86 
G01 X-4.90 Y29.95 
G01 X-4.90 Y34.83 
G01 X-5.25 Y35.18 
G01 X-5.32 Y35.25 
G01 X-5.37 Y35.33 
G01 X-5.34 Y35.27 
G00 Z1.00 
G00 X-25.81 Y2.93 
G01 Z-0.20 F60.00 
G01 X-25.64 Y2.86 F80.00 
G01 X-25.77 Y2.92 
G01 X-25.90 Y3.02 
G01 X-26.02 Y3.13 
G01 X-26.11 Y3.26 
G01 X-26.18 Y3.39 
G01 X-26.11 Y3.22 
G01 X-25.81 Y2.93 
G00 Z1.00 
G00 X-26.26 Y3.60 
G01 Z-0.20 F60.00 
G01 X-26.19 Y3.43 F80.00 
G01 X-26.24 Y3.57 
G01 X-26.26 Y3.73 
G01 X-26.26 Y3.89 
G01 X-26.24 Y4.05 
G01 X-26.19 Y4.19 
G01 X-26.26 Y4.02 
G01 X-26.26 Y3.60 
G00 Z1.00 
G00 X-51.55 Y21.28 
G01 Z-0.20 F60.00 
G01 X-51.50 Y21.16 F80.00 
G01 X-51.42 Y21.06 
G01 X-51.33 Y20.97 
G01 X-51.23 Y20.89 
G01 X-51.11 Y20.84 
G01 X-51.10 Y20.83 
G01 X-51.10 Y20.89 
G01 X-51.16 Y20.92 
G01 X-51.29 Y21.00 
G01 X-51.39 Y21.10 
G01 X-51.47 Y21.23 
G01 X-51.50 Y21.29 
G01 X-51.56 Y21.29 
G01 X-51.55 Y21.28 
G00 Z1.00 
G00 X-50.05 Y21.90 
G01 Z-0.20 F60.00 
G01 X-50.10 Y22.02 F80.00 
G01 X-50.18 Y22.12 
G01 X-50.27 Y22.21 
G01 X-50.37 Y22.29 
G01 X-50.49 Y22.34 
G01 X-50.50 Y22.35 
G01 X-50.50 Y22.29 
G01 X-50.44 Y22.26 
G01 X-50.31 Y22.18 
G01 X-50.21 Y22.08 
G01 X-50.13 Y21.95 
G01 X-50.10 Y21.89 
G01 X-50.04 Y21.89 
G01 X-50.05 Y21.90 
G00 Z1.00 
G00 X-50.04 Y21.29 
G01 Z-0.20 F60.00 
G01 X-50.10 Y21.29 F80.00 
G01 X-50.13 Y21.23 
G01 X-50.21 Y21.10 
G01 X-50.31 Y21.00 
G01 X-50.44 Y20.92 
G01 X-50.50 Y20.89 
G01 X-50.50 Y20.83 
G01 X-50.49 Y20.84 
G01 X-50.36 Y20.90 
G01 X-50.33 Y20.92 
G01 X-50.33 Y20.92 
G01 X-50.32 Y20.92 
G01 X-50.29 Y20.93 
G01 X-50.26 Y20.94 
G01 X-50.25 Y20.94 
G01 X-50.24 Y20.94 
G01 X-50.21 Y20.94 
G01 X-50.18 Y20.94 
G01 X-50.17 Y20.94 
G01 X-50.16 Y20.94 
G01 X-50.14 Y20.93 
G01 X-50.15 Y20.95 
G01 X-50.15 Y20.96 
G01 X-50.15 Y20.97 
G01 X-50.15 Y21.00 
G01 X-50.15 Y21.03 
G01 X-50.15 Y21.04 
G01 X-50.15 Y21.05 
G01 X-50.14 Y21.08 
G01 X-50.13 Y21.11 
G01 X-50.13 Y21.12 
G01 X-50.13 Y21.12 
G01 X-50.11 Y21.15 
G01 X-50.05 Y21.28 
G01 X-50.04 Y21.29 
G00 Z1.00 
G00 X-51.11 Y22.34 
G01 Z-0.20 F60.00 
G01 X-51.23 Y22.29 F80.00 
G01 X-51.33 Y22.21 
G01 X-51.42 Y22.12 
G01 X-51.50 Y22.02 
G01 X-51.55 Y21.90 
G01 X-51.56 Y21.89 
G01 X-51.50 Y21.89 
G01 X-51.47 Y21.95 
G01 X-51.39 Y22.08 
G01 X-51.29 Y22.18 
G01 X-51.16 Y22.26 
G01 X-51.10 Y22.29 
G01 X-51.10 Y22.35 
G01 X-51.11 Y22.34 
G00 Z1.00 
G00 X-27.23 Y3.22 
G01 Z-0.20 F60.00 
G01 X-27.16 Y3.39 F80.00 
G01 X-27.23 Y3.26 
G01 X-27.32 Y3.13 
G01 X-27.44 Y3.02 
G01 X-27.57 Y2.92 
G01 X-27.70 Y2.86 
G01 X-27.53 Y2.93 
G01 X-27.23 Y3.22 
G00 Z1.00 
G00 X-27.08 Y4.02 
G01 Z-0.20 F60.00 
G01 X-27.15 Y4.19 F80.00 
G01 X-27.10 Y4.05 
G01 X-27.08 Y3.89 
G01 X-27.08 Y3.73 
G01 X-27.10 Y3.57 
G01 X-27.15 Y3.43 
G01 X-27.08 Y3.60 
G01 X-27.08 Y4.02 
G00 Z1.00 
G00 X-27.53 Y4.69 
G01 Z-0.20 F60.00 
G01 X-27.70 Y4.76 F80.00 
G01 X-27.57 Y4.70 
G01 X-27.44 Y4.60 
G01 X-27.32 Y4.49 
G01 X-27.23 Y4.36 
G01 X-27.16 Y4.23 
G01 X-27.23 Y4.40 
G01 X-27.53 Y4.69 
G00 Z1.00 
G00 X-28.33 Y4.85 
G01 Z-0.20 F60.00 
G01 X-28.49 Y4.78 F80.00 
G01 X-28.36 Y4.83 
G01 X-28.20 Y4.85 
G01 X-28.04 Y4.85 
G01 X-27.87 Y4.83 
G01 X-27.74 Y4.78 
G01 X-27.91 Y4.85 
G01 X-28.33 Y4.85 
G00 Z1.00 
G00 X-29.00 Y4.40 
G01 Z-0.20 F60.00 
G01 X-29.07 Y4.23 F80.00 
G01 X-29.01 Y4.36 
G01 X-28.91 Y4.49 
G01 X-28.80 Y4.60 
G01 X-28.66 Y4.70 
G01 X-28.54 Y4.76 
G01 X-28.71 Y4.69 
G01 X-29.00 Y4.40 
G00 Z1.00 
G00 X-27.43 Y12.37 
G01 Z-0.20 F60.00 
G01 X-27.43 Y12.38 F80.00 
G01 X-26.99 Y12.83 
G01 X-26.97 Y12.83 
G01 X-26.97 Y12.88 
G01 X-27.01 Y12.88 
G01 X-27.48 Y12.40 
G01 X-27.48 Y12.37 
G01 X-27.43 Y12.37 
G00 Z1.00 
G00 X-27.48 Y11.73 
G01 Z-0.20 F60.00 
G01 X-27.01 Y11.25 F80.00 
G01 X-26.97 Y11.25 
G01 X-26.97 Y11.30 
G01 X-26.99 Y11.30 
G01 X-27.43 Y11.75 
G01 X-27.43 Y11.76 
G01 X-27.48 Y11.76 
G01 X-27.48 Y11.73 
G00 Z1.00 
G00 X-47.73 Y45.21 
G01 Z-0.20 F60.00 
G01 X-46.25 Y45.21 F80.00 
G01 X-46.11 Y45.18 
G01 X-45.97 Y45.12 
G01 X-45.84 Y45.04 
G01 X-45.74 Y44.94 
G01 X-45.65 Y44.81 
G01 X-45.60 Y44.67 
G01 X-45.57 Y44.52 
G01 X-45.57 Y44.38 
G01 X-45.60 Y44.23 
G01 X-45.65 Y44.09 
G01 X-45.74 Y43.96 
G01 X-45.84 Y43.86 
G01 X-45.97 Y43.78 
G01 X-46.11 Y43.72 
G01 X-46.25 Y43.69 
G01 X-46.50 Y43.69 
G01 X-46.50 Y41.15 
G01 X-28.70 Y41.15 
G01 X-28.70 Y41.38 
G01 X-28.67 Y41.52 
G01 X-28.61 Y41.66 
G01 X-28.53 Y41.79 
G01 X-28.43 Y41.89 
G01 X-28.30 Y41.98 
G01 X-28.16 Y42.03 
G01 X-28.01 Y42.06 
G01 X-27.87 Y42.06 
G01 X-27.72 Y42.03 
G01 X-27.58 Y41.98 
G01 X-27.45 Y41.89 
G01 X-27.35 Y41.79 
G01 X-27.27 Y41.66 
G01 X-27.21 Y41.52 
G01 X-27.18 Y41.38 
G01 X-27.18 Y39.90 
G01 X-27.21 Y39.76 
G01 X-27.27 Y39.62 
G01 X-27.35 Y39.49 
G01 X-27.45 Y39.39 
G01 X-27.58 Y39.30 
G01 X-27.72 Y39.25 
G01 X-27.87 Y39.22 
G01 X-28.01 Y39.22 
G01 X-28.16 Y39.25 
G01 X-28.30 Y39.30 
G01 X-28.43 Y39.39 
G01 X-28.53 Y39.49 
G01 X-28.61 Y39.62 
G01 X-28.67 Y39.76 
G01 X-28.70 Y39.90 
G01 X-28.70 Y40.35 
G01 X-46.95 Y40.35 
G01 X-47.04 Y40.37 
G01 X-46.98 Y40.35 
G01 X-28.97 Y40.35 
G01 X-28.89 Y40.33 
G01 X-28.82 Y40.29 
G01 X-28.76 Y40.23 
G01 X-28.72 Y40.16 
G01 X-28.70 Y40.08 
G01 X-28.70 Y39.83 
G01 X-28.59 Y39.55 
G01 X-28.37 Y39.33 
G01 X-28.09 Y39.22 
G01 X-27.79 Y39.22 
G01 X-27.51 Y39.33 
G01 X-27.29 Y39.55 
G01 X-27.18 Y39.83 
G01 X-27.18 Y41.45 
G01 X-27.29 Y41.73 
G01 X-27.51 Y41.95 
G01 X-27.79 Y42.06 
G01 X-28.09 Y42.06 
G01 X-28.37 Y41.95 
G01 X-28.59 Y41.73 
G01 X-28.70 Y41.45 
G01 X-28.70 Y41.42 
G01 X-28.72 Y41.34 
G01 X-28.76 Y41.27 
G01 X-28.82 Y41.21 
G01 X-28.89 Y41.17 
G01 X-28.97 Y41.15 
G01 X-46.23 Y41.15 
G01 X-46.31 Y41.17 
G01 X-46.38 Y41.21 
G01 X-46.44 Y41.27 
G01 X-46.48 Y41.34 
G01 X-46.50 Y41.42 
G01 X-46.50 Y43.42 
G01 X-46.48 Y43.50 
G01 X-46.44 Y43.57 
G01 X-46.38 Y43.63 
G01 X-46.31 Y43.67 
G01 X-46.23 Y43.69 
G01 X-46.18 Y43.69 
G01 X-45.90 Y43.80 
G01 X-45.68 Y44.02 
G01 X-45.57 Y44.30 
G01 X-45.57 Y44.60 
G01 X-45.68 Y44.88 
G01 X-45.90 Y45.10 
G01 X-46.18 Y45.21 
G01 X-47.80 Y45.21 
G01 X-48.08 Y45.10 
G01 X-48.30 Y44.88 
G01 X-48.41 Y44.60 
G01 X-48.41 Y44.30 
G01 X-48.30 Y44.02 
G01 X-48.08 Y43.80 
G01 X-47.80 Y43.69 
G01 X-47.57 Y43.69 
G01 X-47.49 Y43.67 
G01 X-47.42 Y43.63 
G01 X-47.36 Y43.57 
G01 X-47.32 Y43.50 
G01 X-47.30 Y43.42 
G01 X-47.30 Y40.67 
G01 X-47.28 Y40.61 
G01 X-47.30 Y40.70 
G01 X-47.30 Y43.69 
G01 X-47.73 Y43.69 
G01 X-47.87 Y43.72 
G01 X-48.01 Y43.78 
G01 X-48.14 Y43.86 
G01 X-48.24 Y43.96 
G01 X-48.33 Y44.09 
G01 X-48.38 Y44.23 
G01 X-48.41 Y44.38 
G01 X-48.41 Y44.52 
G01 X-48.38 Y44.67 
G01 X-48.33 Y44.81 
G01 X-48.24 Y44.94 
G01 X-48.14 Y45.04 
G01 X-48.01 Y45.12 
G01 X-47.87 Y45.18 
G01 X-47.73 Y45.21 
G00 Z1.00 
G00 X-46.48 Y29.14 
G01 Z-0.20 F60.00 
G01 X-46.48 Y29.28 F80.00 
G01 X-46.45 Y29.43 
G01 X-46.39 Y29.57 
G01 X-46.31 Y29.70 
G01 X-46.21 Y29.80 
G01 X-46.12 Y29.86 
G01 X-46.12 Y32.85 
G01 X-46.12 Y32.84 
G01 X-46.12 Y29.97 
G01 X-46.14 Y29.89 
G01 X-46.18 Y29.83 
G01 X-46.24 Y29.77 
G01 X-46.37 Y29.64 
G01 X-46.48 Y29.36 
G01 X-46.48 Y29.06 
G01 X-46.37 Y28.78 
G01 X-46.15 Y28.56 
G01 X-45.87 Y28.45 
G01 X-45.57 Y28.45 
G01 X-45.29 Y28.56 
G01 X-45.07 Y28.78 
G01 X-44.96 Y29.06 
G01 X-44.96 Y29.36 
G01 X-45.07 Y29.64 
G01 X-45.26 Y29.83 
G01 X-45.30 Y29.89 
G01 X-45.32 Y29.97 
G01 X-45.32 Y32.84 
G01 X-45.32 Y32.85 
G01 X-45.32 Y29.86 
G01 X-45.23 Y29.80 
G01 X-45.13 Y29.70 
G01 X-45.05 Y29.57 
G01 X-44.99 Y29.43 
G01 X-44.96 Y29.28 
G01 X-44.96 Y29.14 
G01 X-44.99 Y28.99 
G01 X-45.05 Y28.85 
G01 X-45.13 Y28.72 
G01 X-45.23 Y28.62 
G01 X-45.36 Y28.54 
G01 X-45.50 Y28.48 
G01 X-45.65 Y28.45 
G01 X-45.79 Y28.45 
G01 X-45.94 Y28.48 
G01 X-46.08 Y28.54 
G01 X-46.21 Y28.62 
G01 X-46.31 Y28.72 
G01 X-46.39 Y28.85 
G01 X-46.45 Y28.99 
G01 X-46.48 Y29.14 
G00 Z1.00 
G00 X-45.32 Y32.88 
G01 Z-0.20 F60.00 
G01 X-45.32 Y32.90 F80.00 
G01 X-45.31 Y32.92 
G01 X-45.31 Y32.94 
G01 X-45.30 Y32.96 
G01 X-45.30 Y32.98 
G01 X-45.29 Y33.00 
G01 X-45.28 Y33.02 
G01 X-45.27 Y33.03 
G01 X-45.26 Y33.05 
G01 X-45.24 Y33.06 
G01 X-45.23 Y33.08 
G01 X-45.21 Y33.09 
G01 X-45.20 Y33.11 
G01 X-45.18 Y33.12 
G01 X-45.17 Y33.13 
G01 X-45.16 Y33.13 
G01 X-44.88 Y33.41 
G01 X-44.77 Y33.68 
G01 X-44.76 Y33.70 
G01 X-44.75 Y33.72 
G01 X-44.74 Y33.74 
G01 X-44.73 Y33.75 
G01 X-44.72 Y33.77 
G01 X-44.71 Y33.78 
G01 X-44.70 Y33.80 
G01 X-44.68 Y33.81 
G01 X-44.67 Y33.83 
G01 X-44.65 Y33.84 
G01 X-44.63 Y33.85 
G01 X-44.61 Y33.86 
G01 X-44.60 Y33.87 
G01 X-44.58 Y33.87 
G01 X-44.56 Y33.88 
G01 X-44.54 Y33.88 
G01 X-44.52 Y33.89 
G01 X-44.50 Y33.89 
G01 X-44.49 Y33.89 
G01 X-44.73 Y33.89 
G01 X-44.73 Y33.87 
G01 X-44.77 Y33.68 
G01 X-44.84 Y33.50 
G01 X-44.95 Y33.34 
G01 X-45.09 Y33.20 
G01 X-45.25 Y33.10 
G01 X-45.32 Y33.07 
G01 X-45.32 Y32.87 
G01 X-45.32 Y32.88 
G00 Z1.00 
G00 X-46.19 Y33.10 
G01 Z-0.20 F60.00 
G01 X-46.35 Y33.20 F80.00 
G01 X-46.49 Y33.34 
G01 X-46.60 Y33.50 
G01 X-46.64 Y33.60 
G01 X-46.83 Y33.60 
G01 X-46.82 Y33.60 
G01 X-46.80 Y33.60 
G01 X-46.78 Y33.59 
G01 X-46.76 Y33.59 
G01 X-46.74 Y33.58 
G01 X-46.72 Y33.58 
G01 X-46.71 Y33.57 
G01 X-46.69 Y33.56 
G01 X-46.67 Y33.55 
G01 X-46.65 Y33.54 
G01 X-46.64 Y33.52 
G01 X-46.62 Y33.51 
G01 X-46.61 Y33.49 
G01 X-46.60 Y33.48 
G01 X-46.59 Y33.46 
G01 X-46.58 Y33.45 
G01 X-46.57 Y33.43 
G01 X-46.56 Y33.41 
G01 X-46.56 Y33.41 
G01 X-46.28 Y33.13 
G01 X-46.27 Y33.13 
G01 X-46.26 Y33.12 
G01 X-46.24 Y33.11 
G01 X-46.23 Y33.09 
G01 X-46.21 Y33.08 
G01 X-46.20 Y33.06 
G01 X-46.18 Y33.05 
G01 X-46.17 Y33.03 
G01 X-46.16 Y33.02 
G01 X-46.15 Y33.00 
G01 X-46.14 Y32.98 
G01 X-46.14 Y32.96 
G01 X-46.13 Y32.94 
G01 X-46.13 Y32.92 
G01 X-46.12 Y32.90 
G01 X-46.12 Y32.88 
G01 X-46.12 Y32.87 
G01 X-46.12 Y33.07 
G01 X-46.19 Y33.10 
G00 Z1.00 
G00 X-31.41 Y29.44 
G01 Z-0.20 F60.00 
G01 X-31.54 Y29.57 F80.00 
G01 X-31.54 Y29.57 
G01 X-31.59 Y29.62 
G01 X-32.79 Y30.82 
G01 X-32.85 Y30.85 
G01 X-32.77 Y30.80 
G01 X-31.50 Y29.53 
G01 X-31.43 Y29.46 
G01 X-31.38 Y29.38 
G01 X-31.41 Y29.44 
G00 Z1.00 
G00 X-43.94 Y29.14 
G01 Z-0.20 F60.00 
G01 X-43.94 Y29.28 F80.00 
G01 X-43.91 Y29.43 
G01 X-43.85 Y29.57 
G01 X-43.77 Y29.70 
G01 X-43.67 Y29.80 
G01 X-43.54 Y29.88 
G01 X-43.40 Y29.94 
G01 X-43.25 Y29.97 
G01 X-43.11 Y29.97 
G01 X-43.01 Y29.95 
G01 X-42.16 Y30.80 
G01 X-42.08 Y30.85 
G01 X-42.14 Y30.82 
G01 X-42.27 Y30.69 
G01 X-42.32 Y30.64 
G01 X-42.93 Y30.03 
G01 X-42.99 Y29.99 
G01 X-43.07 Y29.97 
G01 X-43.33 Y29.97 
G01 X-43.61 Y29.86 
G01 X-43.83 Y29.64 
G01 X-43.94 Y29.36 
G01 X-43.94 Y29.06 
G01 X-43.83 Y28.78 
G01 X-43.61 Y28.56 
G01 X-43.33 Y28.45 
G01 X-43.03 Y28.45 
G01 X-42.75 Y28.56 
G01 X-42.53 Y28.78 
G01 X-42.42 Y29.06 
G01 X-42.42 Y29.32 
G01 X-42.40 Y29.40 
G01 X-42.36 Y29.46 
G01 X-42.30 Y29.52 
G01 X-41.80 Y30.02 
G01 X-41.73 Y30.06 
G01 X-41.66 Y30.08 
G01 X-33.27 Y30.08 
G01 X-33.20 Y30.06 
G01 X-33.13 Y30.02 
G01 X-33.07 Y29.96 
G01 X-32.21 Y29.10 
G01 X-32.17 Y29.03 
G01 X-32.15 Y28.96 
G01 X-32.15 Y13.89 
G01 X-32.13 Y13.83 
G01 X-32.15 Y13.92 
G01 X-32.15 Y29.04 
G01 X-33.19 Y30.08 
G01 X-41.74 Y30.08 
G01 X-42.44 Y29.38 
G01 X-42.42 Y29.28 
G01 X-42.42 Y29.14 
G01 X-42.45 Y28.99 
G01 X-42.51 Y28.85 
G01 X-42.59 Y28.72 
G01 X-42.69 Y28.62 
G01 X-42.82 Y28.54 
G01 X-42.96 Y28.48 
G01 X-43.11 Y28.45 
G01 X-43.25 Y28.45 
G01 X-43.40 Y28.48 
G01 X-43.54 Y28.54 
G01 X-43.67 Y28.62 
G01 X-43.77 Y28.72 
G01 X-43.85 Y28.85 
G01 X-43.91 Y28.99 
G01 X-43.94 Y29.14 
G00 Z1.00 
G00 X-32.09 Y13.74 
G01 Z-0.20 F60.00 
G01 X-31.98 Y13.63 F80.00 
G01 X-31.92 Y13.60 
G01 X-32.00 Y13.65 
G01 X-32.07 Y13.72 
G01 X-32.12 Y13.80 
G01 X-32.09 Y13.74 
G00 Z1.00 
G00 X-26.37 Y14.97 
G01 Z-0.20 F60.00 
G01 X-26.36 Y14.98 F80.00 
G01 X-26.38 Y14.96 
G01 X-26.37 Y14.97 
G00 Z1.00 
G00 X-27.71 Y13.63 
G01 Z-0.20 F60.00 
G01 X-26.48 Y14.86 F80.00 
G01 X-26.48 Y14.86 
G01 X-26.45 Y14.89 
G01 X-26.43 Y14.91 
G01 X-26.43 Y14.91 
G01 X-26.41 Y14.93 
G01 X-26.39 Y14.94 
G01 X-26.39 Y14.95 
G01 X-26.41 Y14.93 
G01 X-27.69 Y13.65 
G01 X-27.77 Y13.60 
G01 X-27.71 Y13.63 
G00 Z1.00 
G00 X-26.97 Y15.51 
G01 Z-0.20 F60.00 
G01 X-26.98 Y15.50 F80.00 
G01 X-26.96 Y15.52 
G01 X-26.97 Y15.51 
G00 Z1.00 
G00 X-24.97 Y18.01 
G01 Z-0.20 F60.00 
G01 X-26.95 Y15.54 F80.00 
G01 X-26.95 Y15.53 
G01 X-24.96 Y18.02 
G01 X-24.97 Y18.01 
G00 Z1.00 
G00 X-24.89 Y18.20 
G01 Z-0.20 F60.00 
G01 X-24.89 Y18.19 F80.00 
G01 X-24.89 Y18.17 
G01 X-24.90 Y18.15 
G01 X-24.90 Y18.13 
G01 X-24.91 Y18.11 
G01 X-24.91 Y18.09 
G01 X-24.92 Y18.07 
G01 X-24.93 Y18.05 
G01 X-24.94 Y18.04 
G01 X-24.95 Y18.03 
G01 X-24.89 Y18.11 
G01 X-24.89 Y18.20 
G00 Z1.00 
G00 X-24.31 Y17.55 
G01 Z-0.20 F60.00 
G01 X-24.29 Y17.57 F80.00 
G01 X-24.28 Y17.58 
G01 X-24.27 Y17.59 
G01 X-24.25 Y17.60 
G01 X-24.23 Y17.62 
G01 X-24.21 Y17.62 
G01 X-24.20 Y17.63 
G01 X-24.17 Y17.64 
G01 X-24.15 Y17.65 
G01 X-24.14 Y17.65 
G01 X-24.12 Y17.65 
G01 X-24.10 Y17.65 
G01 X-24.08 Y17.65 
G01 X-24.23 Y17.65 
G01 X-24.31 Y17.54 
G01 X-24.31 Y17.55 
G00 Z1.00 
G00 X-26.34 Y15.00 
G01 Z-0.20 F60.00 
G01 X-26.33 Y15.01 F80.00 
G01 X-26.32 Y15.03 
G01 X-26.32 Y15.04 
G01 X-26.30 Y15.06 
G01 X-26.27 Y15.09 
G01 X-24.33 Y17.52 
G01 X-24.33 Y17.53 
G01 X-26.34 Y15.01 
G01 X-26.35 Y14.99 
G01 X-26.34 Y15.00 
G00 Z1.00 
G00 X-27.00 Y15.48 
G01 Z-0.20 F60.00 
G01 X-28.05 Y14.43 F80.00 
G01 X-28.12 Y14.39 
G01 X-28.19 Y14.37 
G01 X-31.08 Y14.37 
G01 X-31.16 Y14.39 
G01 X-31.23 Y14.43 
G01 X-31.29 Y14.49 
G01 X-31.33 Y14.56 
G01 X-31.35 Y14.64 
G01 X-31.35 Y29.29 
G01 X-31.37 Y29.35 
G01 X-31.35 Y29.26 
G01 X-31.35 Y14.37 
G01 X-28.11 Y14.37 
G01 X-26.99 Y15.49 
G01 X-27.00 Y15.48 
G00 Z1.00 
G00 X-31.83 Y13.57 
G01 Z-0.20 F60.00 
G01 X-27.86 Y13.57 F80.00 
G01 X-27.80 Y13.59 
G01 X-27.89 Y13.57 
G01 X-31.80 Y13.57 
G01 X-31.89 Y13.59 
G01 X-31.83 Y13.57 
G00 Z1.00 
G00 X-32.94 Y30.88 
G01 Z-0.20 F60.00 
G01 X-33.89 Y30.88 F80.00 
G01 X-33.97 Y30.90 
G01 X-34.04 Y30.94 
G01 X-34.10 Y31.00 
G01 X-34.14 Y31.07 
G01 X-34.16 Y31.15 
G01 X-34.16 Y31.23 
G01 X-34.14 Y31.30 
G01 X-34.10 Y31.37 
G01 X-34.04 Y31.43 
G01 X-30.37 Y35.10 
G01 X-30.30 Y35.14 
G01 X-30.23 Y35.16 
G01 X-13.89 Y35.16 
G01 X-13.83 Y35.18 
G01 X-13.92 Y35.16 
G01 X-30.31 Y35.16 
G01 X-34.59 Y30.88 
G01 X-32.97 Y30.88 
G01 X-32.88 Y30.86 
G01 X-32.94 Y30.88 
G00 Z1.00 
G00 X-48.00 Y30.15 
G01 Z-0.20 F60.00 
G01 X-48.00 Y31.58 F80.00 
G01 X-48.02 Y31.64 
G01 X-48.00 Y31.55 
G01 X-48.00 Y30.14 
G01 X-48.00 Y30.15 
G00 Z1.00 
G00 X-51.56 Y29.14 
G01 Z-0.20 F60.00 
G01 X-51.56 Y29.28 F80.00 
G01 X-51.53 Y29.43 
G01 X-51.47 Y29.57 
G01 X-51.39 Y29.70 
G01 X-51.29 Y29.80 
G01 X-51.16 Y29.88 
G01 X-51.02 Y29.94 
G01 X-50.87 Y29.97 
G01 X-50.73 Y29.97 
G01 X-50.58 Y29.94 
G01 X-50.44 Y29.88 
G01 X-50.31 Y29.80 
G01 X-50.21 Y29.70 
G01 X-50.13 Y29.57 
G01 X-50.07 Y29.43 
G01 X-50.04 Y29.28 
G01 X-50.04 Y29.14 
G01 X-50.07 Y28.99 
G01 X-50.13 Y28.85 
G01 X-50.21 Y28.72 
G01 X-50.25 Y28.68 
G01 X-50.25 Y28.17 
G01 X-46.58 Y24.50 
G01 X-46.53 Y24.42 
G01 X-46.56 Y24.48 
G01 X-50.19 Y28.11 
G01 X-50.23 Y28.18 
G01 X-50.25 Y28.25 
G01 X-50.25 Y28.60 
G01 X-50.23 Y28.66 
G01 X-50.23 Y28.68 
G01 X-50.20 Y28.73 
G01 X-50.19 Y28.74 
G01 X-50.15 Y28.78 
G01 X-50.04 Y29.06 
G01 X-50.04 Y29.36 
G01 X-50.15 Y29.64 
G01 X-50.37 Y29.86 
G01 X-50.65 Y29.97 
G01 X-50.95 Y29.97 
G01 X-51.23 Y29.86 
G01 X-51.45 Y29.64 
G01 X-51.56 Y29.36 
G01 X-51.56 Y29.06 
G01 X-51.45 Y28.78 
G01 X-51.24 Y28.57 
G01 X-51.22 Y28.56 
G01 X-51.20 Y28.55 
G01 X-51.19 Y28.54 
G01 X-51.17 Y28.53 
G01 X-51.16 Y28.51 
G01 X-51.14 Y28.50 
G01 X-51.13 Y28.49 
G01 X-51.11 Y28.47 
G01 X-51.10 Y28.46 
G01 X-51.09 Y28.44 
G01 X-51.08 Y28.42 
G01 X-51.07 Y28.40 
G01 X-51.07 Y28.38 
G01 X-51.06 Y28.37 
G01 X-51.06 Y28.35 
G01 X-51.05 Y28.33 
G01 X-51.05 Y28.31 
G01 X-51.05 Y28.30 
G01 X-51.05 Y28.49 
G01 X-51.16 Y28.54 
G01 X-51.29 Y28.62 
G01 X-51.39 Y28.72 
G01 X-51.47 Y28.85 
G01 X-51.53 Y28.99 
G01 X-51.56 Y29.14 
G00 Z1.00 
G00 X-51.05 Y28.27 
G01 Z-0.20 F60.00 
G01 X-51.05 Y27.92 F80.00 
G01 X-51.03 Y27.86 
G01 X-51.05 Y27.95 
G01 X-51.05 Y28.27 
G01 X-51.05 Y28.27 
G00 Z1.00 
G00 X-8.38 Y36.09 
G01 Z-0.20 F60.00 
G01 X-8.38 Y37.57 F80.00 
G01 X-8.35 Y37.71 
G01 X-8.29 Y37.85 
G01 X-8.21 Y37.98 
G01 X-8.11 Y38.08 
G01 X-7.98 Y38.17 
G01 X-7.84 Y38.22 
G01 X-7.69 Y38.25 
G01 X-7.55 Y38.25 
G01 X-7.40 Y38.22 
G01 X-7.26 Y38.17 
G01 X-7.13 Y38.08 
G01 X-7.03 Y37.98 
G01 X-6.95 Y37.85 
G01 X-6.89 Y37.71 
G01 X-6.86 Y37.57 
G01 X-6.86 Y36.09 
G01 X-6.89 Y35.95 
G01 X-6.95 Y35.81 
G01 X-7.03 Y35.68 
G01 X-7.13 Y35.58 
G01 X-7.22 Y35.52 
G01 X-7.22 Y34.24 
G01 X-7.24 Y34.15 
G01 X-7.22 Y34.21 
G01 X-7.22 Y35.41 
G01 X-7.20 Y35.48 
G01 X-7.17 Y35.52 
G01 X-7.16 Y35.55 
G01 X-7.10 Y35.61 
G01 X-6.97 Y35.74 
G01 X-6.86 Y36.02 
G01 X-6.86 Y37.64 
G01 X-6.97 Y37.92 
G01 X-7.19 Y38.14 
G01 X-7.47 Y38.25 
G01 X-7.77 Y38.25 
G01 X-8.05 Y38.14 
G01 X-8.27 Y37.92 
G01 X-8.38 Y37.64 
G01 X-8.38 Y36.02 
G01 X-8.27 Y35.74 
G01 X-8.14 Y35.61 
G01 X-8.08 Y35.56 
G01 X-8.07 Y35.53 
G01 X-8.04 Y35.48 
G01 X-8.02 Y35.41 
G01 X-8.02 Y34.54 
G01 X-8.04 Y34.47 
G01 X-8.08 Y34.40 
G01 X-8.14 Y34.34 
G01 X-9.00 Y33.48 
G01 X-9.07 Y33.44 
G01 X-9.14 Y33.42 
G01 X-29.93 Y33.42 
G01 X-29.98 Y33.40 
G01 X-29.90 Y33.42 
G01 X-9.06 Y33.42 
G01 X-8.02 Y34.46 
G01 X-8.02 Y35.52 
G01 X-8.11 Y35.58 
G01 X-8.21 Y35.68 
G01 X-8.29 Y35.81 
G01 X-8.35 Y35.95 
G01 X-8.38 Y36.09 
G00 Z1.00 
G00 X-29.95 Y8.22 
G01 Z-0.20 F60.00 
G01 X-29.99 Y8.19 F80.00 
G01 X-29.99 Y8.18 
G01 X-29.99 Y8.18 
G01 X-30.04 Y8.16 
G01 X-30.06 Y8.14 
G01 X-30.05 Y8.14 
G01 X-30.04 Y8.15 
G01 X-30.01 Y8.16 
G01 X-29.98 Y8.19 
G01 X-29.98 Y8.19 
G01 X-29.95 Y8.22 
G01 X-29.93 Y8.25 
G01 X-29.92 Y8.25 
G01 X-29.30 Y8.87 
G01 X-29.23 Y8.91 
G01 X-29.16 Y8.93 
G01 X-29.07 Y8.93 
G01 X-29.00 Y8.91 
G01 X-28.93 Y8.87 
G01 X-28.87 Y8.81 
G01 X-25.70 Y5.64 
G01 X-25.66 Y5.57 
G01 X-25.64 Y5.50 
G01 X-25.64 Y4.99 
G01 X-25.64 Y4.98 
G01 X-25.64 Y5.58 
G01 X-29.12 Y9.06 
G01 X-29.95 Y8.22 
G00 Z1.00 
G00 X-25.64 Y4.95 
G01 Z-0.20 F60.00 
G01 X-25.64 Y4.93 F80.00 
G01 X-25.65 Y4.91 
G01 X-25.65 Y4.89 
G01 X-25.66 Y4.87 
G01 X-25.66 Y4.85 
G01 X-25.67 Y4.83 
G01 X-25.68 Y4.81 
G01 X-25.69 Y4.80 
G01 X-25.70 Y4.78 
G01 X-25.72 Y4.77 
G01 X-25.73 Y4.75 
G01 X-25.75 Y4.74 
G01 X-25.76 Y4.72 
G01 X-25.78 Y4.71 
G01 X-25.79 Y4.70 
G01 X-25.81 Y4.69 
G01 X-26.11 Y4.40 
G01 X-26.18 Y4.23 
G01 X-26.11 Y4.36 
G01 X-26.02 Y4.49 
G01 X-25.90 Y4.60 
G01 X-25.77 Y4.70 
G01 X-25.64 Y4.76 
G01 X-25.64 Y4.96 
G01 X-25.64 Y4.95 
G00 Z1.00 
G00 X-24.82 Y4.77 
G01 Z-0.20 F60.00 
G01 X-24.68 Y4.70 F80.00 
G01 X-24.54 Y4.60 
G01 X-24.43 Y4.49 
G01 X-24.33 Y4.36 
G01 X-24.27 Y4.23 
G01 X-24.34 Y4.40 
G01 X-24.63 Y4.69 
G01 X-24.65 Y4.70 
G01 X-24.67 Y4.71 
G01 X-24.69 Y4.72 
G01 X-24.70 Y4.73 
G01 X-24.72 Y4.74 
G01 X-24.73 Y4.75 
G01 X-24.75 Y4.76 
G01 X-24.76 Y4.78 
G01 X-24.78 Y4.80 
G01 X-24.79 Y4.81 
G01 X-24.80 Y4.83 
G01 X-24.81 Y4.85 
G01 X-24.82 Y4.86 
G01 X-24.82 Y4.88 
G01 X-24.83 Y4.90 
G01 X-24.83 Y4.92 
G01 X-24.84 Y4.94 
G01 X-24.84 Y4.96 
G01 X-24.84 Y4.97 
G01 X-24.84 Y4.78 
G01 X-24.82 Y4.77 
G00 Z1.00 
G00 X-24.84 Y5.00 
G01 Z-0.20 F60.00 
G01 X-24.84 Y5.83 F80.00 
G01 X-24.86 Y5.89 
G01 X-24.84 Y5.80 
G01 X-24.84 Y4.99 
G01 X-24.84 Y5.00 
G00 Z1.00 
G00 X-40.32 Y7.49 
G01 Z-0.20 F60.00 
G01 X-40.96 Y7.49 F80.00 
G01 X-41.40 Y7.94 
G01 X-41.40 Y8.57 
G01 X-40.96 Y9.02 
G01 X-40.32 Y9.02 
G01 X-39.98 Y8.67 
G01 X-30.41 Y8.90 
G01 X-29.44 Y9.87 
G01 X-29.39 Y9.92 
G01 X-29.39 Y11.30 
G01 X-29.53 Y11.30 
G01 X-29.97 Y11.75 
G01 X-29.97 Y12.38 
G01 X-29.53 Y12.83 
G01 X-28.89 Y12.83 
G01 X-28.45 Y12.38 
G01 X-28.45 Y11.75 
G01 X-28.59 Y11.61 
G01 X-28.59 Y9.70 
G01 X-28.60 Y9.67 
G01 X-24.99 Y6.07 
G01 X-24.92 Y6.00 
G01 X-24.87 Y5.92 
G01 X-24.90 Y5.98 
G01 X-25.08 Y6.16 
G01 X-28.47 Y9.55 
G01 X-28.53 Y9.61 
G01 X-28.57 Y9.68 
G01 X-28.59 Y9.75 
G01 X-28.59 Y11.52 
G01 X-28.57 Y11.60 
G01 X-28.53 Y11.67 
G01 X-28.47 Y11.73 
G01 X-28.45 Y11.75 
G01 X-28.45 Y12.38 
G01 X-28.89 Y12.83 
G01 X-29.53 Y12.83 
G01 X-29.97 Y12.38 
G01 X-29.97 Y11.75 
G01 X-29.45 Y11.23 
G01 X-29.41 Y11.16 
G01 X-29.39 Y11.08 
G01 X-29.39 Y10.00 
G01 X-29.41 Y9.93 
G01 X-29.45 Y9.86 
G01 X-29.51 Y9.80 
G01 X-30.32 Y8.99 
G01 X-30.35 Y8.96 
G01 X-30.35 Y8.96 
G01 X-30.35 Y8.96 
G01 X-30.38 Y8.94 
G01 X-30.42 Y8.92 
G01 X-30.42 Y8.92 
G01 X-30.42 Y8.92 
G01 X-30.46 Y8.91 
G01 X-30.49 Y8.90 
G01 X-30.50 Y8.90 
G01 X-30.50 Y8.90 
G01 X-30.54 Y8.90 
G01 X-39.81 Y8.68 
G01 X-39.82 Y8.68 
G01 X-39.85 Y8.68 
G01 X-39.89 Y8.67 
G01 X-39.89 Y8.68 
G01 X-39.90 Y8.68 
G01 X-39.93 Y8.69 
G01 X-39.97 Y8.69 
G01 X-39.97 Y8.70 
G01 X-39.97 Y8.70 
G01 X-40.01 Y8.71 
G01 X-40.04 Y8.73 
G01 X-40.04 Y8.73 
G01 X-40.04 Y8.74 
G01 X-40.07 Y8.76 
G01 X-40.10 Y8.79 
G01 X-40.10 Y8.79 
G01 X-40.32 Y9.02 
G01 X-40.96 Y9.02 
G01 X-41.40 Y8.57 
G01 X-41.40 Y7.94 
G01 X-40.96 Y7.49 
G01 X-40.32 Y7.49 
G01 X-40.08 Y7.74 
G01 X-40.05 Y7.76 
G01 X-40.02 Y7.79 
G01 X-39.99 Y7.81 
G01 X-39.96 Y7.83 
G01 X-39.92 Y7.84 
G01 X-39.88 Y7.85 
G01 X-39.84 Y7.85 
G01 X-39.80 Y7.85 
G01 X-31.44 Y7.85 
G01 X-31.41 Y7.85 
G01 X-31.37 Y7.84 
G01 X-31.33 Y7.83 
G01 X-31.29 Y7.81 
G01 X-31.26 Y7.79 
G01 X-31.23 Y7.76 
G01 X-31.20 Y7.73 
G01 X-31.18 Y7.70 
G01 X-31.16 Y7.66 
G01 X-31.15 Y7.62 
G01 X-31.14 Y7.58 
G01 X-31.14 Y7.54 
G01 X-31.14 Y6.92 
G01 X-31.16 Y6.84 
G01 X-31.20 Y6.77 
G01 X-31.26 Y6.71 
G01 X-31.33 Y6.67 
G01 X-31.41 Y6.65 
G01 X-45.23 Y6.65 
G01 X-45.31 Y6.67 
G01 X-45.38 Y6.71 
G01 X-45.44 Y6.77 
G01 X-45.48 Y6.84 
G01 X-45.50 Y6.92 
G01 X-45.50 Y13.50 
G01 X-45.50 Y13.51 
G01 X-45.50 Y6.65 
G01 X-31.14 Y6.65 
G01 X-31.14 Y7.85 
G01 X-39.96 Y7.85 
G01 X-40.32 Y7.49 
G00 Z1.00 
G00 X-45.50 Y13.54 
G01 Z-0.20 F60.00 
G01 X-45.50 Y13.56 F80.00 
G01 X-45.49 Y13.58 
G01 X-45.49 Y13.60 
G01 X-45.48 Y13.62 
G01 X-45.48 Y13.63 
G01 X-45.47 Y13.65 
G01 X-45.46 Y13.67 
G01 X-45.45 Y13.69 
G01 X-45.44 Y13.70 
G01 X-45.42 Y13.72 
G01 X-45.41 Y13.73 
G01 X-45.39 Y13.75 
G01 X-45.38 Y13.76 
G01 X-45.36 Y13.77 
G01 X-45.35 Y13.78 
G01 X-45.33 Y13.79 
G01 X-45.32 Y13.80 
G01 X-45.46 Y13.74 
G01 X-45.50 Y13.73 
G01 X-45.50 Y13.53 
G01 X-45.50 Y13.54 
G00 Z1.00 
G00 X-46.42 Y14.03 
G01 Z-0.20 F60.00 
G01 X-46.52 Y14.18 F80.00 
G01 X-46.59 Y14.34 
G01 X-46.62 Y14.52 
G01 X-46.62 Y14.69 
G01 X-46.59 Y14.87 
G01 X-46.52 Y15.03 
G01 X-46.42 Y15.18 
G01 X-46.29 Y15.30 
G01 X-46.15 Y15.40 
G01 X-45.98 Y15.47 
G01 X-45.81 Y15.51 
G01 X-45.63 Y15.51 
G01 X-45.46 Y15.47 
G01 X-45.29 Y15.40 
G01 X-45.15 Y15.30 
G01 X-45.02 Y15.18 
G01 X-44.92 Y15.03 
G01 X-44.85 Y14.87 
G01 X-44.82 Y14.69 
G01 X-44.82 Y14.52 
G01 X-44.85 Y14.34 
G01 X-44.92 Y14.18 
G01 X-45.02 Y14.03 
G01 X-45.15 Y13.91 
G01 X-45.29 Y13.81 
G01 X-45.30 Y13.80 
G01 X-45.29 Y13.81 
G01 X-45.21 Y13.84 
G01 X-44.96 Y14.09 
G01 X-44.82 Y14.43 
G01 X-44.82 Y14.78 
G01 X-44.96 Y15.12 
G01 X-45.21 Y15.37 
G01 X-45.54 Y15.51 
G01 X-45.90 Y15.51 
G01 X-46.23 Y15.37 
G01 X-46.48 Y15.12 
G01 X-46.62 Y14.78 
G01 X-46.62 Y14.43 
G01 X-46.48 Y14.09 
G01 X-46.36 Y13.97 
G01 X-46.32 Y13.90 
G01 X-46.30 Y13.83 
G01 X-46.30 Y6.95 
G01 X-46.30 Y6.94 
G01 X-46.30 Y13.91 
G01 X-46.42 Y14.03 
G00 Z1.00 
G00 X-46.30 Y6.91 
G01 Z-0.20 F60.00 
G01 X-46.30 Y6.89 F80.00 
G01 X-46.31 Y6.87 
G01 X-46.31 Y6.85 
G01 X-46.32 Y6.83 
G01 X-46.32 Y6.81 
G01 X-46.33 Y6.79 
G01 X-46.34 Y6.78 
G01 X-46.35 Y6.76 
G01 X-46.36 Y6.74 
G01 X-46.38 Y6.73 
G01 X-46.39 Y6.71 
G01 X-46.41 Y6.70 
G01 X-46.42 Y6.69 
G01 X-46.44 Y6.68 
G01 X-46.45 Y6.66 
G01 X-46.47 Y6.66 
G01 X-46.49 Y6.65 
G01 X-46.51 Y6.64 
G01 X-46.54 Y6.63 
G01 X-46.45 Y6.65 
G01 X-46.30 Y6.65 
G01 X-46.30 Y6.92 
G01 X-46.30 Y6.91 
G00 Z1.00 
G00 X-30.34 Y7.84 
G01 Z-0.20 F60.00 
G01 X-30.34 Y7.86 F80.00 
G01 X-30.33 Y7.87 
G01 X-30.33 Y7.89 
G01 X-30.32 Y7.91 
G01 X-30.32 Y7.94 
G01 X-30.31 Y7.95 
G01 X-30.30 Y7.97 
G01 X-30.29 Y7.99 
G01 X-30.28 Y8.01 
G01 X-30.27 Y8.02 
G01 X-30.26 Y8.03 
G01 X-30.24 Y8.05 
G01 X-30.22 Y8.06 
G01 X-30.21 Y8.07 
G01 X-30.19 Y8.08 
G01 X-30.17 Y8.09 
G01 X-30.15 Y8.10 
G01 X-30.14 Y8.11 
G01 X-30.12 Y8.11 
G01 X-30.12 Y8.12 
G01 X-30.10 Y8.12 
G01 X-30.13 Y8.11 
G01 X-30.18 Y8.10 
G01 X-30.18 Y8.10 
G01 X-30.19 Y8.10 
G01 X-30.24 Y8.10 
G01 X-30.34 Y8.10 
G01 X-30.34 Y7.82 
G01 X-30.34 Y7.84 
G00 Z1.00 
G00 X-30.34 Y6.17 
G01 Z-0.20 F60.00 
G01 X-30.34 Y7.80 F80.00 
G01 X-30.34 Y7.80 
G01 X-30.34 Y6.20 
G01 X-30.36 Y6.11 
G01 X-30.34 Y6.17 
G00 Z1.00 
G00 X-30.51 Y5.91 
G01 Z-0.20 F60.00 
G01 X-30.40 Y6.02 F80.00 
G01 X-30.37 Y6.08 
G01 X-30.42 Y6.00 
G01 X-30.49 Y5.93 
G01 X-30.57 Y5.88 
G01 X-30.51 Y5.91 
G00 Z1.00 
G00 X-50.01 Y20.41 
G01 Z-0.20 F60.00 
G01 X-51.01 Y19.41 F80.00 
G01 X-51.14 Y19.28 
G01 X-51.17 Y19.22 
G01 X-51.12 Y19.30 
G01 X-51.05 Y19.37 
G01 X-49.99 Y20.43 
G01 X-50.01 Y20.41 
G00 Z1.00 
G00 X-49.65 Y20.77 
G01 Z-0.20 F60.00 
G01 X-49.66 Y20.76 F80.00 
G01 X-49.68 Y20.75 
G01 X-49.71 Y20.73 
G01 X-49.72 Y20.73 
G01 X-49.73 Y20.72 
G01 X-49.76 Y20.71 
G01 X-49.79 Y20.70 
G01 X-49.80 Y20.70 
G01 X-49.80 Y20.70 
G01 X-49.84 Y20.70 
G01 X-49.87 Y20.70 
G01 X-49.88 Y20.70 
G01 X-49.88 Y20.70 
G01 X-49.91 Y20.71 
G01 X-49.92 Y20.71 
G01 X-49.92 Y20.70 
G01 X-49.91 Y20.67 
G01 X-49.91 Y20.67 
G01 X-49.91 Y20.66 
G01 X-49.91 Y20.63 
G01 X-49.91 Y20.59 
G01 X-49.91 Y20.59 
G01 X-49.91 Y20.58 
G01 X-49.92 Y20.55 
G01 X-49.93 Y20.52 
G01 X-49.94 Y20.51 
G01 X-49.94 Y20.50 
G01 X-49.96 Y20.47 
G01 X-49.97 Y20.45 
G01 X-49.98 Y20.44 
G01 X-49.98 Y20.44 
G01 X-49.65 Y20.77 
G01 X-49.65 Y20.77 
G00 Z1.00 
G00 X-51.03 Y6.69 
G01 Z-0.20 F60.00 
G01 X-52.28 Y5.44 F80.00 
G01 X-52.28 Y5.44 
G01 X-52.41 Y5.31 
G01 X-52.44 Y5.25 
G01 X-52.39 Y5.33 
G01 X-52.32 Y5.40 
G01 X-51.05 Y6.67 
G01 X-50.97 Y6.72 
G01 X-51.03 Y6.69 
G00 Z1.00 
G00 X-52.32 Y3.49 
G01 Z-0.20 F60.00 
G01 X-52.39 Y3.56 F80.00 
G01 X-52.44 Y3.64 
G01 X-52.41 Y3.58 
G01 X-51.16 Y2.33 
G01 X-51.03 Y2.20 
G01 X-50.97 Y2.17 
G01 X-51.05 Y2.22 
G01 X-51.12 Y2.29 
G01 X-52.32 Y3.49 
G00 Z1.00 
G00 X-29.13 Y3.57 
G01 Z-0.20 F60.00 
G01 X-29.16 Y3.73 F80.00 
G01 X-29.16 Y3.89 
G01 X-29.13 Y4.05 
G01 X-29.09 Y4.19 
G01 X-29.16 Y4.02 
G01 X-29.16 Y3.61 
G01 X-29.16 Y3.60 
G01 X-29.15 Y3.58 
G01 X-29.14 Y3.57 
G01 X-29.14 Y3.55 
G01 X-29.14 Y3.53 
G01 X-29.14 Y3.51 
G01 X-29.13 Y3.49 
G01 X-29.14 Y3.47 
G01 X-29.14 Y3.45 
G01 X-29.14 Y3.43 
G01 X-29.14 Y3.41 
G01 X-29.15 Y3.39 
G01 X-29.16 Y3.37 
G01 X-29.17 Y3.35 
G01 X-29.18 Y3.33 
G01 X-29.19 Y3.32 
G01 X-29.20 Y3.30 
G01 X-29.21 Y3.29 
G01 X-29.22 Y3.28 
G01 X-29.08 Y3.41 
G01 X-29.13 Y3.57 
G00 Z1.00 
G00 X-28.64 Y2.72 
G01 Z-0.20 F60.00 
G01 X-28.63 Y2.73 F80.00 
G01 X-28.61 Y2.74 
G01 X-28.60 Y2.75 
G01 X-28.58 Y2.76 
G01 X-28.56 Y2.77 
G01 X-28.54 Y2.78 
G01 X-28.52 Y2.78 
G01 X-28.50 Y2.79 
G01 X-28.48 Y2.79 
G01 X-28.46 Y2.79 
G01 X-28.44 Y2.79 
G01 X-28.42 Y2.79 
G01 X-28.40 Y2.79 
G01 X-28.38 Y2.79 
G01 X-28.36 Y2.78 
G01 X-28.34 Y2.78 
G01 X-28.32 Y2.77 
G01 X-28.32 Y2.77 
G01 X-27.91 Y2.77 
G01 X-27.74 Y2.84 
G01 X-27.87 Y2.79 
G01 X-28.04 Y2.77 
G01 X-28.20 Y2.77 
G01 X-28.36 Y2.79 
G01 X-28.52 Y2.84 
G01 X-28.65 Y2.71 
G01 X-28.64 Y2.72 
G00 Z1.00 
G00 X-29.16 Y2.20 
G01 Z-0.20 F60.00 
G01 X-28.67 Y2.69 F80.00 
G01 X-28.67 Y2.70 
G01 X-29.14 Y2.22 
G01 X-29.22 Y2.17 
G01 X-29.16 Y2.20 
G00 Z1.00 
G00 X-49.66 Y3.49 
G01 Z-0.20 F60.00 
G01 X-49.66 Y4.13 F80.00 
G01 X-49.21 Y4.57 
G01 X-48.65 Y4.57 
G01 X-46.72 Y6.50 
G01 X-46.65 Y6.57 
G01 X-46.57 Y6.62 
G01 X-46.63 Y6.59 
G01 X-46.76 Y6.46 
G01 X-46.81 Y6.41 
G01 X-48.59 Y4.63 
G01 X-48.65 Y4.59 
G01 X-48.73 Y4.57 
G01 X-49.21 Y4.57 
G01 X-49.66 Y4.13 
G01 X-49.66 Y3.49 
G01 X-49.65 Y3.49 
G01 X-49.60 Y3.44 
G01 X-49.60 Y3.43 
G01 X-49.58 Y3.40 
G01 X-49.56 Y3.36 
G01 X-49.54 Y3.29 
G01 X-49.54 Y3.21 
G01 X-49.54 Y3.19 
G01 X-49.56 Y3.13 
G01 X-49.60 Y3.06 
G01 X-49.65 Y3.00 
G01 X-49.68 Y2.99 
G01 X-49.72 Y2.96 
G01 X-49.80 Y2.94 
G01 X-50.55 Y2.94 
G01 X-50.62 Y2.96 
G01 X-50.69 Y3.00 
G01 X-50.75 Y3.06 
G01 X-51.61 Y3.92 
G01 X-51.65 Y3.99 
G01 X-51.67 Y4.06 
G01 X-51.67 Y4.83 
G01 X-51.65 Y4.90 
G01 X-51.61 Y4.97 
G01 X-51.55 Y5.03 
G01 X-50.69 Y5.89 
G01 X-50.62 Y5.93 
G01 X-50.55 Y5.95 
G01 X-49.66 Y5.95 
G01 X-49.58 Y5.93 
G01 X-49.58 Y5.93 
G01 X-49.51 Y5.89 
G01 X-49.45 Y5.83 
G01 X-49.21 Y5.59 
G01 X-48.58 Y5.59 
G01 X-48.13 Y6.03 
G01 X-48.13 Y6.67 
G01 X-48.58 Y7.11 
G01 X-49.00 Y7.11 
G01 X-49.08 Y7.13 
G01 X-49.15 Y7.17 
G01 X-49.21 Y7.23 
G01 X-50.34 Y8.36 
G01 X-50.38 Y8.43 
G01 X-50.40 Y8.51 
G01 X-50.40 Y18.80 
G01 X-50.38 Y18.87 
G01 X-50.34 Y18.94 
G01 X-50.28 Y19.00 
G01 X-48.51 Y20.77 
G01 X-48.45 Y20.81 
G01 X-48.37 Y20.83 
G01 X-48.11 Y20.83 
G01 X-47.83 Y20.94 
G01 X-47.79 Y20.98 
G01 X-47.76 Y21.00 
G01 X-47.72 Y21.02 
G01 X-47.71 Y21.02 
G01 X-47.65 Y21.04 
G01 X-47.57 Y21.04 
G01 X-47.51 Y21.02 
G01 X-47.49 Y21.02 
G01 X-47.46 Y21.00 
G01 X-47.42 Y20.98 
G01 X-47.36 Y20.92 
G01 X-47.34 Y20.89 
G01 X-47.32 Y20.85 
G01 X-47.32 Y20.84 
G01 X-47.30 Y20.77 
G01 X-47.30 Y20.17 
G01 X-47.28 Y20.11 
G01 X-47.30 Y20.20 
G01 X-47.30 Y24.08 
G01 X-50.90 Y27.68 
G01 X-50.97 Y27.75 
G01 X-51.02 Y27.83 
G01 X-50.99 Y27.77 
G01 X-50.81 Y27.59 
G01 X-47.36 Y24.14 
G01 X-47.32 Y24.07 
G01 X-47.30 Y24.00 
G01 X-47.30 Y22.41 
G01 X-47.32 Y22.34 
G01 X-47.32 Y22.33 
G01 X-47.34 Y22.30 
G01 X-47.36 Y22.26 
G01 X-47.42 Y22.20 
G01 X-47.46 Y22.18 
G01 X-47.49 Y22.16 
G01 X-47.50 Y22.16 
G01 X-47.57 Y22.14 
G01 X-47.65 Y22.14 
G01 X-47.71 Y22.16 
G01 X-47.72 Y22.16 
G01 X-47.76 Y22.18 
G01 X-47.79 Y22.20 
G01 X-47.83 Y22.24 
G01 X-48.11 Y22.35 
G01 X-48.41 Y22.35 
G01 X-48.69 Y22.24 
G01 X-48.91 Y22.02 
G01 X-49.02 Y21.74 
G01 X-49.02 Y21.48 
G01 X-49.04 Y21.40 
G01 X-49.08 Y21.34 
G01 X-49.14 Y21.28 
G01 X-49.62 Y20.80 
G01 X-49.64 Y20.78 
G01 X-49.00 Y21.42 
G01 X-49.02 Y21.52 
G01 X-49.02 Y21.66 
G01 X-48.99 Y21.81 
G01 X-48.93 Y21.95 
G01 X-48.85 Y22.08 
G01 X-48.75 Y22.18 
G01 X-48.62 Y22.26 
G01 X-48.48 Y22.32 
G01 X-48.33 Y22.35 
G01 X-48.19 Y22.35 
G01 X-48.04 Y22.32 
G01 X-47.90 Y22.26 
G01 X-47.77 Y22.18 
G01 X-47.67 Y22.08 
G01 X-47.59 Y21.95 
G01 X-47.53 Y21.81 
G01 X-47.50 Y21.66 
G01 X-47.50 Y21.52 
G01 X-47.53 Y21.37 
G01 X-47.59 Y21.23 
G01 X-47.67 Y21.10 
G01 X-47.77 Y21.00 
G01 X-47.90 Y20.92 
G01 X-48.04 Y20.86 
G01 X-48.19 Y20.83 
G01 X-48.33 Y20.83 
G01 X-48.43 Y20.85 
G01 X-50.40 Y18.88 
G01 X-50.40 Y8.42 
G01 X-49.09 Y7.11 
G01 X-48.58 Y7.11 
G01 X-48.13 Y6.67 
G01 X-48.13 Y6.03 
G01 X-48.58 Y5.59 
G01 X-49.21 Y5.59 
G01 X-49.57 Y5.95 
G01 X-50.63 Y5.95 
G01 X-51.67 Y4.91 
G01 X-51.67 Y3.98 
G01 X-50.63 Y2.94 
G01 X-29.55 Y2.94 
G01 X-29.23 Y3.26 
G01 X-29.24 Y3.26 
G01 X-29.44 Y3.06 
G01 X-29.49 Y3.00 
G01 X-29.56 Y2.96 
G01 X-29.64 Y2.94 
G01 X-29.64 Y2.94 
G01 X-47.99 Y2.94 
G01 X-48.07 Y2.96 
G01 X-48.11 Y2.99 
G01 X-48.14 Y3.00 
G01 X-48.19 Y3.06 
G01 X-48.23 Y3.13 
G01 X-48.25 Y3.18 
G01 X-48.25 Y3.21 
G01 X-48.25 Y3.29 
G01 X-48.23 Y3.36 
G01 X-48.21 Y3.40 
G01 X-48.19 Y3.43 
G01 X-48.14 Y3.49 
G01 X-48.13 Y3.49 
G01 X-48.13 Y3.86 
G01 X-48.11 Y3.94 
G01 X-48.07 Y4.01 
G01 X-48.01 Y4.07 
G01 X-46.29 Y5.79 
G01 X-46.22 Y5.83 
G01 X-46.15 Y5.85 
G01 X-30.66 Y5.85 
G01 X-30.60 Y5.87 
G01 X-30.69 Y5.85 
G01 X-46.23 Y5.85 
G01 X-48.13 Y3.95 
G01 X-48.13 Y3.49 
G01 X-48.58 Y3.05 
G01 X-49.21 Y3.05 
G01 X-49.66 Y3.49 
G00 Z1.00 
G00 X-50.88 Y2.14 
G01 Z-0.20 F60.00 
G01 X-29.31 Y2.14 F80.00 
G01 X-29.25 Y2.16 
G01 X-29.34 Y2.14 
G01 X-50.85 Y2.14 
G01 X-50.94 Y2.16 
G01 X-50.88 Y2.14 
G00 Z1.00 
G00 X-52.47 Y5.16 
G01 Z-0.20 F60.00 
G01 X-52.47 Y3.73 F80.00 
G01 X-52.45 Y3.67 
G01 X-52.47 Y3.76 
G01 X-52.47 Y5.13 
G01 X-52.45 Y5.22 
G01 X-52.47 Y5.16 
G00 Z1.00 
G00 X-51.12 Y8.01 
G01 Z-0.20 F60.00 
G01 X-51.17 Y8.09 F80.00 
G01 X-51.14 Y8.03 
G01 X-50.41 Y7.30 
G01 X-50.37 Y7.26 
G01 X-50.36 Y7.24 
G01 X-50.32 Y7.17 
G01 X-50.30 Y7.10 
G01 X-50.30 Y7.02 
G01 X-50.32 Y6.94 
G01 X-50.36 Y6.87 
G01 X-50.41 Y6.81 
G01 X-50.48 Y6.77 
G01 X-50.56 Y6.75 
G01 X-50.88 Y6.75 
G01 X-50.94 Y6.73 
G01 X-50.85 Y6.75 
G01 X-49.86 Y6.75 
G01 X-51.12 Y8.01 
G00 Z1.00 
G00 X-51.20 Y19.13 
G01 Z-0.20 F60.00 
G01 X-51.20 Y8.17 F80.00 
G01 X-51.18 Y8.12 
G01 X-51.20 Y8.20 
G01 X-51.20 Y19.10 
G01 X-51.18 Y19.19 
G01 X-51.20 Y19.13 
G00 Z1.00 
G00 X-26.33 Y11.25 
G01 Z-0.20 F60.00 
G01 X-25.86 Y11.73 F80.00 
G01 X-25.86 Y11.76 
G01 X-25.91 Y11.76 
G01 X-25.91 Y11.75 
G01 X-26.35 Y11.30 
G01 X-26.37 Y11.30 
G01 X-26.37 Y11.25 
G01 X-26.33 Y11.25 
G00 Z1.00 
G00 X-25.86 Y12.40 
G01 Z-0.20 F60.00 
G01 X-26.33 Y12.88 F80.00 
G01 X-26.37 Y12.88 
G01 X-26.37 Y12.83 
G01 X-26.35 Y12.83 
G01 X-25.91 Y12.38 
G01 X-25.91 Y12.37 
G01 X-25.86 Y12.37 
G01 X-25.86 Y12.40 
G00 Z1.00 
G00 X-43.94 Y7.94 
G01 Z-0.20 F60.00 
G01 X-43.94 Y8.47 F80.00 
G01 X-43.97 Y8.50 
G01 X-44.02 Y8.58 
G01 X-43.98 Y8.49 
G01 X-43.96 Y8.47 
G01 X-43.96 Y8.44 
G01 X-43.95 Y8.43 
G01 X-43.95 Y8.42 
G01 X-43.94 Y8.39 
G01 X-43.94 Y8.35 
G01 X-43.94 Y8.35 
G01 X-43.94 Y8.35 
G01 X-43.94 Y8.31 
G01 X-43.94 Y7.94 
G01 X-43.50 Y7.49 
G01 X-42.86 Y7.49 
G01 X-42.42 Y7.94 
G01 X-42.42 Y8.57 
G01 X-42.86 Y9.02 
G01 X-42.98 Y9.02 
G01 X-43.06 Y9.04 
G01 X-43.13 Y9.08 
G01 X-43.19 Y9.14 
G01 X-43.23 Y9.20 
G01 X-43.25 Y9.28 
G01 X-43.25 Y17.08 
G01 X-43.27 Y17.14 
G01 X-43.25 Y17.05 
G01 X-43.25 Y9.02 
G01 X-42.86 Y9.02 
G01 X-42.42 Y8.57 
G01 X-42.42 Y7.94 
G01 X-42.86 Y7.49 
G01 X-43.50 Y7.49 
G01 X-43.94 Y7.94 
G00 Z1.00 
G00 X-47.24 Y20.02 
G01 Z-0.20 F60.00 
G01 X-47.06 Y19.84 F80.00 
G01 X-47.06 Y19.84 
G01 X-44.17 Y16.95 
G01 X-44.11 Y16.89 
G01 X-44.07 Y16.82 
G01 X-44.05 Y16.75 
G01 X-44.05 Y8.67 
G01 X-44.03 Y8.61 
G01 X-44.05 Y8.70 
G01 X-44.05 Y16.83 
G01 X-47.15 Y19.93 
G01 X-47.22 Y20.00 
G01 X-47.27 Y20.08 
G01 X-47.24 Y20.02 
G00 Z1.00 
G00 X-43.31 Y17.23 
G01 Z-0.20 F60.00 
G01 X-46.44 Y20.36 F80.00 
G01 X-46.48 Y20.43 
G01 X-46.50 Y20.50 
G01 X-46.50 Y20.61 
G01 X-46.50 Y20.62 
G01 X-46.50 Y20.42 
G01 X-43.33 Y17.25 
G01 X-43.28 Y17.17 
G01 X-43.31 Y17.23 
G00 Z1.00 
G00 X-46.50 Y20.65 
G01 Z-0.20 F60.00 
G01 X-46.50 Y20.67 F80.00 
G01 X-46.49 Y20.69 
G01 X-46.49 Y20.71 
G01 X-46.48 Y20.73 
G01 X-46.48 Y20.75 
G01 X-46.47 Y20.77 
G01 X-46.46 Y20.78 
G01 X-46.45 Y20.80 
G01 X-46.44 Y20.82 
G01 X-46.42 Y20.83 
G01 X-46.41 Y20.85 
G01 X-46.39 Y20.86 
G01 X-46.38 Y20.87 
G01 X-46.36 Y20.88 
G01 X-46.35 Y20.90 
G01 X-46.33 Y20.90 
G01 X-46.31 Y20.91 
G01 X-46.29 Y20.92 
G01 X-46.27 Y20.93 
G01 X-46.25 Y20.93 
G01 X-46.23 Y20.94 
G01 X-46.21 Y20.94 
G01 X-46.19 Y20.94 
G01 X-46.17 Y20.94 
G01 X-46.15 Y20.94 
G01 X-46.13 Y20.93 
G01 X-46.11 Y20.93 
G01 X-46.10 Y20.92 
G01 X-46.08 Y20.92 
G01 X-46.21 Y21.00 
G01 X-46.31 Y21.10 
G01 X-46.39 Y21.23 
G01 X-46.45 Y21.37 
G01 X-46.48 Y21.52 
G01 X-46.48 Y21.66 
G01 X-46.45 Y21.81 
G01 X-46.39 Y21.95 
G01 X-46.31 Y22.08 
G01 X-46.21 Y22.18 
G01 X-46.08 Y22.26 
G01 X-46.10 Y22.26 
G01 X-46.11 Y22.25 
G01 X-46.13 Y22.25 
G01 X-46.15 Y22.24 
G01 X-46.17 Y22.24 
G01 X-46.19 Y22.24 
G01 X-46.21 Y22.24 
G01 X-46.23 Y22.24 
G01 X-46.25 Y22.25 
G01 X-46.27 Y22.25 
G01 X-46.29 Y22.26 
G01 X-46.31 Y22.27 
G01 X-46.33 Y22.28 
G01 X-46.35 Y22.28 
G01 X-46.36 Y22.30 
G01 X-46.38 Y22.31 
G01 X-46.39 Y22.32 
G01 X-46.41 Y22.33 
G01 X-46.42 Y22.35 
G01 X-46.44 Y22.36 
G01 X-46.45 Y22.38 
G01 X-46.46 Y22.40 
G01 X-46.47 Y22.41 
G01 X-46.48 Y22.43 
G01 X-46.48 Y22.45 
G01 X-46.49 Y22.47 
G01 X-46.49 Y22.49 
G01 X-46.50 Y22.51 
G01 X-46.50 Y22.53 
G01 X-46.50 Y22.54 
G01 X-46.50 Y20.64 
G01 X-46.50 Y20.65 
G00 Z1.00 
G00 X-46.50 Y22.57 
G01 Z-0.20 F60.00 
G01 X-46.50 Y24.33 F80.00 
G01 X-46.52 Y24.39 
G01 X-46.50 Y24.30 
G01 X-46.50 Y22.56 
G01 X-46.50 Y22.57 
G00 Z1.00 
G00 X-35.88 Y24.89 
G01 Z-0.20 F60.00 
G01 X-35.24 Y24.89 F80.00 
G01 X-34.80 Y24.45 
G01 X-34.80 Y23.81 
G01 X-35.24 Y23.37 
G01 X-35.88 Y23.37 
G01 X-36.24 Y23.73 
G01 X-43.01 Y23.73 
G01 X-44.75 Y21.99 
G01 X-43.83 Y21.99 
G01 X-43.77 Y22.08 
G01 X-43.67 Y22.18 
G01 X-43.54 Y22.26 
G01 X-43.40 Y22.32 
G01 X-43.25 Y22.35 
G01 X-43.11 Y22.35 
G01 X-42.96 Y22.32 
G01 X-42.82 Y22.26 
G01 X-42.69 Y22.18 
G01 X-42.59 Y22.08 
G01 X-42.51 Y21.95 
G01 X-42.45 Y21.81 
G01 X-42.42 Y21.66 
G01 X-42.42 Y21.52 
G01 X-42.45 Y21.37 
G01 X-42.51 Y21.23 
G01 X-42.59 Y21.10 
G01 X-42.69 Y21.00 
G01 X-42.82 Y20.92 
G01 X-42.96 Y20.86 
G01 X-43.11 Y20.83 
G01 X-43.25 Y20.83 
G01 X-43.40 Y20.86 
G01 X-43.54 Y20.92 
G01 X-43.67 Y21.00 
G01 X-43.77 Y21.10 
G01 X-43.83 Y21.19 
G01 X-45.07 Y21.19 
G01 X-45.13 Y21.10 
G01 X-45.23 Y21.00 
G01 X-45.36 Y20.92 
G01 X-45.50 Y20.86 
G01 X-45.65 Y20.83 
G01 X-45.79 Y20.83 
G01 X-45.94 Y20.86 
G01 X-46.07 Y20.91 
G01 X-46.06 Y20.90 
G01 X-45.87 Y20.83 
G01 X-45.57 Y20.83 
G01 X-45.29 Y20.94 
G01 X-45.10 Y21.13 
G01 X-45.04 Y21.17 
G01 X-44.96 Y21.19 
G01 X-43.94 Y21.19 
G01 X-43.86 Y21.17 
G01 X-43.80 Y21.13 
G01 X-43.74 Y21.07 
G01 X-43.61 Y20.94 
G01 X-43.33 Y20.83 
G01 X-43.03 Y20.83 
G01 X-42.75 Y20.94 
G01 X-42.53 Y21.16 
G01 X-42.42 Y21.44 
G01 X-42.42 Y21.74 
G01 X-42.53 Y22.02 
G01 X-42.75 Y22.24 
G01 X-43.03 Y22.35 
G01 X-43.33 Y22.35 
G01 X-43.61 Y22.24 
G01 X-43.80 Y22.05 
G01 X-43.86 Y22.01 
G01 X-43.94 Y21.99 
G01 X-44.05 Y21.99 
G01 X-44.13 Y22.01 
G01 X-44.13 Y22.01 
G01 X-44.20 Y22.05 
G01 X-44.26 Y22.11 
G01 X-44.30 Y22.18 
G01 X-44.32 Y22.26 
G01 X-44.32 Y22.34 
G01 X-44.30 Y22.41 
G01 X-44.30 Y22.41 
G01 X-44.26 Y22.48 
G01 X-44.20 Y22.54 
G01 X-43.07 Y23.67 
G01 X-43.00 Y23.71 
G01 X-42.93 Y23.73 
G01 X-36.32 Y23.73 
G01 X-36.24 Y23.71 
G01 X-36.18 Y23.67 
G01 X-36.12 Y23.61 
G01 X-35.88 Y23.37 
G01 X-35.24 Y23.37 
G01 X-34.80 Y23.81 
G01 X-34.80 Y24.45 
G01 X-35.24 Y24.89 
G01 X-35.88 Y24.89 
G01 X-36.18 Y24.59 
G01 X-36.24 Y24.55 
G01 X-36.32 Y24.53 
G01 X-43.26 Y24.53 
G01 X-43.32 Y24.51 
G01 X-43.23 Y24.53 
G01 X-36.24 Y24.53 
G01 X-35.88 Y24.89 
G00 Z1.00 
G00 X-43.41 Y24.47 
G01 Z-0.20 F60.00 
G01 X-45.47 Y22.41 F80.00 
G01 X-45.53 Y22.37 
G01 X-45.61 Y22.35 
G01 X-45.87 Y22.35 
G01 X-46.06 Y22.28 
G01 X-46.07 Y22.27 
G01 X-45.94 Y22.32 
G01 X-45.79 Y22.35 
G01 X-45.65 Y22.35 
G01 X-45.55 Y22.33 
G01 X-43.43 Y24.45 
G01 X-43.35 Y24.50 
G01 X-43.41 Y24.47 
G00 Z1.00 
G00 X-35.88 Y27.43 
G01 Z-0.20 F60.00 
G01 X-35.24 Y27.43 F80.00 
G01 X-34.80 Y26.99 
G01 X-34.80 Y26.35 
G01 X-35.24 Y25.91 
G01 X-35.88 Y25.91 
G01 X-36.24 Y26.27 
G01 X-45.77 Y26.27 
G01 X-45.86 Y26.29 
G01 X-45.80 Y26.27 
G01 X-36.32 Y26.27 
G01 X-36.24 Y26.25 
G01 X-36.18 Y26.21 
G01 X-36.12 Y26.15 
G01 X-35.88 Y25.91 
G01 X-35.24 Y25.91 
G01 X-34.80 Y26.35 
G01 X-34.80 Y26.99 
G01 X-35.24 Y27.43 
G01 X-35.88 Y27.43 
G01 X-36.18 Y27.13 
G01 X-36.24 Y27.09 
G01 X-36.32 Y27.07 
G01 X-45.47 Y27.07 
G01 X-45.54 Y27.09 
G01 X-45.61 Y27.13 
G01 X-45.67 Y27.19 
G01 X-47.44 Y28.96 
G01 X-47.48 Y29.02 
G01 X-47.50 Y29.10 
G01 X-47.50 Y29.36 
G01 X-47.61 Y29.64 
G01 X-47.83 Y29.86 
G01 X-47.85 Y29.86 
G01 X-47.86 Y29.88 
G01 X-47.88 Y29.89 
G01 X-47.89 Y29.90 
G01 X-47.91 Y29.91 
G01 X-47.92 Y29.93 
G01 X-47.94 Y29.94 
G01 X-47.95 Y29.96 
G01 X-47.96 Y29.98 
G01 X-47.97 Y30.00 
G01 X-47.98 Y30.01 
G01 X-47.98 Y30.03 
G01 X-47.99 Y30.05 
G01 X-47.99 Y30.07 
G01 X-48.00 Y30.09 
G01 X-48.00 Y30.11 
G01 X-48.00 Y30.12 
G01 X-48.00 Y29.93 
G01 X-47.90 Y29.88 
G01 X-47.77 Y29.80 
G01 X-47.67 Y29.70 
G01 X-47.59 Y29.57 
G01 X-47.53 Y29.43 
G01 X-47.50 Y29.28 
G01 X-47.50 Y29.14 
G01 X-47.52 Y29.04 
G01 X-45.55 Y27.07 
G01 X-36.24 Y27.07 
G01 X-35.88 Y27.43 
G00 Z1.00 
G00 X-48.19 Y28.45 
G01 Z-0.20 F60.00 
G01 X-48.33 Y28.45 F80.00 
G01 X-48.48 Y28.48 
G01 X-48.62 Y28.54 
G01 X-48.75 Y28.62 
G01 X-48.85 Y28.72 
G01 X-48.93 Y28.85 
G01 X-48.99 Y28.99 
G01 X-49.02 Y29.14 
G01 X-49.02 Y29.28 
G01 X-48.99 Y29.43 
G01 X-48.93 Y29.57 
G01 X-48.85 Y29.70 
G01 X-48.80 Y29.75 
G01 X-48.80 Y31.33 
G01 X-50.49 Y33.03 
G01 X-50.51 Y33.02 
G01 X-50.70 Y32.98 
G01 X-50.90 Y32.98 
G01 X-51.09 Y33.02 
G01 X-51.27 Y33.10 
G01 X-51.43 Y33.20 
G01 X-51.57 Y33.34 
G01 X-51.68 Y33.50 
G01 X-51.75 Y33.68 
G01 X-51.79 Y33.87 
G01 X-51.79 Y34.07 
G01 X-51.75 Y34.26 
G01 X-51.68 Y34.44 
G01 X-51.57 Y34.60 
G01 X-51.43 Y34.74 
G01 X-51.27 Y34.85 
G01 X-51.09 Y34.92 
G01 X-50.90 Y34.96 
G01 X-50.70 Y34.96 
G01 X-50.51 Y34.92 
G01 X-50.33 Y34.85 
G01 X-50.17 Y34.74 
G01 X-50.03 Y34.60 
G01 X-49.92 Y34.44 
G01 X-49.85 Y34.26 
G01 X-49.81 Y34.07 
G01 X-49.81 Y33.87 
G01 X-49.85 Y33.68 
G01 X-49.90 Y33.56 
G01 X-48.84 Y32.51 
G01 X-48.85 Y32.52 
G01 X-48.86 Y32.53 
G01 X-48.87 Y32.55 
G01 X-48.89 Y32.57 
G01 X-48.89 Y32.59 
G01 X-48.90 Y32.60 
G01 X-48.91 Y32.62 
G01 X-48.92 Y32.64 
G01 X-48.92 Y32.66 
G01 X-48.93 Y32.68 
G01 X-48.93 Y32.70 
G01 X-48.93 Y32.72 
G01 X-48.93 Y32.74 
G01 X-48.93 Y32.76 
G01 X-48.92 Y32.78 
G01 X-48.92 Y32.80 
G01 X-48.91 Y32.82 
G01 X-48.90 Y32.84 
G01 X-48.89 Y32.85 
G01 X-48.89 Y32.87 
G01 X-48.87 Y32.89 
G01 X-48.86 Y32.91 
G01 X-48.85 Y32.92 
G01 X-48.84 Y32.94 
G01 X-48.82 Y32.95 
G01 X-48.81 Y32.96 
G01 X-48.79 Y32.97 
G01 X-48.77 Y32.99 
G01 X-48.76 Y32.99 
G01 X-48.74 Y33.00 
G01 X-48.72 Y33.01 
G01 X-48.70 Y33.02 
G01 X-48.68 Y33.02 
G01 X-48.66 Y33.02 
G01 X-48.64 Y33.02 
G01 X-48.62 Y33.03 
G01 X-48.60 Y33.02 
G01 X-48.58 Y33.02 
G01 X-48.56 Y33.02 
G01 X-48.54 Y33.02 
G01 X-48.52 Y33.01 
G01 X-48.50 Y33.00 
G01 X-48.49 Y32.99 
G01 X-48.46 Y32.98 
G01 X-48.06 Y32.98 
G01 X-47.70 Y33.13 
G01 X-47.42 Y33.41 
G01 X-47.42 Y33.41 
G01 X-47.41 Y33.43 
G01 X-47.40 Y33.45 
G01 X-47.39 Y33.46 
G01 X-47.38 Y33.48 
G01 X-47.37 Y33.49 
G01 X-47.36 Y33.51 
G01 X-47.34 Y33.52 
G01 X-47.33 Y33.54 
G01 X-47.31 Y33.55 
G01 X-47.29 Y33.56 
G01 X-47.27 Y33.57 
G01 X-47.26 Y33.58 
G01 X-47.24 Y33.58 
G01 X-47.22 Y33.59 
G01 X-47.20 Y33.59 
G01 X-47.18 Y33.60 
G01 X-47.16 Y33.60 
G01 X-47.15 Y33.60 
G01 X-47.34 Y33.60 
G01 X-47.38 Y33.50 
G01 X-47.49 Y33.34 
G01 X-47.63 Y33.20 
G01 X-47.79 Y33.10 
G01 X-47.97 Y33.02 
G01 X-48.16 Y32.98 
G01 X-48.36 Y32.98 
G01 X-48.55 Y33.02 
G01 X-48.73 Y33.10 
G01 X-48.89 Y33.20 
G01 X-49.03 Y33.34 
G01 X-49.14 Y33.50 
G01 X-49.21 Y33.68 
G01 X-49.25 Y33.87 
G01 X-49.25 Y34.07 
G01 X-49.21 Y34.26 
G01 X-49.14 Y34.44 
G01 X-49.03 Y34.60 
G01 X-48.89 Y34.74 
G01 X-48.73 Y34.85 
G01 X-48.55 Y34.92 
G01 X-48.36 Y34.96 
G01 X-48.16 Y34.96 
G01 X-47.97 Y34.92 
G01 X-47.79 Y34.85 
G01 X-47.63 Y34.74 
G01 X-47.49 Y34.60 
G01 X-47.38 Y34.44 
G01 X-47.37 Y34.40 
G01 X-46.61 Y34.40 
G01 X-46.60 Y34.44 
G01 X-46.49 Y34.60 
G01 X-46.35 Y34.74 
G01 X-46.19 Y34.85 
G01 X-46.01 Y34.92 
G01 X-45.82 Y34.96 
G01 X-45.62 Y34.96 
G01 X-45.43 Y34.92 
G01 X-45.25 Y34.85 
G01 X-45.09 Y34.74 
G01 X-45.04 Y34.69 
G01 X-42.08 Y34.69 
G01 X-39.62 Y37.15 
G01 X-39.54 Y37.20 
G01 X-39.60 Y37.17 
G01 X-42.02 Y34.75 
G01 X-42.09 Y34.71 
G01 X-42.16 Y34.69 
G01 X-44.95 Y34.69 
G01 X-45.03 Y34.71 
G01 X-45.10 Y34.75 
G01 X-45.16 Y34.81 
G01 X-45.16 Y34.81 
G01 X-45.52 Y34.96 
G01 X-45.92 Y34.96 
G01 X-46.28 Y34.81 
G01 X-46.63 Y34.46 
G01 X-46.70 Y34.42 
G01 X-46.78 Y34.40 
G01 X-47.20 Y34.40 
G01 X-47.28 Y34.42 
G01 X-47.35 Y34.46 
G01 X-47.41 Y34.52 
G01 X-47.70 Y34.81 
G01 X-48.06 Y34.96 
G01 X-48.46 Y34.96 
G01 X-48.82 Y34.81 
G01 X-49.10 Y34.53 
G01 X-49.23 Y34.21 
G01 X-49.26 Y34.14 
G01 X-49.31 Y34.07 
G01 X-49.38 Y34.03 
G01 X-49.45 Y34.00 
G01 X-49.53 Y33.98 
G01 X-49.61 Y34.00 
G01 X-49.68 Y34.03 
G01 X-49.75 Y34.07 
G01 X-49.80 Y34.14 
G01 X-49.96 Y34.53 
G01 X-50.24 Y34.81 
G01 X-50.60 Y34.96 
G01 X-51.00 Y34.96 
G01 X-51.36 Y34.81 
G01 X-51.64 Y34.53 
G01 X-51.79 Y34.17 
G01 X-51.79 Y33.78 
G01 X-51.64 Y33.41 
G01 X-51.36 Y33.13 
G01 X-51.00 Y32.98 
G01 X-50.54 Y32.98 
G01 X-50.46 Y32.96 
G01 X-50.39 Y32.92 
G01 X-50.33 Y32.86 
G01 X-48.86 Y31.39 
G01 X-48.82 Y31.32 
G01 X-48.80 Y31.25 
G01 X-48.80 Y29.83 
G01 X-48.82 Y29.78 
G01 X-48.82 Y29.75 
G01 X-48.83 Y29.75 
G01 X-48.86 Y29.69 
G01 X-48.91 Y29.64 
G01 X-49.02 Y29.36 
G01 X-49.02 Y29.06 
G01 X-48.91 Y28.78 
G01 X-48.69 Y28.56 
G01 X-48.41 Y28.45 
G01 X-48.15 Y28.45 
G01 X-48.07 Y28.43 
G01 X-48.01 Y28.39 
G01 X-47.95 Y28.33 
G01 X-45.95 Y26.33 
G01 X-45.89 Y26.30 
G01 X-45.97 Y26.35 
G01 X-48.09 Y28.47 
G01 X-48.19 Y28.45 
G00 Z1.00 
G00 X-47.12 Y33.60 
G01 Z-0.20 F60.00 
G01 X-46.86 Y33.60 F80.00 
G01 X-46.85 Y33.60 
G01 X-47.13 Y33.60 
G01 X-47.12 Y33.60 
G00 Z1.00 
G00 X-25.63 Y40.98 
G01 Z-0.20 F60.00 
G01 X-25.74 Y40.87 F80.00 
G01 X-25.77 Y40.81 
G01 X-25.72 Y40.89 
G01 X-25.65 Y40.96 
G01 X-25.57 Y41.01 
G01 X-25.63 Y40.98 
G00 Z1.00 
G00 X-6.69 Y11.20 
G01 Z-0.20 F60.00 
G01 X-5.44 Y9.95 F80.00 
G01 X-5.31 Y9.82 
G01 X-5.25 Y9.79 
G01 X-5.33 Y9.84 
G01 X-5.40 Y9.91 
G01 X-6.67 Y11.18 
G01 X-6.72 Y11.26 
G01 X-6.69 Y11.20 
G00 Z1.00 
G00 X-41.68 Y33.95 
G01 Z-0.20 F60.00 
G01 X-41.55 Y34.08 F80.00 
G01 X-41.55 Y34.08 
G01 X-39.26 Y36.37 
G01 X-39.19 Y36.41 
G01 X-39.12 Y36.43 
G01 X-30.88 Y36.43 
G01 X-30.80 Y36.41 
G01 X-30.73 Y36.37 
G01 X-30.67 Y36.31 
G01 X-30.63 Y36.24 
G01 X-30.61 Y36.16 
G01 X-30.61 Y36.08 
G01 X-30.63 Y36.01 
G01 X-30.67 Y35.94 
G01 X-30.73 Y35.88 
G01 X-35.67 Y30.94 
G01 X-35.74 Y30.90 
G01 X-35.81 Y30.88 
G01 X-41.99 Y30.88 
G01 X-42.05 Y30.86 
G01 X-41.96 Y30.88 
G01 X-35.73 Y30.88 
G01 X-30.73 Y35.88 
G01 X-30.63 Y35.93 
G01 X-30.53 Y35.96 
G01 X-14.14 Y35.96 
G01 X-10.35 Y39.75 
G01 X-10.28 Y39.82 
G01 X-10.18 Y39.87 
G01 X-10.08 Y39.90 
G01 X-3.70 Y39.90 
G01 X-3.60 Y39.87 
G01 X-3.50 Y39.82 
G01 X-3.43 Y39.75 
G01 X-3.38 Y39.65 
G01 X-3.35 Y39.55 
G01 X-3.35 Y35.67 
G01 X-1.75 Y34.07 
G01 X-1.68 Y34.00 
G01 X-1.63 Y33.92 
G01 X-1.66 Y33.98 
G01 X-1.80 Y34.12 
G01 X-2.54 Y34.86 
G01 X-2.58 Y34.90 
G01 X-2.60 Y34.92 
G01 X-2.64 Y34.99 
G01 X-2.66 Y35.06 
G01 X-2.66 Y35.14 
G01 X-2.64 Y35.22 
G01 X-2.60 Y35.29 
G01 X-2.54 Y35.35 
G01 X-2.47 Y35.39 
G01 X-2.39 Y35.41 
G01 X-2.39 Y35.41 
G01 X-2.11 Y35.52 
G01 X-1.89 Y35.74 
G01 X-1.78 Y36.02 
G01 X-1.78 Y37.64 
G01 X-1.89 Y37.92 
G01 X-1.98 Y38.01 
G01 X-2.04 Y38.06 
G01 X-2.05 Y38.09 
G01 X-2.08 Y38.14 
G01 X-2.10 Y38.21 
G01 X-2.10 Y42.75 
G01 X-2.08 Y42.82 
G01 X-2.04 Y42.89 
G01 X-1.98 Y42.95 
G01 X-1.79 Y43.14 
G01 X-1.66 Y43.27 
G01 X-1.63 Y43.33 
G01 X-1.68 Y43.25 
G01 X-1.75 Y43.18 
G01 X-2.10 Y42.83 
G01 X-2.10 Y38.11 
G01 X-2.05 Y38.08 
G01 X-1.95 Y37.98 
G01 X-1.87 Y37.85 
G01 X-1.81 Y37.71 
G01 X-1.78 Y37.57 
G01 X-1.78 Y36.09 
G01 X-1.81 Y35.95 
G01 X-1.87 Y35.81 
G01 X-1.95 Y35.68 
G01 X-2.05 Y35.58 
G01 X-2.18 Y35.49 
G01 X-2.32 Y35.44 
G01 X-2.47 Y35.41 
G01 X-2.61 Y35.41 
G01 X-2.76 Y35.44 
G01 X-2.90 Y35.49 
G01 X-3.03 Y35.58 
G01 X-3.13 Y35.68 
G01 X-3.21 Y35.81 
G01 X-3.27 Y35.95 
G01 X-3.30 Y36.09 
G01 X-3.30 Y37.57 
G01 X-3.27 Y37.71 
G01 X-3.21 Y37.85 
G01 X-3.13 Y37.98 
G01 X-3.03 Y38.08 
G01 X-2.90 Y38.16 
G01 X-2.90 Y43.05 
G01 X-2.87 Y43.15 
G01 X-2.82 Y43.25 
G01 X-2.40 Y43.67 
G01 X-2.40 Y45.33 
G01 X-3.17 Y46.10 
G01 X-5.60 Y46.10 
G01 X-5.60 Y44.97 
G01 X-5.45 Y44.82 
G01 X-5.45 Y44.08 
G01 X-5.98 Y43.55 
G01 X-6.72 Y43.55 
G01 X-7.02 Y43.85 
G01 X-26.34 Y43.85 
G01 X-26.33 Y43.85 
G01 X-7.11 Y43.85 
G01 X-7.03 Y43.83 
G01 X-6.96 Y43.79 
G01 X-6.91 Y43.73 
G01 X-6.72 Y43.55 
G01 X-5.98 Y43.55 
G01 X-5.90 Y43.53 
G01 X-5.90 Y43.53 
G01 X-5.83 Y43.49 
G01 X-5.77 Y43.43 
G01 X-5.73 Y43.36 
G01 X-5.71 Y43.28 
G01 X-5.71 Y43.20 
G01 X-5.73 Y43.13 
G01 X-5.73 Y43.13 
G01 X-5.77 Y43.06 
G01 X-5.83 Y43.00 
G01 X-7.73 Y41.10 
G01 X-7.80 Y41.06 
G01 X-7.87 Y41.04 
G01 X-25.48 Y41.04 
G01 X-25.54 Y41.02 
G01 X-25.45 Y41.04 
G01 X-7.79 Y41.04 
G01 X-4.67 Y44.16 
G01 X-4.68 Y44.19 
G01 X-4.71 Y44.36 
G01 X-4.71 Y44.54 
G01 X-4.68 Y44.71 
G01 X-4.61 Y44.88 
G01 X-4.51 Y45.02 
G01 X-4.38 Y45.15 
G01 X-4.24 Y45.25 
G01 X-4.07 Y45.32 
G01 X-3.90 Y45.35 
G01 X-3.72 Y45.35 
G01 X-3.55 Y45.32 
G01 X-3.38 Y45.25 
G01 X-3.24 Y45.15 
G01 X-3.11 Y45.02 
G01 X-3.01 Y44.88 
G01 X-2.94 Y44.71 
G01 X-2.91 Y44.54 
G01 X-2.91 Y44.36 
G01 X-2.94 Y44.19 
G01 X-3.01 Y44.02 
G01 X-3.11 Y43.88 
G01 X-3.24 Y43.75 
G01 X-3.38 Y43.65 
G01 X-3.55 Y43.58 
G01 X-3.72 Y43.55 
G01 X-3.90 Y43.55 
G01 X-4.07 Y43.58 
G01 X-4.10 Y43.59 
G01 X-7.30 Y40.39 
G01 X-7.37 Y40.32 
G01 X-7.47 Y40.27 
G01 X-7.57 Y40.24 
G01 X-25.00 Y40.24 
G01 X-25.00 Y39.32 
G01 X-25.03 Y39.22 
G01 X-25.08 Y39.12 
G01 X-27.62 Y36.58 
G01 X-27.69 Y36.51 
G01 X-27.79 Y36.46 
G01 X-27.89 Y36.43 
G01 X-39.20 Y36.43 
G01 X-41.59 Y34.04 
G01 X-41.66 Y33.97 
G01 X-41.74 Y33.92 
G01 X-41.68 Y33.95 
G00 Z1.00 
G00 X-26.61 Y43.85 
G01 Z-0.20 F60.00 
G01 X-26.59 Y43.85 F80.00 
G01 X-26.58 Y43.85 
G01 X-26.53 Y43.85 
G01 X-26.53 Y43.85 
G01 X-26.49 Y43.85 
G01 X-26.46 Y43.85 
G01 X-26.45 Y43.85 
G01 X-26.40 Y43.85 
G01 X-26.40 Y43.85 
G01 X-26.37 Y43.85 
G01 X-26.36 Y43.85 
G01 X-26.44 Y43.85 
G01 X-26.44 Y43.85 
G01 X-26.49 Y43.85 
G01 X-26.54 Y43.85 
G01 X-26.55 Y43.85 
G01 X-26.62 Y43.85 
G01 X-26.61 Y43.85 
G00 Z1.00 
G00 X-7.25 Y44.82 
G01 Z-0.20 F60.00 
G01 X-6.72 Y45.35 F80.00 
G01 X-6.40 Y45.35 
G01 X-6.40 Y46.55 
G01 X-6.38 Y46.64 
G01 X-6.40 Y46.58 
G01 X-6.40 Y45.62 
G01 X-6.42 Y45.54 
G01 X-6.46 Y45.47 
G01 X-6.52 Y45.41 
G01 X-6.59 Y45.37 
G01 X-6.67 Y45.35 
G01 X-6.72 Y45.35 
G01 X-7.36 Y44.71 
G01 X-7.43 Y44.67 
G01 X-7.51 Y44.65 
G01 X-26.45 Y44.65 
G01 X-26.45 Y44.65 
G01 X-26.49 Y44.65 
G01 X-26.52 Y44.65 
G01 X-26.53 Y44.65 
G01 X-35.34 Y44.82 
G01 X-35.38 Y44.82 
G01 X-35.38 Y44.82 
G01 X-35.38 Y44.82 
G01 X-35.42 Y44.83 
G01 X-35.46 Y44.84 
G01 X-35.46 Y44.85 
G01 X-35.46 Y44.85 
G01 X-35.49 Y44.87 
G01 X-35.53 Y44.88 
G01 X-35.53 Y44.89 
G01 X-35.56 Y44.91 
G01 X-35.74 Y45.10 
G01 X-36.02 Y45.21 
G01 X-37.64 Y45.21 
G01 X-37.92 Y45.10 
G01 X-38.14 Y44.88 
G01 X-38.25 Y44.60 
G01 X-38.25 Y44.30 
G01 X-38.14 Y44.02 
G01 X-37.92 Y43.80 
G01 X-37.64 Y43.69 
G01 X-36.02 Y43.69 
G01 X-35.74 Y43.80 
G01 X-35.64 Y43.90 
G01 X-35.63 Y43.91 
G01 X-35.61 Y43.93 
G01 X-35.58 Y43.96 
G01 X-35.58 Y43.96 
G01 X-35.54 Y43.98 
G01 X-35.51 Y44.00 
G01 X-35.51 Y44.00 
G01 X-35.51 Y44.00 
G01 X-35.47 Y44.01 
G01 X-35.44 Y44.02 
G01 X-35.43 Y44.02 
G01 X-35.43 Y44.02 
G01 X-35.39 Y44.02 
G01 X-35.36 Y44.02 
G01 X-35.35 Y44.02 
G01 X-26.65 Y43.85 
G01 X-26.65 Y43.85 
G01 X-35.54 Y44.02 
G01 X-35.58 Y43.96 
G01 X-35.68 Y43.86 
G01 X-35.81 Y43.78 
G01 X-35.95 Y43.72 
G01 X-36.09 Y43.69 
G01 X-37.57 Y43.69 
G01 X-37.71 Y43.72 
G01 X-37.85 Y43.78 
G01 X-37.98 Y43.86 
G01 X-38.08 Y43.96 
G01 X-38.17 Y44.09 
G01 X-38.22 Y44.23 
G01 X-38.25 Y44.38 
G01 X-38.25 Y44.52 
G01 X-38.22 Y44.67 
G01 X-38.17 Y44.81 
G01 X-38.08 Y44.94 
G01 X-37.98 Y45.04 
G01 X-37.85 Y45.12 
G01 X-37.71 Y45.18 
G01 X-37.57 Y45.21 
G01 X-36.09 Y45.21 
G01 X-35.95 Y45.18 
G01 X-35.81 Y45.12 
G01 X-35.68 Y45.04 
G01 X-35.58 Y44.94 
G01 X-35.50 Y44.83 
G01 X-26.49 Y44.65 
G01 X-7.25 Y44.65 
G01 X-7.25 Y44.82 
G00 Z1.00 
G00 X-1.60 Y43.42 
G01 Z-0.20 F60.00 
G01 X-1.60 Y45.58 F80.00 
G01 X-1.62 Y45.64 
G01 X-1.60 Y45.55 
G01 X-1.60 Y43.45 
G01 X-1.62 Y43.36 
G01 X-1.60 Y43.42 
G00 Z1.00 
G00 X-24.03 Y2.14 
G01 Z-0.20 F60.00 
G01 X-2.46 Y2.14 F80.00 
G01 X-2.40 Y2.16 
G01 X-2.49 Y2.14 
G01 X-24.00 Y2.14 
G01 X-24.09 Y2.16 
G01 X-24.03 Y2.14 
G00 Z1.00 
G00 X-1.67 Y9.76 
G01 Z-0.20 F60.00 
G01 X-5.13 Y9.76 F80.00 
G01 X-5.22 Y9.78 
G01 X-5.16 Y9.76 
G01 X-1.94 Y9.76 
G01 X-1.86 Y9.74 
G01 X-1.79 Y9.70 
G01 X-1.73 Y9.64 
G01 X-1.69 Y9.57 
G01 X-1.67 Y9.49 
G01 X-1.67 Y4.06 
G01 X-1.69 Y3.99 
G01 X-1.73 Y3.92 
G01 X-1.79 Y3.86 
G01 X-2.65 Y3.00 
G01 X-2.72 Y2.96 
G01 X-2.79 Y2.94 
G01 X-23.70 Y2.94 
G01 X-23.78 Y2.96 
G01 X-23.85 Y3.00 
G01 X-23.90 Y3.06 
G01 X-24.10 Y3.26 
G01 X-24.11 Y3.26 
G01 X-23.79 Y2.94 
G01 X-2.71 Y2.94 
G01 X-1.67 Y3.98 
G01 X-1.67 Y9.76 
G00 Z1.00 
G00 X-24.13 Y3.29 
G01 Z-0.20 F60.00 
G01 X-24.14 Y3.30 F80.00 
G01 X-24.15 Y3.32 
G01 X-24.16 Y3.33 
G01 X-24.17 Y3.35 
G01 X-24.18 Y3.37 
G01 X-24.19 Y3.39 
G01 X-24.20 Y3.41 
G01 X-24.20 Y3.43 
G01 X-24.20 Y3.45 
G01 X-24.20 Y3.47 
G01 X-24.21 Y3.49 
G01 X-24.20 Y3.51 
G01 X-24.20 Y3.53 
G01 X-24.20 Y3.55 
G01 X-24.20 Y3.57 
G01 X-24.19 Y3.58 
G01 X-24.18 Y3.60 
G01 X-24.18 Y3.61 
G01 X-24.18 Y4.02 
G01 X-24.25 Y4.19 
G01 X-24.21 Y4.05 
G01 X-24.18 Y3.89 
G01 X-24.18 Y3.73 
G01 X-24.21 Y3.57 
G01 X-24.26 Y3.41 
G01 X-24.12 Y3.28 
G01 X-24.13 Y3.29 
G00 Z1.00 
G00 X-24.98 Y2.79 
G01 Z-0.20 F60.00 
G01 X-25.14 Y2.77 F80.00 
G01 X-25.30 Y2.77 
G01 X-25.47 Y2.79 
G01 X-25.60 Y2.84 
G01 X-25.43 Y2.77 
G01 X-25.02 Y2.77 
G01 X-25.02 Y2.77 
G01 X-25.00 Y2.78 
G01 X-24.98 Y2.78 
G01 X-24.96 Y2.79 
G01 X-24.94 Y2.79 
G01 X-24.92 Y2.79 
G01 X-24.90 Y2.79 
G01 X-24.88 Y2.79 
G01 X-24.86 Y2.79 
G01 X-24.84 Y2.79 
G01 X-24.82 Y2.78 
G01 X-24.80 Y2.78 
G01 X-24.78 Y2.77 
G01 X-24.76 Y2.76 
G01 X-24.74 Y2.75 
G01 X-24.73 Y2.74 
G01 X-24.71 Y2.73 
G01 X-24.70 Y2.72 
G01 X-24.69 Y2.71 
G01 X-24.82 Y2.84 
G01 X-24.98 Y2.79 
G00 Z1.00 
G00 X-24.67 Y2.69 
G01 Z-0.20 F60.00 
G01 X-24.18 Y2.20 F80.00 
G01 X-24.12 Y2.17 
G01 X-24.20 Y2.22 
G01 X-24.67 Y2.70 
G01 X-24.67 Y2.69 
G00 Z1.00 
G00 X-7.43 Y19.56 
G01 Z-0.20 F60.00 
G01 X-7.94 Y19.56 F80.00 
G01 X-8.38 Y20.00 
G01 X-8.38 Y20.64 
G01 X-7.94 Y21.08 
G01 X-7.30 Y21.08 
G01 X-6.86 Y20.64 
G01 X-6.86 Y20.13 
G01 X-6.10 Y19.37 
G01 X-6.03 Y19.30 
G01 X-5.98 Y19.22 
G01 X-6.01 Y19.28 
G01 X-6.19 Y19.46 
G01 X-6.80 Y20.07 
G01 X-6.84 Y20.13 
G01 X-6.86 Y20.21 
G01 X-6.86 Y20.64 
G01 X-7.30 Y21.08 
G01 X-7.94 Y21.08 
G01 X-8.38 Y20.64 
G01 X-8.38 Y20.00 
G01 X-7.94 Y19.56 
G01 X-7.51 Y19.56 
G01 X-7.43 Y19.54 
G01 X-7.37 Y19.50 
G01 X-7.31 Y19.44 
G01 X-6.81 Y18.94 
G01 X-6.77 Y18.87 
G01 X-6.75 Y18.80 
G01 X-6.75 Y11.35 
G01 X-6.73 Y11.29 
G01 X-6.75 Y11.38 
G01 X-6.75 Y18.88 
G01 X-7.43 Y19.56 
G00 Z1.00 
G00 X-44.46 Y33.89 
G01 Z-0.20 F60.00 
G01 X-41.83 Y33.89 F80.00 
G01 X-41.77 Y33.91 
G01 X-41.86 Y33.89 
G01 X-44.47 Y33.89 
G01 X-44.46 Y33.89 
G00 Z1.00 
G00 X-25.80 Y39.54 
G01 Z-0.20 F60.00 
G01 X-25.80 Y40.69 F80.00 
G01 X-25.78 Y40.78 
G01 X-25.80 Y40.72 
G01 X-25.80 Y39.62 
G01 X-25.82 Y39.55 
G01 X-25.86 Y39.48 
G01 X-25.92 Y39.42 
G01 X-28.05 Y37.29 
G01 X-28.12 Y37.25 
G01 X-28.19 Y37.23 
G01 X-39.45 Y37.23 
G01 X-39.51 Y37.21 
G01 X-39.42 Y37.23 
G01 X-28.11 Y37.23 
G01 X-25.80 Y39.54 
G00 Z1.00 
G00 X-48.06 Y31.73 
G01 Z-0.20 F60.00 
G01 X-48.20 Y31.87 F80.00 
G01 X-48.82 Y32.49 
G01 X-48.83 Y32.50 
G01 X-48.08 Y31.75 
G01 X-48.03 Y31.67 
G01 X-48.06 Y31.73 
G00 Z1.00 
G00 X-4.02 Y5.94 
G01 Z-0.20 F60.00 
G01 X-4.19 Y5.87 F80.00 
G01 X-4.05 Y5.92 
G01 X-3.89 Y5.94 
G01 X-3.73 Y5.94 
G01 X-3.57 Y5.92 
G01 X-3.43 Y5.87 
G01 X-3.60 Y5.94 
G01 X-4.02 Y5.94 
G00 Z1.00 
G00 X-3.22 Y5.79 
G01 Z-0.20 F60.00 
G01 X-3.39 Y5.86 F80.00 
G01 X-3.26 Y5.79 
G01 X-3.13 Y5.70 
G01 X-3.02 Y5.58 
G01 X-2.92 Y5.45 
G01 X-2.86 Y5.32 
G01 X-2.93 Y5.49 
G01 X-3.22 Y5.79 
G00 Z1.00 
G00 X-2.85 Y7.40 
G01 Z-0.20 F60.00 
G01 X-2.92 Y7.25 F80.00 
G01 X-3.02 Y7.12 
G01 X-3.13 Y7.00 
G01 X-3.26 Y6.91 
G01 X-3.41 Y6.83 
G01 X-3.45 Y6.82 
G01 X-3.45 Y6.76 
G01 X-3.39 Y6.79 
G01 X-3.24 Y6.86 
G01 X-3.10 Y6.96 
G01 X-2.98 Y7.09 
G01 X-2.88 Y7.23 
G01 X-2.80 Y7.38 
G01 X-2.78 Y7.44 
G01 X-2.83 Y7.44 
G01 X-2.85 Y7.40 
G00 Z1.00 
G00 X-4.77 Y8.20 
G01 Z-0.20 F60.00 
G01 X-4.70 Y8.34 F80.00 
G01 X-4.60 Y8.48 
G01 X-4.49 Y8.59 
G01 X-4.36 Y8.69 
G01 X-4.21 Y8.76 
G01 X-4.16 Y8.78 
G01 X-4.16 Y8.83 
G01 X-4.23 Y8.81 
G01 X-4.38 Y8.73 
G01 X-4.52 Y8.63 
G01 X-4.64 Y8.51 
G01 X-4.74 Y8.37 
G01 X-4.82 Y8.22 
G01 X-4.84 Y8.15 
G01 X-4.79 Y8.15 
G01 X-4.77 Y8.20 
G00 Z1.00 
G00 X-4.21 Y6.83 
G01 Z-0.20 F60.00 
G01 X-4.36 Y6.91 F80.00 
G01 X-4.49 Y7.00 
G01 X-4.60 Y7.12 
G01 X-4.70 Y7.25 
G01 X-4.77 Y7.40 
G01 X-4.79 Y7.44 
G01 X-4.84 Y7.44 
G01 X-4.82 Y7.38 
G01 X-4.74 Y7.23 
G01 X-4.64 Y7.09 
G01 X-4.52 Y6.96 
G01 X-4.38 Y6.86 
G01 X-4.23 Y6.79 
G01 X-4.16 Y6.76 
G01 X-4.16 Y6.82 
G01 X-4.21 Y6.83 
G00 Z1.00 
G00 X-2.98 Y8.51 
G01 Z-0.20 F60.00 
G01 X-3.10 Y8.63 F80.00 
G01 X-3.24 Y8.73 
G01 X-3.39 Y8.81 
G01 X-3.45 Y8.83 
G01 X-3.45 Y8.78 
G01 X-3.41 Y8.76 
G01 X-3.26 Y8.69 
G01 X-3.13 Y8.59 
G01 X-3.02 Y8.48 
G01 X-2.92 Y8.34 
G01 X-2.85 Y8.20 
G01 X-2.83 Y8.15 
G01 X-2.78 Y8.15 
G01 X-2.80 Y8.22 
G01 X-2.88 Y8.37 
G01 X-2.98 Y8.51 
G00 Z1.00 
G00 X-2.77 Y5.11 
G01 Z-0.20 F60.00 
G01 X-2.84 Y5.28 F80.00 
G01 X-2.79 Y5.15 
G01 X-2.77 Y4.98 
G01 X-2.77 Y4.82 
G01 X-2.79 Y4.66 
G01 X-2.84 Y4.53 
G01 X-2.77 Y4.69 
G01 X-2.77 Y5.11 
G00 Z1.00 
G00 X-2.93 Y4.31 
G01 Z-0.20 F60.00 
G01 X-2.86 Y4.48 F80.00 
G01 X-2.92 Y4.36 
G01 X-3.02 Y4.22 
G01 X-3.13 Y4.11 
G01 X-3.26 Y4.01 
G01 X-3.39 Y3.95 
G01 X-3.22 Y4.02 
G01 X-2.93 Y4.31 
G00 Z1.00 
G00 X-3.60 Y3.86 
G01 Z-0.20 F60.00 
G01 X-3.43 Y3.93 F80.00 
G01 X-3.57 Y3.89 
G01 X-3.73 Y3.86 
G01 X-3.89 Y3.86 
G01 X-4.05 Y3.89 
G01 X-4.19 Y3.93 
G01 X-4.02 Y3.86 
G01 X-3.60 Y3.86 
G00 Z1.00 
G00 X-4.95 Y4.50 
G01 Z-0.20 F60.00 
G01 X-4.93 Y4.50 F80.00 
G01 X-4.92 Y4.49 
G01 X-4.90 Y4.49 
G01 X-4.88 Y4.48 
G01 X-4.86 Y4.48 
G01 X-4.84 Y4.47 
G01 X-4.82 Y4.46 
G01 X-4.81 Y4.45 
G01 X-4.79 Y4.44 
G01 X-4.77 Y4.42 
G01 X-4.76 Y4.41 
G01 X-4.75 Y4.40 
G01 X-4.73 Y4.38 
G01 X-4.72 Y4.37 
G01 X-4.71 Y4.35 
G01 X-4.70 Y4.33 
G01 X-4.69 Y4.31 
G01 X-4.69 Y4.31 
G01 X-4.40 Y4.02 
G01 X-4.23 Y3.95 
G01 X-4.36 Y4.01 
G01 X-4.49 Y4.11 
G01 X-4.60 Y4.22 
G01 X-4.70 Y4.36 
G01 X-4.77 Y4.50 
G01 X-4.96 Y4.50 
G01 X-4.95 Y4.50 
G00 Z1.00 
G00 X-8.79 Y4.50 
G01 Z-0.20 F60.00 
G01 X-4.99 Y4.50 F80.00 
G01 X-4.99 Y4.50 
G01 X-8.76 Y4.50 
G01 X-8.85 Y4.52 
G01 X-8.79 Y4.50 
G00 Z1.00 
G00 X-16.17 Y20.55 
G01 Z-0.20 F60.00 
G01 X-18.69 Y23.07 F80.00 
G01 X-18.82 Y23.20 
G01 X-18.88 Y23.23 
G01 X-18.80 Y23.18 
G01 X-18.73 Y23.11 
G01 X-16.19 Y20.57 
G01 X-16.14 Y20.49 
G01 X-16.17 Y20.55 
G00 Z1.00 
G00 X-24.85 Y22.46 
G01 Z-0.20 F60.00 
G01 X-19.30 Y22.46 F80.00 
G01 X-19.23 Y22.44 
G01 X-19.16 Y22.40 
G01 X-19.10 Y22.34 
G01 X-16.97 Y20.21 
G01 X-16.93 Y20.14 
G01 X-16.91 Y20.07 
G01 X-16.91 Y12.62 
G01 X-16.89 Y12.56 
G01 X-16.91 Y12.65 
G01 X-16.91 Y20.15 
G01 X-19.22 Y22.46 
G01 X-24.82 Y22.46 
G01 X-24.90 Y22.48 
G01 X-24.85 Y22.46 
G00 Z1.00 
G00 X-30.25 Y33.10 
G01 Z-0.20 F60.00 
G01 X-30.25 Y27.86 F80.00 
G01 X-30.22 Y27.80 
G01 X-30.25 Y27.89 
G01 X-30.25 Y33.07 
G01 X-30.22 Y33.16 
G01 X-30.25 Y33.10 
G00 Z1.00 
G00 X-30.07 Y33.36 
G01 Z-0.20 F60.00 
G01 X-30.19 Y33.25 F80.00 
G01 X-30.21 Y33.19 
G01 X-30.17 Y33.27 
G01 X-30.09 Y33.34 
G01 X-30.01 Y33.39 
G01 X-30.07 Y33.36 
G00 Z1.00 
G00 X-18.97 Y23.26 
G01 Z-0.20 F60.00 
G01 X-24.51 Y23.26 F80.00 
G01 X-24.59 Y23.28 
G01 X-24.66 Y23.32 
G01 X-24.72 Y23.38 
G01 X-29.38 Y28.05 
G01 X-29.42 Y28.12 
G01 X-29.44 Y28.19 
G01 X-29.44 Y32.35 
G01 X-29.42 Y32.43 
G01 X-29.38 Y32.50 
G01 X-29.33 Y32.56 
G01 X-29.26 Y32.60 
G01 X-29.18 Y32.62 
G01 X-11.68 Y32.62 
G01 X-11.61 Y32.60 
G01 X-11.54 Y32.56 
G01 X-11.48 Y32.50 
G01 X-9.71 Y30.73 
G01 X-9.67 Y30.67 
G01 X-9.65 Y30.59 
G01 X-9.65 Y30.16 
G01 X-9.21 Y29.72 
G01 X-8.57 Y29.72 
G01 X-8.13 Y30.16 
G01 X-8.13 Y30.80 
G01 X-8.57 Y31.24 
G01 X-9.00 Y31.24 
G01 X-9.08 Y31.26 
G01 X-9.14 Y31.30 
G01 X-9.16 Y31.32 
G01 X-9.91 Y32.07 
G01 X-9.96 Y32.11 
G01 X-9.97 Y32.13 
G01 X-10.01 Y32.20 
G01 X-10.03 Y32.27 
G01 X-10.03 Y32.35 
G01 X-10.01 Y32.43 
G01 X-9.97 Y32.50 
G01 X-9.91 Y32.56 
G01 X-9.84 Y32.60 
G01 X-9.76 Y32.62 
G01 X-8.81 Y32.62 
G01 X-8.75 Y32.64 
G01 X-8.84 Y32.62 
G01 X-10.46 Y32.62 
G01 X-9.08 Y31.24 
G01 X-8.57 Y31.24 
G01 X-8.13 Y30.80 
G01 X-8.13 Y30.16 
G01 X-8.57 Y29.72 
G01 X-9.21 Y29.72 
G01 X-9.65 Y30.16 
G01 X-9.65 Y30.67 
G01 X-11.60 Y32.62 
G01 X-29.44 Y32.62 
G01 X-29.44 Y28.11 
G01 X-24.60 Y23.26 
G01 X-19.00 Y23.26 
G01 X-18.91 Y23.24 
G01 X-18.97 Y23.26 
G00 Z1.00 
G00 X-8.66 Y32.68 
G01 Z-0.20 F60.00 
G01 X-7.41 Y33.93 F80.00 
G01 X-7.28 Y34.06 
G01 X-7.25 Y34.12 
G01 X-7.30 Y34.04 
G01 X-7.37 Y33.97 
G01 X-8.64 Y32.70 
G01 X-8.72 Y32.65 
G01 X-8.66 Y32.68 
G00 Z1.00 
G00 X-30.19 Y27.71 
G01 Z-0.20 F60.00 
G01 X-30.00 Y27.53 F80.00 
G01 X-24.99 Y22.52 
G01 X-24.93 Y22.49 
G01 X-25.01 Y22.54 
G01 X-30.09 Y27.62 
G01 X-30.17 Y27.69 
G01 X-30.21 Y27.77 
G01 X-30.19 Y27.71 
G00 Z1.00 
G00 X-4.99 Y5.30 
G01 Z-0.20 F60.00 
G01 X-8.46 Y5.30 F80.00 
G01 X-8.54 Y5.33 
G01 X-8.61 Y5.37 
G01 X-8.66 Y5.42 
G01 X-16.05 Y12.81 
G01 X-16.09 Y12.88 
G01 X-16.11 Y12.95 
G01 X-16.11 Y20.40 
G01 X-16.13 Y20.46 
G01 X-16.11 Y20.37 
G01 X-16.11 Y12.87 
G01 X-8.55 Y5.30 
G01 X-4.99 Y5.30 
G01 X-4.99 Y5.30 
G00 Z1.00 
G00 X-16.85 Y12.47 
G01 Z-0.20 F60.00 
G01 X-16.67 Y12.29 F80.00 
G01 X-16.67 Y12.29 
G01 X-8.94 Y4.56 
G01 X-8.88 Y4.54 
G01 X-8.96 Y4.58 
G01 X-16.76 Y12.38 
G01 X-16.83 Y12.45 
G01 X-16.88 Y12.53 
G01 X-16.85 Y12.47 
G00 Z1.00 
G00 X-4.70 Y5.45 
G01 Z-0.20 F60.00 
G01 X-4.60 Y5.58 F80.00 
G01 X-4.49 Y5.70 
G01 X-4.36 Y5.79 
G01 X-4.23 Y5.86 
G01 X-4.40 Y5.79 
G01 X-4.69 Y5.50 
G01 X-4.69 Y5.49 
G01 X-4.70 Y5.47 
G01 X-4.71 Y5.46 
G01 X-4.72 Y5.44 
G01 X-4.73 Y5.42 
G01 X-4.75 Y5.41 
G01 X-4.76 Y5.39 
G01 X-4.77 Y5.38 
G01 X-4.79 Y5.37 
G01 X-4.81 Y5.36 
G01 X-4.82 Y5.34 
G01 X-4.84 Y5.34 
G01 X-4.86 Y5.33 
G01 X-4.88 Y5.32 
G01 X-4.90 Y5.31 
G01 X-4.92 Y5.31 
G01 X-4.93 Y5.30 
G01 X-4.95 Y5.30 
G01 X-4.96 Y5.30 
G01 X-4.77 Y5.30 
G01 X-4.70 Y5.45 
G00 Z1.00 
G00 X-1.68 Y45.75 
G01 Z-0.20 F60.00 
G01 X-1.63 Y45.67 F80.00 
G01 X-1.66 Y45.73 
G01 X-2.72 Y46.79 
G01 X-2.76 Y46.83 
G01 X-2.78 Y46.84 
G01 X-2.82 Y46.91 
G01 X-2.84 Y46.99 
G01 X-2.84 Y47.07 
G01 X-2.82 Y47.15 
G01 X-2.78 Y47.22 
G01 X-2.72 Y47.27 
G01 X-2.65 Y47.31 
G01 X-2.57 Y47.33 
G01 X-1.18 Y47.33 
G01 X-1.10 Y47.31 
G01 X-1.03 Y47.27 
G01 X-0.98 Y47.22 
G01 X-0.94 Y47.15 
G01 X-0.91 Y47.07 
G01 X-0.91 Y10.83 
G01 X-0.94 Y10.75 
G01 X-0.98 Y10.68 
G01 X-1.03 Y10.62 
G01 X-1.10 Y10.58 
G01 X-1.18 Y10.56 
G01 X-4.83 Y10.56 
G01 X-4.90 Y10.58 
G01 X-4.97 Y10.62 
G01 X-5.03 Y10.68 
G01 X-5.83 Y11.48 
G01 X-5.89 Y11.54 
G01 X-5.93 Y11.61 
G01 X-5.95 Y11.68 
G01 X-5.95 Y19.13 
G01 X-5.97 Y19.19 
G01 X-5.95 Y19.10 
G01 X-5.95 Y11.60 
G01 X-4.91 Y10.56 
G01 X-1.22 Y10.56 
G01 X-1.12 Y10.53 
G01 X-1.02 Y10.48 
G01 X-0.95 Y10.41 
G01 X-0.90 Y10.31 
G01 X-0.87 Y10.21 
G01 X-0.87 Y3.76 
G01 X-0.90 Y3.66 
G01 X-0.95 Y3.56 
G01 X-2.22 Y2.29 
G01 X-2.29 Y2.22 
G01 X-2.37 Y2.17 
G01 X-2.31 Y2.20 
G01 X-2.17 Y2.34 
G01 X-1.46 Y3.05 
G01 X-1.42 Y3.09 
G01 X-1.41 Y3.11 
G01 X-1.34 Y3.15 
G01 X-1.26 Y3.17 
G01 X-1.18 Y3.17 
G01 X-1.10 Y3.15 
G01 X-1.03 Y3.11 
G01 X-0.98 Y3.05 
G01 X-0.94 Y2.98 
G01 X-0.91 Y2.90 
G01 X-0.91 Y1.18 
G01 X-0.94 Y1.10 
G01 X-0.98 Y1.03 
G01 X-1.03 Y0.98 
G01 X-1.10 Y0.94 
G01 X-1.18 Y0.91 
G01 X-68.34 Y0.91 
G01 X-68.42 Y0.94 
G01 X-68.49 Y0.98 
G01 X-68.54 Y1.03 
G01 X-68.58 Y1.10 
G01 X-68.60 Y1.18 
G01 X-68.60 Y47.07 
G01 X-68.58 Y47.15 
G01 X-68.54 Y47.22 
G01 X-68.49 Y47.27 
G01 X-68.42 Y47.31 
G01 X-68.34 Y47.33 
G01 X-6.43 Y47.33 
G01 X-6.35 Y47.31 
G01 X-6.31 Y47.29 
G01 X-6.28 Y47.27 
G01 X-6.22 Y47.22 
G01 X-6.18 Y47.15 
G01 X-6.17 Y47.09 
G01 X-6.16 Y47.07 
G01 X-6.16 Y46.99 
G01 X-6.18 Y46.91 
G01 X-6.21 Y46.87 
G01 X-6.22 Y46.84 
G01 X-6.28 Y46.79 
G01 X-6.34 Y46.73 
G01 X-6.37 Y46.67 
G01 X-6.32 Y46.75 
G01 X-6.25 Y46.82 
G01 X-6.15 Y46.87 
G01 X-6.05 Y46.90 
G01 X-2.95 Y46.90 
G01 X-2.85 Y46.87 
G01 X-2.75 Y46.82 
G01 X-2.68 Y46.75 
G01 X-1.68 Y45.75 
G00 Z1.00 
G00 Z2.00 
M05
M02
