(.../pcb-gcode-3.6.0.4/pcb-gcode.ulp)
(Copyright 2005 - 2012 by John Johnson)
(See readme.txt for licensing terms.)
(This file generated from the board:)
(.../Copperclad_CooperBuffer_Amp_V0-5.brd)
(Current profile is .../pcb-gcode-3.6.0.4/profiles/iModela.pp  )
(This file generated 2016-08-05 2:38 PM)
(Settings from pcb-machine.h)
(  Tool Size)
(0.20 )
(Z Axis Settings)
(  High     Up        Down     Drill)
(2.00 	1.00 	-0.20 	-1.80 )
(spindle on time = 1.0000)
(milling depth = -0.2540)
(text depth = -0.1270)
(tool change at 0.00 0.00 10.00 )
(feed rate xy = F80.00 )
(feed rate z  = F60.00 )
(Settings from pcb-defaults.h)
(isolate min = 0.0010)
(isolate max = 0.2000)
(isolate step = 0.2000)
(Generated bottom outlines, bottom drill, )
(Unit of measure: mm)
( Tool|       Size       |  Min Sub |  Max Sub |   Count )
( T01  0.813mm 0.0320in 0.0000in 0.0000in )
( T02  0.900mm 0.0354in 0.0000in 0.0000in )
( T03  1.016mm 0.0400in 0.0000in 0.0000in )
( T04  1.200mm 0.0472in 0.0000in 0.0000in )
( T05  1.702mm 0.0670in 0.0000in 0.0000in )
(Metric Mode)
G21
(Absolute Coordinates)
G90
M05
G00 Z10.00 
G00 X0.00 Y0.00 
(M06 T01  ; 0.81 )
G01 Z0.00 F60.00 
(M06 T01  ; 0.81 )
G00 Z1.00 
M03
G04 P 1
G00 Z1.000000
G00 X-33.02 Y16.51 
G01 Z-1.80 F60.00 
G01 Z1.000000
(R1.00  P1.000000)
(G00 Z1.000000)
G00 X-34.29 Y3.81 
G01 Z-1.800000
G01 Z1.000000
(G00 Z1.000000)
G00 X-34.29 Y6.35 
G01 Z-1.800000
G01 Z1.000000
(G00 Z1.000000)
G00 X-3.81 Y20.32 
G01 Z-1.800000
G01 Z1.000000
(G00 Z1.000000)
G00 X-38.10 Y15.24 
G01 Z-1.800000
G01 Z1.000000
(G00 Z1.000000)
G00 X-38.10 Y17.78 
G01 Z-1.800000
G01 Z1.000000
(G00 Z1.000000)
G00 X-39.37 Y22.86 
G01 Z-1.800000
G01 Z1.000000
(G00 Z1.000000)
G00 X-39.37 Y25.40 
G01 Z-1.800000
G01 Z1.000000
(G00 Z1.000000)
G00 X-40.01 Y3.81 
G01 Z-1.800000
G01 Z1.000000
(G00 Z1.000000)
G00 X-40.01 Y6.35 
G01 Z-1.800000
G01 Z1.000000
(G00 Z1.000000)
G00 X-4.45 Y27.30 
G01 Z-1.800000
G01 Z1.000000
(G00 Z1.000000)
G00 X-4.45 Y29.85 
G01 Z-1.800000
G01 Z1.000000
(G00 Z1.000000)
G00 X-44.45 Y13.97 
G01 Z-1.800000
G01 Z1.000000
(G00 Z1.000000)
G00 X-44.45 Y21.59 
G01 Z-1.800000
G01 Z1.000000
(G00 Z1.000000)
G00 X-46.99 Y13.97 
G01 Z-1.800000
G01 Z1.000000
(G00 Z1.000000)
G00 X-46.99 Y21.59 
G01 Z-1.800000
G01 Z1.000000
(G00 Z1.000000)
G00 X-47.62 Y6.99 
G01 Z-1.800000
G01 Z1.000000
(G00 Z1.000000)
G00 X-47.62 Y9.53 
G01 Z-1.800000
G01 Z1.000000
(G00 Z1.000000)
G00 X-49.53 Y13.97 
G01 Z-1.800000
G01 Z1.000000
(G00 Z1.000000)
G00 X-49.53 Y21.59 
G01 Z-1.800000
G01 Z1.000000
(G00 Z1.000000)
G00 X-52.07 Y13.97 
G01 Z-1.800000
G01 Z1.000000
(G00 Z1.000000)
G00 X-52.07 Y21.59 
G01 Z-1.800000
G01 Z1.000000
(G00 Z1.000000)
G00 X-53.98 Y8.89 
G01 Z-1.800000
G01 Z1.000000
(G00 Z1.000000)
G00 X-55.88 Y16.51 
G01 Z-1.800000
G01 Z1.000000
(G00 Z1.000000)
G00 X-55.88 Y19.05 
G01 Z-1.800000
G01 Z1.000000
(G00 Z1.000000)
G00 X-56.52 Y8.89 
G01 Z-1.800000
G01 Z1.000000
(G00 Z1.000000)
G00 X-6.35 Y20.32 
G01 Z-1.800000
G01 Z1.000000
(G00 Z1.000000)
G00 X-8.89 Y20.32 
G01 Z-1.800000
G01 Z1.000000
(G00 Z1.000000)
G00 X-10.16 Y27.30 
G01 Z-1.800000
G01 Z1.000000
(G00 Z1.000000)
G00 X-10.16 Y29.85 
G01 Z-1.800000
G01 Z1.000000
(G00 Z1.000000)
G00 X-16.51 Y20.96 
G01 Z-1.800000
G01 Z1.000000
(G00 Z1.000000)
G00 X-16.51 Y23.50 
G01 Z-1.800000
G01 Z1.000000
(G00 Z1.000000)
G00 X-16.51 Y27.30 
G01 Z-1.800000
G01 Z1.000000
(G00 Z1.000000)
G00 X-16.51 Y29.85 
G01 Z-1.800000
G01 Z1.000000
(G00 Z1.000000)
G00 X-20.96 Y31.75 
G01 Z-1.800000
G01 Z1.000000
(G00 Z1.000000)
G00 X-20.96 Y27.30 
G01 Z-1.800000
G01 Z1.000000
(G00 Z1.000000)
G00 X-30.48 Y16.51 
G01 Z-1.800000
G01 Z1.000000
(G00 Z1.000000)
G00 X-31.12 Y31.75 
G01 Z-1.800000
G01 Z1.000000
(G00 Z1.000000)
G00 X-31.12 Y27.30 
G01 Z-1.800000
G01 Z1.000000
M05
G00 Z10.00 
(M06 T02  ; 0.90 )
G01 Z0.00 F60.00 
(M06 T02  ; 0.90 )
G00 Z1.00 
M03
G04 P 1
G00 Z1.000000
G00 X-46.99 Y28.89 
G01 Z-1.80 F60.00 
G01 Z1.000000
(R1.00  P1.000000)
(G00 Z1.000000)
G00 X-49.53 Y28.89 
G01 Z-1.800000
G01 Z1.000000
(G00 Z1.000000)
G00 X-52.07 Y28.89 
G01 Z-1.800000
G01 Z1.000000
M05
G00 Z10.00 
(M06 T03  ; 1.02 )
G01 Z0.00 F60.00 
(M06 T03  ; 1.02 )
G00 Z1.00 
M03
G04 P 1
G00 Z1.000000
G00 X-53.80 Y4.45 
G01 Z-1.80 F60.00 
G01 Z1.000000
(R1.00  P1.000000)
(G00 Z1.000000)
G00 X-56.69 Y4.45 
G01 Z-1.800000
G01 Z1.000000
(G00 Z1.000000)
G00 X-15.88 Y14.73 
G01 Z-1.800000
G01 Z1.000000
(G00 Z1.000000)
G00 X-18.41 Y14.48 
G01 Z-1.800000
G01 Z1.000000
(G00 Z1.000000)
G00 X-20.96 Y14.73 
G01 Z-1.800000
G01 Z1.000000
M05
G00 Z10.00 
(M06 T04  ; 1.20 )
G01 Z0.00 F60.00 
(M06 T04  ; 1.20 )
G00 Z1.00 
M03
G04 P 1
G00 Z1.000000
G00 X-16.51 Y8.60 
G01 Z-1.80 F60.00 
G01 Z1.000000
(R1.00  P1.000000)
(G00 Z1.000000)
G00 X-16.51 Y1.60 
G01 Z-1.800000
G01 Z1.000000
(G00 Z1.000000)
G00 X-26.67 Y8.60 
G01 Z-1.800000
G01 Z1.000000
(G00 Z1.000000)
G00 X-26.67 Y1.60 
G01 Z-1.800000
G01 Z1.000000
M05
G00 Z10.00 
(M06 T05  ; 1.70 )
G01 Z0.00 F60.00 
(M06 T05  ; 1.70 )
G00 Z1.00 
M03
G04 P 1
G00 Z1.000000
G00 X-66.04 Y37.61 
G01 Z-1.80 F60.00 
G01 Z1.000000
(R1.00  P1.000000)
(G00 Z1.000000)
G00 X-66.14 Y1.77 
G01 Z-1.800000
G01 Z1.000000
T01 
G00 Z2.00 
M05
M02
