(.../pcb-gcode-3.6.0.4/pcb-gcode.ulp)
(Copyright 2005 - 2012 by John Johnson)
(See readme.txt for licensing terms.)
(This file generated from the board:)
(.../Copperclad_CooperBuffer_Amp2.brd)
(Current profile is .../pcb-gcode-3.6.0.4/profiles/imodela.pp  )
(This file generated 8/3/16 4:01 PM)
(Settings from pcb-machine.h)
(  Tool Size)
(0.20 )
(Z Axis Settings)
(  High     Up        Down     Drill)
(2.00 	1.00 	-0.20 	-1.80 )
(spindle on time = 1.0000)
(milling depth = -0.2000)
(text depth = -0.1270)
(tool change at 0.00 0.00 10.00 )
(feed rate xy = F80.00 )
(feed rate z  = F60.00 )
(Settings from pcb-defaults.h)
(isolate min = 0.0010)
(isolate max = 0.2000)
(isolate step = 0.2000)
(Generated top outlines, top drill, )
(Unit of measure: mm)
(Metric Mode)
G21
(Absolute Coordinates)
G90
G00 X0.00 Y0.00 
M03
G04 P 1
G00 Z1.00 
G00 X4.85 Y15.34 
G01 Z-0.20 F60.00 
G01 X4.85 Y15.50 F80.00 
G01 X4.83 Y15.66 
G01 X4.77 Y15.82 
G01 X4.70 Y15.96 
G01 X4.60 Y16.10 
G01 X4.49 Y16.21 
G01 X4.36 Y16.31 
G01 X4.21 Y16.38 
G01 X4.05 Y16.43 
G01 X3.89 Y16.46 
G01 X3.73 Y16.46 
G01 X3.57 Y16.43 
G01 X3.41 Y16.38 
G01 X3.26 Y16.31 
G01 X3.13 Y16.21 
G01 X3.02 Y16.10 
G01 X2.92 Y15.96 
G01 X2.85 Y15.82 
G01 X2.79 Y15.66 
G01 X2.77 Y15.50 
G01 X2.77 Y15.34 
G01 X2.79 Y15.17 
G01 X2.85 Y15.02 
G01 X2.92 Y14.87 
G01 X3.02 Y14.74 
G01 X3.13 Y14.62 
G01 X3.26 Y14.53 
G01 X3.41 Y14.45 
G01 X3.57 Y14.40 
G01 X3.73 Y14.38 
G01 X3.89 Y14.38 
G01 X4.05 Y14.40 
G01 X4.21 Y14.45 
G01 X4.36 Y14.53 
G01 X4.49 Y14.62 
G01 X4.60 Y14.74 
G01 X4.70 Y14.87 
G01 X4.77 Y15.02 
G01 X4.83 Y15.17 
G01 X4.85 Y15.34 
G00 Z1.00 
G00 X4.85 Y12.44 
G01 Z-0.20 F60.00 
G01 X4.85 Y12.60 F80.00 
G01 X4.83 Y12.77 
G01 X4.77 Y12.92 
G01 X4.70 Y13.07 
G01 X4.60 Y13.20 
G01 X4.49 Y13.32 
G01 X4.36 Y13.41 
G01 X4.21 Y13.49 
G01 X4.05 Y13.54 
G01 X3.89 Y13.56 
G01 X3.73 Y13.56 
G01 X3.57 Y13.54 
G01 X3.41 Y13.49 
G01 X3.26 Y13.41 
G01 X3.13 Y13.32 
G01 X3.02 Y13.20 
G01 X2.92 Y13.07 
G01 X2.85 Y12.92 
G01 X2.79 Y12.77 
G01 X2.77 Y12.60 
G01 X2.77 Y12.44 
G01 X2.79 Y12.28 
G01 X2.85 Y12.12 
G01 X2.92 Y11.98 
G01 X3.02 Y11.84 
G01 X3.13 Y11.73 
G01 X3.26 Y11.63 
G01 X3.41 Y11.56 
G01 X3.57 Y11.51 
G01 X3.73 Y11.48 
G01 X3.89 Y11.48 
G01 X4.05 Y11.51 
G01 X4.21 Y11.56 
G01 X4.36 Y11.63 
G01 X4.49 Y11.73 
G01 X4.60 Y11.84 
G01 X4.70 Y11.98 
G01 X4.77 Y12.12 
G01 X4.83 Y12.28 
G01 X4.85 Y12.44 
G00 Z1.00 
G00 X7.25 Y44.08 
G01 Z-0.20 F60.00 
G01 X7.25 Y44.82 F80.00 
G01 X6.72 Y45.35 
G01 X5.98 Y45.35 
G01 X5.45 Y44.82 
G01 X5.45 Y44.08 
G01 X5.98 Y43.55 
G01 X6.72 Y43.55 
G01 X7.25 Y44.08 
G00 Z1.00 
G00 X4.71 Y44.36 
G01 Z-0.20 F60.00 
G01 X4.71 Y44.54 F80.00 
G01 X4.68 Y44.71 
G01 X4.61 Y44.88 
G01 X4.51 Y45.02 
G01 X4.38 Y45.15 
G01 X4.24 Y45.25 
G01 X4.07 Y45.32 
G01 X3.90 Y45.35 
G01 X3.72 Y45.35 
G01 X3.55 Y45.32 
G01 X3.38 Y45.25 
G01 X3.24 Y45.15 
G01 X3.11 Y45.02 
G01 X3.01 Y44.88 
G01 X2.94 Y44.71 
G01 X2.91 Y44.54 
G01 X2.91 Y44.36 
G01 X2.94 Y44.19 
G01 X3.01 Y44.02 
G01 X3.11 Y43.88 
G01 X3.24 Y43.75 
G01 X3.38 Y43.65 
G01 X3.55 Y43.58 
G01 X3.72 Y43.55 
G01 X3.90 Y43.55 
G01 X4.07 Y43.58 
G01 X4.24 Y43.65 
G01 X4.38 Y43.75 
G01 X4.51 Y43.88 
G01 X4.61 Y44.02 
G01 X4.68 Y44.19 
G01 X4.71 Y44.36 
G00 Z1.00 
G00 X14.73 Y18.10 
G01 Z-0.20 F60.00 
G01 X14.73 Y18.73 F80.00 
G01 X14.29 Y19.18 
G01 X13.65 Y19.18 
G01 X13.21 Y18.73 
G01 X13.21 Y18.10 
G01 X13.65 Y17.65 
G01 X14.29 Y17.65 
G01 X14.73 Y18.10 
G00 Z1.00 
G00 X12.19 Y18.10 
G01 Z-0.20 F60.00 
G01 X12.19 Y18.73 F80.00 
G01 X11.75 Y19.18 
G01 X11.11 Y19.18 
G01 X10.67 Y18.73 
G01 X10.67 Y18.10 
G01 X11.11 Y17.65 
G01 X11.75 Y17.65 
G01 X12.19 Y18.10 
G00 Z1.00 
G00 X23.76 Y14.23 
G01 Z-0.20 F60.00 
G01 X23.76 Y14.98 F80.00 
G01 X23.23 Y15.51 
G01 X22.49 Y15.51 
G01 X21.96 Y14.98 
G01 X21.96 Y14.23 
G01 X22.49 Y13.70 
G01 X23.23 Y13.70 
G01 X23.76 Y14.23 
G00 Z1.00 
G00 X21.22 Y14.52 
G01 Z-0.20 F60.00 
G01 X21.22 Y14.69 F80.00 
G01 X21.19 Y14.87 
G01 X21.12 Y15.03 
G01 X21.02 Y15.18 
G01 X20.89 Y15.30 
G01 X20.75 Y15.40 
G01 X20.58 Y15.47 
G01 X20.41 Y15.51 
G01 X20.23 Y15.51 
G01 X20.06 Y15.47 
G01 X19.89 Y15.40 
G01 X19.75 Y15.30 
G01 X19.62 Y15.18 
G01 X19.52 Y15.03 
G01 X19.45 Y14.87 
G01 X19.42 Y14.69 
G01 X19.42 Y14.52 
G01 X19.45 Y14.34 
G01 X19.52 Y14.18 
G01 X19.62 Y14.03 
G01 X19.75 Y13.91 
G01 X19.89 Y13.81 
G01 X20.06 Y13.74 
G01 X20.23 Y13.70 
G01 X20.41 Y13.70 
G01 X20.58 Y13.74 
G01 X20.75 Y13.81 
G01 X20.89 Y13.91 
G01 X21.02 Y14.03 
G01 X21.12 Y14.18 
G01 X21.19 Y14.34 
G01 X21.22 Y14.52 
G00 Z1.00 
G00 X12.17 Y45.21 
G01 Z-0.20 F60.00 
G01 X10.69 Y45.21 F80.00 
G01 X10.55 Y45.18 
G01 X10.41 Y45.12 
G01 X10.28 Y45.04 
G01 X10.18 Y44.94 
G01 X10.09 Y44.81 
G01 X10.04 Y44.67 
G01 X10.01 Y44.52 
G01 X10.01 Y44.38 
G01 X10.04 Y44.23 
G01 X10.09 Y44.09 
G01 X10.18 Y43.96 
G01 X10.28 Y43.86 
G01 X10.41 Y43.78 
G01 X10.55 Y43.72 
G01 X10.69 Y43.69 
G01 X12.17 Y43.69 
G01 X12.31 Y43.72 
G01 X12.45 Y43.78 
G01 X12.58 Y43.86 
G01 X12.68 Y43.96 
G01 X12.77 Y44.09 
G01 X12.82 Y44.23 
G01 X12.85 Y44.38 
G01 X12.85 Y44.52 
G01 X12.82 Y44.67 
G01 X12.77 Y44.81 
G01 X12.68 Y44.94 
G01 X12.58 Y45.04 
G01 X12.45 Y45.12 
G01 X12.31 Y45.18 
G01 X12.17 Y45.21 
G00 Z1.00 
G00 X22.33 Y45.21 
G01 Z-0.20 F60.00 
G01 X20.85 Y45.21 F80.00 
G01 X20.71 Y45.18 
G01 X20.57 Y45.12 
G01 X20.44 Y45.04 
G01 X20.34 Y44.94 
G01 X20.25 Y44.81 
G01 X20.20 Y44.67 
G01 X20.17 Y44.52 
G01 X20.17 Y44.38 
G01 X20.20 Y44.23 
G01 X20.25 Y44.09 
G01 X20.34 Y43.96 
G01 X20.44 Y43.86 
G01 X20.57 Y43.78 
G01 X20.71 Y43.72 
G01 X20.85 Y43.69 
G01 X22.33 Y43.69 
G01 X22.47 Y43.72 
G01 X22.61 Y43.78 
G01 X22.74 Y43.86 
G01 X22.84 Y43.96 
G01 X22.93 Y44.09 
G01 X22.98 Y44.23 
G01 X23.01 Y44.38 
G01 X23.01 Y44.52 
G01 X22.98 Y44.67 
G01 X22.93 Y44.81 
G01 X22.84 Y44.94 
G01 X22.74 Y45.04 
G01 X22.61 Y45.12 
G01 X22.47 Y45.18 
G01 X22.33 Y45.21 
G00 Z1.00 
G00 X11.94 Y31.22 
G01 Z-0.20 F60.00 
G01 X11.94 Y29.74 F80.00 
G01 X11.97 Y29.60 
G01 X12.03 Y29.46 
G01 X12.11 Y29.33 
G01 X12.21 Y29.23 
G01 X12.34 Y29.14 
G01 X12.48 Y29.09 
G01 X12.63 Y29.06 
G01 X12.77 Y29.06 
G01 X12.92 Y29.09 
G01 X13.06 Y29.14 
G01 X13.19 Y29.23 
G01 X13.29 Y29.33 
G01 X13.37 Y29.46 
G01 X13.43 Y29.60 
G01 X13.46 Y29.74 
G01 X13.46 Y31.22 
G01 X13.43 Y31.36 
G01 X13.37 Y31.50 
G01 X13.29 Y31.63 
G01 X13.19 Y31.73 
G01 X13.06 Y31.82 
G01 X12.92 Y31.87 
G01 X12.77 Y31.90 
G01 X12.63 Y31.90 
G01 X12.48 Y31.87 
G01 X12.34 Y31.82 
G01 X12.21 Y31.73 
G01 X12.11 Y31.63 
G01 X12.03 Y31.50 
G01 X11.97 Y31.36 
G01 X11.94 Y31.22 
G00 Z1.00 
G00 X11.94 Y41.38 
G01 Z-0.20 F60.00 
G01 X11.94 Y39.90 F80.00 
G01 X11.97 Y39.76 
G01 X12.03 Y39.62 
G01 X12.11 Y39.49 
G01 X12.21 Y39.39 
G01 X12.34 Y39.30 
G01 X12.48 Y39.25 
G01 X12.63 Y39.22 
G01 X12.77 Y39.22 
G01 X12.92 Y39.25 
G01 X13.06 Y39.30 
G01 X13.19 Y39.39 
G01 X13.29 Y39.49 
G01 X13.37 Y39.62 
G01 X13.43 Y39.76 
G01 X13.46 Y39.90 
G01 X13.46 Y41.38 
G01 X13.43 Y41.52 
G01 X13.37 Y41.66 
G01 X13.29 Y41.79 
G01 X13.19 Y41.89 
G01 X13.06 Y41.98 
G01 X12.92 Y42.03 
G01 X12.77 Y42.06 
G01 X12.63 Y42.06 
G01 X12.48 Y42.03 
G01 X12.34 Y41.98 
G01 X12.21 Y41.89 
G01 X12.11 Y41.79 
G01 X12.03 Y41.66 
G01 X11.97 Y41.52 
G01 X11.94 Y41.38 
G00 Z1.00 
G00 X18.54 Y21.52 
G01 Z-0.20 F60.00 
G01 X18.54 Y21.66 F80.00 
G01 X18.51 Y21.81 
G01 X18.45 Y21.95 
G01 X18.37 Y22.08 
G01 X18.27 Y22.18 
G01 X18.14 Y22.26 
G01 X18.00 Y22.32 
G01 X17.85 Y22.35 
G01 X17.71 Y22.35 
G01 X17.56 Y22.32 
G01 X17.42 Y22.26 
G01 X17.29 Y22.18 
G01 X17.19 Y22.08 
G01 X17.11 Y21.95 
G01 X17.05 Y21.81 
G01 X17.02 Y21.66 
G01 X17.02 Y21.52 
G01 X17.05 Y21.37 
G01 X17.11 Y21.23 
G01 X17.19 Y21.10 
G01 X17.29 Y21.00 
G01 X17.42 Y20.92 
G01 X17.56 Y20.86 
G01 X17.71 Y20.83 
G01 X17.85 Y20.83 
G01 X18.00 Y20.86 
G01 X18.14 Y20.92 
G01 X18.27 Y21.00 
G01 X18.37 Y21.10 
G01 X18.45 Y21.23 
G01 X18.51 Y21.37 
G01 X18.54 Y21.52 
G00 Z1.00 
G00 X21.08 Y21.52 
G01 Z-0.20 F60.00 
G01 X21.08 Y21.66 F80.00 
G01 X21.05 Y21.81 
G01 X20.99 Y21.95 
G01 X20.91 Y22.08 
G01 X20.81 Y22.18 
G01 X20.68 Y22.26 
G01 X20.54 Y22.32 
G01 X20.39 Y22.35 
G01 X20.25 Y22.35 
G01 X20.10 Y22.32 
G01 X19.96 Y22.26 
G01 X19.83 Y22.18 
G01 X19.73 Y22.08 
G01 X19.65 Y21.95 
G01 X19.59 Y21.81 
G01 X19.56 Y21.66 
G01 X19.56 Y21.52 
G01 X19.59 Y21.37 
G01 X19.65 Y21.23 
G01 X19.73 Y21.10 
G01 X19.83 Y21.00 
G01 X19.96 Y20.92 
G01 X20.10 Y20.86 
G01 X20.25 Y20.83 
G01 X20.39 Y20.83 
G01 X20.54 Y20.86 
G01 X20.68 Y20.92 
G01 X20.81 Y21.00 
G01 X20.91 Y21.10 
G01 X20.99 Y21.23 
G01 X21.05 Y21.37 
G01 X21.08 Y21.52 
G00 Z1.00 
G00 X21.08 Y29.14 
G01 Z-0.20 F60.00 
G01 X21.08 Y29.28 F80.00 
G01 X21.05 Y29.43 
G01 X20.99 Y29.57 
G01 X20.91 Y29.70 
G01 X20.81 Y29.80 
G01 X20.68 Y29.88 
G01 X20.54 Y29.94 
G01 X20.39 Y29.97 
G01 X20.25 Y29.97 
G01 X20.10 Y29.94 
G01 X19.96 Y29.88 
G01 X19.83 Y29.80 
G01 X19.73 Y29.70 
G01 X19.65 Y29.57 
G01 X19.59 Y29.43 
G01 X19.56 Y29.28 
G01 X19.56 Y29.14 
G01 X19.59 Y28.99 
G01 X19.65 Y28.85 
G01 X19.73 Y28.72 
G01 X19.83 Y28.62 
G01 X19.96 Y28.54 
G01 X20.10 Y28.48 
G01 X20.25 Y28.45 
G01 X20.39 Y28.45 
G01 X20.54 Y28.48 
G01 X20.68 Y28.54 
G01 X20.81 Y28.62 
G01 X20.91 Y28.72 
G01 X20.99 Y28.85 
G01 X21.05 Y28.99 
G01 X21.08 Y29.14 
G00 Z1.00 
G00 X18.54 Y29.14 
G01 Z-0.20 F60.00 
G01 X18.54 Y29.28 F80.00 
G01 X18.51 Y29.43 
G01 X18.45 Y29.57 
G01 X18.37 Y29.70 
G01 X18.27 Y29.80 
G01 X18.14 Y29.88 
G01 X18.00 Y29.94 
G01 X17.85 Y29.97 
G01 X17.71 Y29.97 
G01 X17.56 Y29.94 
G01 X17.42 Y29.88 
G01 X17.29 Y29.80 
G01 X17.19 Y29.70 
G01 X17.11 Y29.57 
G01 X17.05 Y29.43 
G01 X17.02 Y29.28 
G01 X17.02 Y29.14 
G01 X17.05 Y28.99 
G01 X17.11 Y28.85 
G01 X17.19 Y28.72 
G01 X17.29 Y28.62 
G01 X17.42 Y28.54 
G01 X17.56 Y28.48 
G01 X17.71 Y28.45 
G01 X17.85 Y28.45 
G01 X18.00 Y28.48 
G01 X18.14 Y28.54 
G01 X18.27 Y28.62 
G01 X18.37 Y28.72 
G01 X18.45 Y28.85 
G01 X18.51 Y28.99 
G01 X18.54 Y29.14 
G00 Z1.00 
G00 X23.62 Y21.52 
G01 Z-0.20 F60.00 
G01 X23.62 Y21.66 F80.00 
G01 X23.59 Y21.81 
G01 X23.53 Y21.95 
G01 X23.45 Y22.08 
G01 X23.35 Y22.18 
G01 X23.22 Y22.26 
G01 X23.08 Y22.32 
G01 X22.93 Y22.35 
G01 X22.79 Y22.35 
G01 X22.64 Y22.32 
G01 X22.50 Y22.26 
G01 X22.37 Y22.18 
G01 X22.27 Y22.08 
G01 X22.19 Y21.95 
G01 X22.13 Y21.81 
G01 X22.10 Y21.66 
G01 X22.10 Y21.52 
G01 X22.13 Y21.37 
G01 X22.19 Y21.23 
G01 X22.27 Y21.10 
G01 X22.37 Y21.00 
G01 X22.50 Y20.92 
G01 X22.64 Y20.86 
G01 X22.79 Y20.83 
G01 X22.93 Y20.83 
G01 X23.08 Y20.86 
G01 X23.22 Y20.92 
G01 X23.35 Y21.00 
G01 X23.45 Y21.10 
G01 X23.53 Y21.23 
G01 X23.59 Y21.37 
G01 X23.62 Y21.52 
G00 Z1.00 
G00 X26.16 Y21.52 
G01 Z-0.20 F60.00 
G01 X26.16 Y21.66 F80.00 
G01 X26.13 Y21.81 
G01 X26.07 Y21.95 
G01 X25.99 Y22.08 
G01 X25.89 Y22.18 
G01 X25.76 Y22.26 
G01 X25.62 Y22.32 
G01 X25.47 Y22.35 
G01 X25.33 Y22.35 
G01 X25.18 Y22.32 
G01 X25.04 Y22.26 
G01 X24.91 Y22.18 
G01 X24.81 Y22.08 
G01 X24.73 Y21.95 
G01 X24.67 Y21.81 
G01 X24.64 Y21.66 
G01 X24.64 Y21.52 
G01 X24.67 Y21.37 
G01 X24.73 Y21.23 
G01 X24.81 Y21.10 
G01 X24.91 Y21.00 
G01 X25.04 Y20.92 
G01 X25.18 Y20.86 
G01 X25.33 Y20.83 
G01 X25.47 Y20.83 
G01 X25.62 Y20.86 
G01 X25.76 Y20.92 
G01 X25.89 Y21.00 
G01 X25.99 Y21.10 
G01 X26.07 Y21.23 
G01 X26.13 Y21.37 
G01 X26.16 Y21.52 
G00 Z1.00 
G00 X23.62 Y29.14 
G01 Z-0.20 F60.00 
G01 X23.62 Y29.28 F80.00 
G01 X23.59 Y29.43 
G01 X23.53 Y29.57 
G01 X23.45 Y29.70 
G01 X23.35 Y29.80 
G01 X23.22 Y29.88 
G01 X23.08 Y29.94 
G01 X22.93 Y29.97 
G01 X22.79 Y29.97 
G01 X22.64 Y29.94 
G01 X22.50 Y29.88 
G01 X22.37 Y29.80 
G01 X22.27 Y29.70 
G01 X22.19 Y29.57 
G01 X22.13 Y29.43 
G01 X22.10 Y29.28 
G01 X22.10 Y29.14 
G01 X22.13 Y28.99 
G01 X22.19 Y28.85 
G01 X22.27 Y28.72 
G01 X22.37 Y28.62 
G01 X22.50 Y28.54 
G01 X22.64 Y28.48 
G01 X22.79 Y28.45 
G01 X22.93 Y28.45 
G01 X23.08 Y28.48 
G01 X23.22 Y28.54 
G01 X23.35 Y28.62 
G01 X23.45 Y28.72 
G01 X23.53 Y28.85 
G01 X23.59 Y28.99 
G01 X23.62 Y29.14 
G00 Z1.00 
G00 X26.16 Y29.14 
G01 Z-0.20 F60.00 
G01 X26.16 Y29.28 F80.00 
G01 X26.13 Y29.43 
G01 X26.07 Y29.57 
G01 X25.99 Y29.70 
G01 X25.89 Y29.80 
G01 X25.76 Y29.88 
G01 X25.62 Y29.94 
G01 X25.47 Y29.97 
G01 X25.33 Y29.97 
G01 X25.18 Y29.94 
G01 X25.04 Y29.88 
G01 X24.91 Y29.80 
G01 X24.81 Y29.70 
G01 X24.73 Y29.57 
G01 X24.67 Y29.43 
G01 X24.64 Y29.28 
G01 X24.64 Y29.14 
G01 X24.67 Y28.99 
G01 X24.73 Y28.85 
G01 X24.81 Y28.72 
G01 X24.91 Y28.62 
G01 X25.04 Y28.54 
G01 X25.18 Y28.48 
G01 X25.33 Y28.45 
G01 X25.47 Y28.45 
G01 X25.62 Y28.48 
G01 X25.76 Y28.54 
G01 X25.89 Y28.62 
G01 X25.99 Y28.72 
G01 X26.07 Y28.85 
G01 X26.13 Y28.99 
G01 X26.16 Y29.14 
G00 Z1.00 
G00 X13.92 Y3.73 
G01 Z-0.20 F60.00 
G01 X13.92 Y3.89 F80.00 
G01 X13.89 Y4.05 
G01 X13.84 Y4.21 
G01 X13.77 Y4.36 
G01 X13.67 Y4.49 
G01 X13.56 Y4.60 
G01 X13.42 Y4.70 
G01 X13.28 Y4.77 
G01 X13.12 Y4.83 
G01 X12.96 Y4.85 
G01 X12.80 Y4.85 
G01 X12.63 Y4.83 
G01 X12.48 Y4.77 
G01 X12.33 Y4.70 
G01 X12.20 Y4.60 
G01 X12.08 Y4.49 
G01 X11.99 Y4.36 
G01 X11.91 Y4.21 
G01 X11.86 Y4.05 
G01 X11.84 Y3.89 
G01 X11.84 Y3.73 
G01 X11.86 Y3.57 
G01 X11.91 Y3.41 
G01 X11.99 Y3.26 
G01 X12.08 Y3.13 
G01 X12.20 Y3.02 
G01 X12.33 Y2.92 
G01 X12.48 Y2.85 
G01 X12.63 Y2.79 
G01 X12.80 Y2.77 
G01 X12.96 Y2.77 
G01 X13.12 Y2.79 
G01 X13.28 Y2.85 
G01 X13.42 Y2.92 
G01 X13.56 Y3.02 
G01 X13.67 Y3.13 
G01 X13.77 Y3.26 
G01 X13.84 Y3.41 
G01 X13.89 Y3.57 
G01 X13.92 Y3.73 
G00 Z1.00 
G00 X11.02 Y3.73 
G01 Z-0.20 F60.00 
G01 X11.02 Y3.89 F80.00 
G01 X11.00 Y4.05 
G01 X10.95 Y4.21 
G01 X10.87 Y4.36 
G01 X10.78 Y4.49 
G01 X10.66 Y4.60 
G01 X10.53 Y4.70 
G01 X10.38 Y4.77 
G01 X10.23 Y4.83 
G01 X10.06 Y4.85 
G01 X9.90 Y4.85 
G01 X9.74 Y4.83 
G01 X9.58 Y4.77 
G01 X9.44 Y4.70 
G01 X9.30 Y4.60 
G01 X9.19 Y4.49 
G01 X9.09 Y4.36 
G01 X9.02 Y4.21 
G01 X8.97 Y4.05 
G01 X8.94 Y3.89 
G01 X8.94 Y3.73 
G01 X8.97 Y3.57 
G01 X9.02 Y3.41 
G01 X9.09 Y3.26 
G01 X9.19 Y3.13 
G01 X9.30 Y3.02 
G01 X9.44 Y2.92 
G01 X9.58 Y2.85 
G01 X9.74 Y2.79 
G01 X9.90 Y2.77 
G01 X10.06 Y2.77 
G01 X10.23 Y2.79 
G01 X10.38 Y2.85 
G01 X10.53 Y2.92 
G01 X10.66 Y3.02 
G01 X10.78 Y3.13 
G01 X10.87 Y3.26 
G01 X10.95 Y3.41 
G01 X11.00 Y3.57 
G01 X11.02 Y3.73 
G00 Z1.00 
G00 X8.38 Y36.09 
G01 Z-0.20 F60.00 
G01 X8.38 Y37.57 F80.00 
G01 X8.35 Y37.71 
G01 X8.29 Y37.85 
G01 X8.21 Y37.98 
G01 X8.11 Y38.08 
G01 X7.98 Y38.17 
G01 X7.84 Y38.22 
G01 X7.69 Y38.25 
G01 X7.55 Y38.25 
G01 X7.40 Y38.22 
G01 X7.26 Y38.17 
G01 X7.13 Y38.08 
G01 X7.03 Y37.98 
G01 X6.95 Y37.85 
G01 X6.89 Y37.71 
G01 X6.86 Y37.57 
G01 X6.86 Y36.09 
G01 X6.89 Y35.95 
G01 X6.95 Y35.81 
G01 X7.03 Y35.68 
G01 X7.13 Y35.58 
G01 X7.26 Y35.49 
G01 X7.40 Y35.44 
G01 X7.55 Y35.41 
G01 X7.69 Y35.41 
G01 X7.84 Y35.44 
G01 X7.98 Y35.49 
G01 X8.11 Y35.58 
G01 X8.21 Y35.68 
G01 X8.29 Y35.81 
G01 X8.35 Y35.95 
G01 X8.38 Y36.09 
G00 Z1.00 
G00 X3.30 Y36.09 
G01 Z-0.20 F60.00 
G01 X3.30 Y37.57 F80.00 
G01 X3.27 Y37.71 
G01 X3.21 Y37.85 
G01 X3.13 Y37.98 
G01 X3.03 Y38.08 
G01 X2.90 Y38.17 
G01 X2.76 Y38.22 
G01 X2.61 Y38.25 
G01 X2.47 Y38.25 
G01 X2.32 Y38.22 
G01 X2.18 Y38.17 
G01 X2.05 Y38.08 
G01 X1.95 Y37.98 
G01 X1.87 Y37.85 
G01 X1.81 Y37.71 
G01 X1.78 Y37.57 
G01 X1.78 Y36.09 
G01 X1.81 Y35.95 
G01 X1.87 Y35.81 
G01 X1.95 Y35.68 
G01 X2.05 Y35.58 
G01 X2.18 Y35.49 
G01 X2.32 Y35.44 
G01 X2.47 Y35.41 
G01 X2.61 Y35.41 
G01 X2.76 Y35.44 
G01 X2.90 Y35.49 
G01 X3.03 Y35.58 
G01 X3.13 Y35.68 
G01 X3.21 Y35.81 
G01 X3.27 Y35.95 
G01 X3.30 Y36.09 
G00 Z1.00 
G00 X5.84 Y36.09 
G01 Z-0.20 F60.00 
G01 X5.84 Y37.57 F80.00 
G01 X5.81 Y37.71 
G01 X5.75 Y37.85 
G01 X5.67 Y37.98 
G01 X5.57 Y38.08 
G01 X5.44 Y38.17 
G01 X5.30 Y38.22 
G01 X5.15 Y38.25 
G01 X5.01 Y38.25 
G01 X4.86 Y38.22 
G01 X4.72 Y38.17 
G01 X4.59 Y38.08 
G01 X4.49 Y37.98 
G01 X4.41 Y37.85 
G01 X4.35 Y37.71 
G01 X4.32 Y37.57 
G01 X4.32 Y36.09 
G01 X4.35 Y35.95 
G01 X4.41 Y35.81 
G01 X4.49 Y35.68 
G01 X4.59 Y35.58 
G01 X4.72 Y35.49 
G01 X4.86 Y35.44 
G01 X5.01 Y35.41 
G01 X5.15 Y35.41 
G01 X5.30 Y35.44 
G01 X5.44 Y35.49 
G01 X5.57 Y35.58 
G01 X5.67 Y35.68 
G01 X5.75 Y35.81 
G01 X5.81 Y35.95 
G01 X5.84 Y36.09 
G00 Z1.00 
G00 X7.11 Y30.16 
G01 Z-0.20 F60.00 
G01 X7.11 Y30.80 F80.00 
G01 X6.67 Y31.24 
G01 X6.03 Y31.24 
G01 X5.59 Y30.80 
G01 X5.59 Y30.16 
G01 X6.03 Y29.72 
G01 X6.67 Y29.72 
G01 X7.11 Y30.16 
G00 Z1.00 
G00 X9.65 Y30.16 
G01 Z-0.20 F60.00 
G01 X9.65 Y30.80 F80.00 
G01 X9.21 Y31.24 
G01 X8.57 Y31.24 
G01 X8.13 Y30.80 
G01 X8.13 Y30.16 
G01 X8.57 Y29.72 
G01 X9.21 Y29.72 
G01 X9.65 Y30.16 
G00 Z1.00 
G00 X3.94 Y25.72 
G01 Z-0.20 F60.00 
G01 X3.94 Y26.35 F80.00 
G01 X3.49 Y26.80 
G01 X2.86 Y26.80 
G01 X2.41 Y26.35 
G01 X2.41 Y25.72 
G01 X2.86 Y25.27 
G01 X3.49 Y25.27 
G01 X3.94 Y25.72 
G00 Z1.00 
G00 X3.94 Y28.26 
G01 Z-0.20 F60.00 
G01 X3.94 Y28.89 F80.00 
G01 X3.49 Y29.34 
G01 X2.86 Y29.34 
G01 X2.41 Y28.89 
G01 X2.41 Y28.26 
G01 X2.86 Y27.81 
G01 X3.49 Y27.81 
G01 X3.94 Y28.26 
G00 Z1.00 
G00 X24.26 Y6.03 
G01 Z-0.20 F60.00 
G01 X24.26 Y6.67 F80.00 
G01 X23.81 Y7.11 
G01 X23.18 Y7.11 
G01 X22.73 Y6.67 
G01 X22.73 Y6.03 
G01 X23.18 Y5.59 
G01 X23.81 Y5.59 
G01 X24.26 Y6.03 
G00 Z1.00 
G00 X24.26 Y3.49 
G01 Z-0.20 F60.00 
G01 X24.26 Y4.13 F80.00 
G01 X23.81 Y4.57 
G01 X23.18 Y4.57 
G01 X22.73 Y4.13 
G01 X22.73 Y3.49 
G01 X23.18 Y3.05 
G01 X23.81 Y3.05 
G01 X24.26 Y3.49 
G00 Z1.00 
G00 X4.57 Y20.00 
G01 Z-0.20 F60.00 
G01 X4.57 Y20.64 F80.00 
G01 X4.13 Y21.08 
G01 X3.49 Y21.08 
G01 X3.05 Y20.64 
G01 X3.05 Y20.00 
G01 X3.49 Y19.56 
G01 X4.13 Y19.56 
G01 X4.57 Y20.00 
G00 Z1.00 
G00 X4.57 Y22.54 
G01 Z-0.20 F60.00 
G01 X4.57 Y23.18 F80.00 
G01 X4.13 Y23.62 
G01 X3.49 Y23.62 
G01 X3.05 Y23.18 
G01 X3.05 Y22.54 
G01 X3.49 Y22.10 
G01 X4.13 Y22.10 
G01 X4.57 Y22.54 
G00 Z1.00 
G00 X12.19 Y11.75 
G01 Z-0.20 F60.00 
G01 X12.19 Y12.38 F80.00 
G01 X11.75 Y12.83 
G01 X11.11 Y12.83 
G01 X10.67 Y12.38 
G01 X10.67 Y11.75 
G01 X11.11 Y11.30 
G01 X11.75 Y11.30 
G01 X12.19 Y11.75 
G00 Z1.00 
G00 X14.73 Y11.75 
G01 Z-0.20 F60.00 
G01 X14.73 Y12.38 F80.00 
G01 X14.29 Y12.83 
G01 X13.65 Y12.83 
G01 X13.21 Y12.38 
G01 X13.21 Y11.75 
G01 X13.65 Y11.30 
G01 X14.29 Y11.30 
G01 X14.73 Y11.75 
G00 Z1.00 
G00 X18.54 Y7.94 
G01 Z-0.20 F60.00 
G01 X18.54 Y8.57 F80.00 
G01 X18.10 Y9.02 
G01 X17.46 Y9.02 
G01 X17.02 Y8.57 
G01 X17.02 Y7.94 
G01 X17.46 Y7.49 
G01 X18.10 Y7.49 
G01 X18.54 Y7.94 
G00 Z1.00 
G00 X16.00 Y7.94 
G01 Z-0.20 F60.00 
G01 X16.00 Y8.57 F80.00 
G01 X15.56 Y9.02 
G01 X14.92 Y9.02 
G01 X14.48 Y8.57 
G01 X14.48 Y7.94 
G01 X14.92 Y7.49 
G01 X15.56 Y7.49 
G01 X16.00 Y7.94 
G00 Z1.00 
G00 X12.19 Y23.81 
G01 Z-0.20 F60.00 
G01 X12.19 Y24.45 F80.00 
G01 X11.75 Y24.89 
G01 X11.11 Y24.89 
G01 X10.67 Y24.45 
G01 X10.67 Y23.81 
G01 X11.11 Y23.37 
G01 X11.75 Y23.37 
G01 X12.19 Y23.81 
G00 Z1.00 
G00 X12.19 Y26.35 
G01 Z-0.20 F60.00 
G01 X12.19 Y26.99 F80.00 
G01 X11.75 Y27.43 
G01 X11.11 Y27.43 
G01 X10.67 Y26.99 
G01 X10.67 Y26.35 
G01 X11.11 Y25.91 
G01 X11.75 Y25.91 
G01 X12.19 Y26.35 
G00 Z1.00 
G00 X23.85 Y33.87 
G01 Z-0.20 F60.00 
G01 X23.85 Y34.07 F80.00 
G01 X23.81 Y34.26 
G01 X23.74 Y34.44 
G01 X23.63 Y34.60 
G01 X23.49 Y34.74 
G01 X23.33 Y34.85 
G01 X23.15 Y34.92 
G01 X22.96 Y34.96 
G01 X22.76 Y34.96 
G01 X22.57 Y34.92 
G01 X22.39 Y34.85 
G01 X22.23 Y34.74 
G01 X22.09 Y34.60 
G01 X21.98 Y34.44 
G01 X21.91 Y34.26 
G01 X21.87 Y34.07 
G01 X21.87 Y33.87 
G01 X21.91 Y33.68 
G01 X21.98 Y33.50 
G01 X22.09 Y33.34 
G01 X22.23 Y33.20 
G01 X22.39 Y33.10 
G01 X22.57 Y33.02 
G01 X22.76 Y32.98 
G01 X22.96 Y32.98 
G01 X23.15 Y33.02 
G01 X23.33 Y33.10 
G01 X23.49 Y33.20 
G01 X23.63 Y33.34 
G01 X23.74 Y33.50 
G01 X23.81 Y33.68 
G01 X23.85 Y33.87 
G00 Z1.00 
G00 X21.31 Y33.87 
G01 Z-0.20 F60.00 
G01 X21.31 Y34.07 F80.00 
G01 X21.27 Y34.26 
G01 X21.20 Y34.44 
G01 X21.09 Y34.60 
G01 X20.95 Y34.74 
G01 X20.79 Y34.85 
G01 X20.61 Y34.92 
G01 X20.42 Y34.96 
G01 X20.22 Y34.96 
G01 X20.03 Y34.92 
G01 X19.85 Y34.85 
G01 X19.69 Y34.74 
G01 X19.55 Y34.60 
G01 X19.44 Y34.44 
G01 X19.37 Y34.26 
G01 X19.33 Y34.07 
G01 X19.33 Y33.87 
G01 X19.37 Y33.68 
G01 X19.44 Y33.50 
G01 X19.55 Y33.34 
G01 X19.69 Y33.20 
G01 X19.85 Y33.10 
G01 X20.03 Y33.02 
G01 X20.22 Y32.98 
G01 X20.42 Y32.98 
G01 X20.61 Y33.02 
G01 X20.79 Y33.10 
G01 X20.95 Y33.20 
G01 X21.09 Y33.34 
G01 X21.20 Y33.50 
G01 X21.27 Y33.68 
G01 X21.31 Y33.87 
G00 Z1.00 
G00 X26.39 Y33.87 
G01 Z-0.20 F60.00 
G01 X26.39 Y34.07 F80.00 
G01 X26.35 Y34.26 
G01 X26.28 Y34.44 
G01 X26.17 Y34.60 
G01 X26.03 Y34.74 
G01 X25.87 Y34.85 
G01 X25.69 Y34.92 
G01 X25.50 Y34.96 
G01 X25.30 Y34.96 
G01 X25.11 Y34.92 
G01 X24.93 Y34.85 
G01 X24.77 Y34.74 
G01 X24.63 Y34.60 
G01 X24.52 Y34.44 
G01 X24.45 Y34.26 
G01 X24.41 Y34.07 
G01 X24.41 Y33.87 
G01 X24.45 Y33.68 
G01 X24.52 Y33.50 
G01 X24.63 Y33.34 
G01 X24.77 Y33.20 
G01 X24.93 Y33.10 
G01 X25.11 Y33.02 
G01 X25.30 Y32.98 
G01 X25.50 Y32.98 
G01 X25.69 Y33.02 
G01 X25.87 Y33.10 
G01 X26.03 Y33.20 
G01 X26.17 Y33.34 
G01 X26.28 Y33.50 
G01 X26.35 Y33.68 
G01 X26.39 Y33.87 
G00 Z1.00 
G00 X4.85 Y4.82 
G01 Z-0.20 F60.00 
G01 X4.85 Y4.98 F80.00 
G01 X4.83 Y5.15 
G01 X4.77 Y5.30 
G01 X4.70 Y5.45 
G01 X4.60 Y5.58 
G01 X4.49 Y5.70 
G01 X4.36 Y5.79 
G01 X4.21 Y5.87 
G01 X4.05 Y5.92 
G01 X3.89 Y5.94 
G01 X3.73 Y5.94 
G01 X3.57 Y5.92 
G01 X3.41 Y5.87 
G01 X3.26 Y5.79 
G01 X3.13 Y5.70 
G01 X3.02 Y5.58 
G01 X2.92 Y5.45 
G01 X2.85 Y5.30 
G01 X2.79 Y5.15 
G01 X2.77 Y4.98 
G01 X2.77 Y4.82 
G01 X2.79 Y4.66 
G01 X2.85 Y4.50 
G01 X2.92 Y4.36 
G01 X3.02 Y4.22 
G01 X3.13 Y4.11 
G01 X3.26 Y4.01 
G01 X3.41 Y3.94 
G01 X3.57 Y3.89 
G01 X3.73 Y3.86 
G01 X3.89 Y3.86 
G01 X4.05 Y3.89 
G01 X4.21 Y3.94 
G01 X4.36 Y4.01 
G01 X4.49 Y4.11 
G01 X4.60 Y4.22 
G01 X4.70 Y4.36 
G01 X4.77 Y4.50 
G01 X4.83 Y4.66 
G01 X4.85 Y4.82 
G00 Z1.00 
G00 X4.85 Y7.72 
G01 Z-0.20 F60.00 
G01 X4.85 Y7.88 F80.00 
G01 X4.83 Y8.04 
G01 X4.77 Y8.20 
G01 X4.70 Y8.34 
G01 X4.60 Y8.48 
G01 X4.49 Y8.59 
G01 X4.36 Y8.69 
G01 X4.21 Y8.76 
G01 X4.05 Y8.81 
G01 X3.89 Y8.84 
G01 X3.73 Y8.84 
G01 X3.57 Y8.81 
G01 X3.41 Y8.76 
G01 X3.26 Y8.69 
G01 X3.13 Y8.59 
G01 X3.02 Y8.48 
G01 X2.92 Y8.34 
G01 X2.85 Y8.20 
G01 X2.79 Y8.04 
G01 X2.77 Y7.88 
G01 X2.77 Y7.72 
G01 X2.79 Y7.55 
G01 X2.85 Y7.40 
G01 X2.92 Y7.25 
G01 X3.02 Y7.12 
G01 X3.13 Y7.00 
G01 X3.26 Y6.91 
G01 X3.41 Y6.83 
G01 X3.57 Y6.78 
G01 X3.73 Y6.76 
G01 X3.89 Y6.76 
G01 X4.05 Y6.78 
G01 X4.21 Y6.83 
G01 X4.36 Y6.91 
G01 X4.49 Y7.00 
G01 X4.60 Y7.12 
G01 X4.70 Y7.25 
G01 X4.77 Y7.40 
G01 X4.83 Y7.55 
G01 X4.85 Y7.72 
G00 Z1.00 
G00 Z2.00 
M05
M02
