(.../pcb-gcode-3.6.0.4/pcb-gcode.ulp)
(Copyright 2005 - 2012 by John Johnson)
(See readme.txt for licensing terms.)
(This file generated from the board:)
(.../Copperclad_CooperBuffer_Amp_V0-5.brd)
(Current profile is .../pcb-gcode-3.6.0.4/profiles/iModela.pp  )
(This file generated 2016-08-05 2:37 PM)
(Settings from pcb-machine.h)
(  Tool Size)
(0.20 )
(Z Axis Settings)
(  High     Up        Down     Drill)
(2.00 	1.00 	-0.20 	-1.80 )
(spindle on time = 1.0000)
(milling depth = -0.2540)
(text depth = -0.1270)
(tool change at 0.00 0.00 10.00 )
(feed rate xy = F80.00 )
(feed rate z  = F60.00 )
(Settings from pcb-defaults.h)
(isolate min = 0.0010)
(isolate max = 0.2000)
(isolate step = 0.2000)
(Generated bottom outlines, bottom drill, )
(Unit of measure: mm)
(Metric Mode)
G21
(Absolute Coordinates)
G90
G00 X0.00 Y0.00 
M03
G04 P 1
G00 Z1.00 
G00 X-10.58 Y30.86 
G01 Z-0.20 F60.00 
G01 X-11.18 Y30.27 F80.00 
G01 X-11.18 Y30.15 
G01 X-11.12 Y30.15 
G01 X-11.12 Y30.24 
G01 X-10.56 Y30.81 
G01 X-10.46 Y30.81 
G01 X-10.46 Y30.86 
G01 X-10.58 Y30.86 
G00 Z1.00 
G00 X-9.14 Y30.27 
G01 Z-0.20 F60.00 
G01 X-9.74 Y30.86 F80.00 
G01 X-9.86 Y30.86 
G01 X-9.86 Y30.81 
G01 X-9.76 Y30.81 
G01 X-9.20 Y30.24 
G01 X-9.20 Y30.15 
G01 X-9.14 Y30.15 
G01 X-9.14 Y30.27 
G00 Z1.00 
G00 X-16.93 Y30.86 
G01 Z-0.20 F60.00 
G01 X-17.53 Y30.27 F80.00 
G01 X-17.53 Y30.15 
G01 X-17.47 Y30.15 
G01 X-17.47 Y30.24 
G01 X-16.91 Y30.81 
G01 X-16.81 Y30.81 
G01 X-16.81 Y30.86 
G01 X-16.93 Y30.86 
G00 Z1.00 
G00 X-15.49 Y30.27 
G01 Z-0.20 F60.00 
G01 X-16.09 Y30.86 F80.00 
G01 X-16.21 Y30.86 
G01 X-16.21 Y30.81 
G01 X-16.11 Y30.81 
G01 X-15.55 Y30.24 
G01 X-15.55 Y30.15 
G01 X-15.49 Y30.15 
G01 X-15.49 Y30.27 
G00 Z1.00 
G00 X-32.94 Y27.50 
G01 Z-0.20 F60.00 
G01 X-32.94 Y27.11 F80.00 
G01 X-32.80 Y26.76 
G01 X-32.53 Y26.49 
G01 X-32.17 Y26.34 
G01 X-30.06 Y26.34 
G01 X-29.70 Y26.49 
G01 X-29.43 Y26.76 
G01 X-29.29 Y27.11 
G01 X-29.29 Y27.50 
G01 X-29.43 Y27.85 
G01 X-29.70 Y28.12 
G01 X-30.06 Y28.27 
G01 X-30.58 Y28.27 
G01 X-30.66 Y28.29 
G01 X-30.73 Y28.33 
G01 X-30.79 Y28.39 
G01 X-30.83 Y28.46 
G01 X-30.85 Y28.53 
G01 X-30.85 Y30.52 
G01 X-30.83 Y30.60 
G01 X-30.79 Y30.67 
G01 X-30.73 Y30.72 
G01 X-30.66 Y30.76 
G01 X-30.58 Y30.78 
G01 X-30.06 Y30.78 
G01 X-29.70 Y30.93 
G01 X-29.43 Y31.20 
G01 X-29.29 Y31.56 
G01 X-29.29 Y31.94 
G01 X-29.43 Y32.30 
G01 X-29.70 Y32.57 
G01 X-30.06 Y32.72 
G01 X-32.17 Y32.72 
G01 X-32.53 Y32.57 
G01 X-32.80 Y32.30 
G01 X-32.94 Y31.94 
G01 X-32.94 Y31.56 
G01 X-32.80 Y31.20 
G01 X-32.53 Y30.93 
G01 X-32.17 Y30.78 
G01 X-31.92 Y30.78 
G01 X-31.84 Y30.76 
G01 X-31.77 Y30.72 
G01 X-31.71 Y30.67 
G01 X-31.67 Y30.60 
G01 X-31.65 Y30.52 
G01 X-31.65 Y28.53 
G01 X-31.67 Y28.46 
G01 X-31.71 Y28.39 
G01 X-31.77 Y28.33 
G01 X-31.84 Y28.29 
G01 X-31.92 Y28.27 
G01 X-32.17 Y28.27 
G01 X-32.53 Y28.12 
G01 X-32.80 Y27.85 
G01 X-32.94 Y27.50 
G00 Z1.00 
G00 X-32.07 Y32.71 
G01 Z-0.20 F60.00 
G01 X-30.16 Y32.71 F80.00 
G01 X-29.97 Y32.68 
G01 X-29.79 Y32.60 
G01 X-29.64 Y32.50 
G01 X-29.50 Y32.36 
G01 X-29.40 Y32.21 
G01 X-29.32 Y32.03 
G01 X-29.29 Y31.85 
G01 X-29.29 Y31.65 
G01 X-29.32 Y31.47 
G01 X-29.40 Y31.29 
G01 X-29.50 Y31.14 
G01 X-29.64 Y31.00 
G01 X-29.79 Y30.90 
G01 X-29.97 Y30.82 
G01 X-30.16 Y30.79 
G01 X-30.85 Y30.79 
G01 X-30.85 Y28.27 
G01 X-30.16 Y28.27 
G01 X-29.97 Y28.23 
G01 X-29.79 Y28.16 
G01 X-29.64 Y28.05 
G01 X-29.50 Y27.92 
G01 X-29.40 Y27.76 
G01 X-29.32 Y27.59 
G01 X-29.29 Y27.40 
G01 X-29.29 Y27.21 
G01 X-29.32 Y27.02 
G01 X-29.40 Y26.85 
G01 X-29.50 Y26.69 
G01 X-29.64 Y26.56 
G01 X-29.79 Y26.45 
G01 X-29.97 Y26.38 
G01 X-30.16 Y26.34 
G01 X-32.07 Y26.34 
G01 X-32.26 Y26.38 
G01 X-32.44 Y26.45 
G01 X-32.59 Y26.56 
G01 X-32.73 Y26.69 
G01 X-32.83 Y26.85 
G01 X-32.91 Y27.02 
G01 X-32.94 Y27.21 
G01 X-32.94 Y27.40 
G01 X-32.91 Y27.59 
G01 X-32.83 Y27.76 
G01 X-32.73 Y27.92 
G01 X-32.59 Y28.05 
G01 X-32.44 Y28.16 
G01 X-32.26 Y28.23 
G01 X-32.07 Y28.27 
G01 X-31.65 Y28.27 
G01 X-31.65 Y30.79 
G01 X-32.07 Y30.79 
G01 X-32.26 Y30.82 
G01 X-32.44 Y30.90 
G01 X-32.59 Y31.00 
G01 X-32.73 Y31.14 
G01 X-32.83 Y31.29 
G01 X-32.91 Y31.47 
G01 X-32.94 Y31.65 
G01 X-32.94 Y31.85 
G01 X-32.91 Y32.03 
G01 X-32.83 Y32.21 
G01 X-32.73 Y32.36 
G01 X-32.59 Y32.50 
G01 X-32.44 Y32.60 
G01 X-32.26 Y32.68 
G01 X-32.07 Y32.71 
G00 Z1.00 
G00 X-19.15 Y32.14 
G01 Z-0.20 F60.00 
G01 X-19.22 Y32.28 F80.00 
G01 X-19.32 Y32.41 
G01 X-19.43 Y32.53 
G01 X-19.56 Y32.62 
G01 X-19.70 Y32.69 
G01 X-19.85 Y32.74 
G01 X-20.01 Y32.77 
G01 X-20.65 Y32.77 
G01 X-20.65 Y32.71 
G01 X-20.00 Y32.71 
G01 X-19.81 Y32.68 
G01 X-19.63 Y32.60 
G01 X-19.48 Y32.50 
G01 X-19.34 Y32.36 
G01 X-19.24 Y32.21 
G01 X-19.17 Y32.05 
G01 X-19.12 Y32.05 
G01 X-19.15 Y32.14 
G00 Z1.00 
G00 X-22.59 Y31.09 
G01 Z-0.20 F60.00 
G01 X-22.48 Y30.97 F80.00 
G01 X-22.35 Y30.88 
G01 X-22.21 Y30.81 
G01 X-22.06 Y30.76 
G01 X-21.90 Y30.73 
G01 X-21.26 Y30.73 
G01 X-21.26 Y30.79 
G01 X-21.91 Y30.79 
G01 X-22.10 Y30.82 
G01 X-22.28 Y30.90 
G01 X-22.43 Y31.00 
G01 X-22.57 Y31.14 
G01 X-22.67 Y31.29 
G01 X-22.74 Y31.45 
G01 X-22.79 Y31.45 
G01 X-22.76 Y31.36 
G01 X-22.69 Y31.22 
G01 X-22.59 Y31.09 
G00 Z1.00 
G00 X-6.65 Y22.29 
G01 Z-0.20 F60.00 
G01 X-6.65 Y22.27 F80.00 
G01 X-6.66 Y22.25 
G01 X-6.66 Y22.23 
G01 X-6.67 Y22.21 
G01 X-6.67 Y22.19 
G01 X-6.68 Y22.17 
G01 X-6.69 Y22.15 
G01 X-6.70 Y22.14 
G01 X-6.71 Y22.12 
G01 X-6.73 Y22.11 
G01 X-6.74 Y22.09 
G01 X-6.76 Y22.08 
G01 X-6.77 Y22.06 
G01 X-6.79 Y22.05 
G01 X-6.80 Y22.04 
G01 X-6.82 Y22.03 
G01 X-6.84 Y22.02 
G01 X-6.86 Y22.02 
G01 X-6.90 Y22.00 
G01 X-7.17 Y21.73 
G01 X-7.32 Y21.38 
G01 X-7.32 Y19.26 
G01 X-7.17 Y18.91 
G01 X-6.90 Y18.64 
G01 X-6.54 Y18.49 
G01 X-6.16 Y18.49 
G01 X-5.80 Y18.64 
G01 X-5.53 Y18.91 
G01 X-5.38 Y19.26 
G01 X-5.38 Y21.38 
G01 X-5.53 Y21.73 
G01 X-5.79 Y21.99 
G01 X-5.83 Y22.06 
G01 X-5.85 Y22.13 
G01 X-5.85 Y23.58 
G01 X-5.87 Y23.64 
G01 X-5.85 Y23.55 
G01 X-5.85 Y22.01 
G01 X-5.74 Y21.93 
G01 X-5.60 Y21.80 
G01 X-5.50 Y21.64 
G01 X-5.42 Y21.46 
G01 X-5.39 Y21.28 
G01 X-5.39 Y19.36 
G01 X-5.42 Y19.18 
G01 X-5.50 Y19.00 
G01 X-5.60 Y18.84 
G01 X-5.74 Y18.71 
G01 X-5.89 Y18.60 
G01 X-6.07 Y18.53 
G01 X-6.25 Y18.49 
G01 X-6.45 Y18.49 
G01 X-6.63 Y18.53 
G01 X-6.81 Y18.60 
G01 X-6.96 Y18.71 
G01 X-7.10 Y18.84 
G01 X-7.20 Y19.00 
G01 X-7.28 Y19.18 
G01 X-7.31 Y19.36 
G01 X-7.31 Y21.28 
G01 X-7.28 Y21.46 
G01 X-7.20 Y21.64 
G01 X-7.10 Y21.80 
G01 X-6.96 Y21.93 
G01 X-6.81 Y22.04 
G01 X-6.65 Y22.10 
G01 X-6.65 Y22.30 
G01 X-6.65 Y22.29 
G00 Z1.00 
G00 X-20.01 Y30.73 
G01 Z-0.20 F60.00 
G01 X-19.85 Y30.76 F80.00 
G01 X-19.70 Y30.81 
G01 X-19.56 Y30.88 
G01 X-19.43 Y30.97 
G01 X-19.32 Y31.09 
G01 X-19.22 Y31.22 
G01 X-19.15 Y31.36 
G01 X-19.12 Y31.45 
G01 X-19.17 Y31.45 
G01 X-19.24 Y31.29 
G01 X-19.34 Y31.14 
G01 X-19.48 Y31.00 
G01 X-19.63 Y30.90 
G01 X-19.81 Y30.82 
G01 X-20.00 Y30.79 
G01 X-20.65 Y30.79 
G01 X-20.65 Y30.73 
G01 X-20.01 Y30.73 
G00 Z1.00 
G00 X-21.90 Y32.77 
G01 Z-0.20 F60.00 
G01 X-22.06 Y32.74 F80.00 
G01 X-22.21 Y32.69 
G01 X-22.35 Y32.62 
G01 X-22.48 Y32.53 
G01 X-22.59 Y32.41 
G01 X-22.69 Y32.28 
G01 X-22.76 Y32.14 
G01 X-22.79 Y32.05 
G01 X-22.74 Y32.05 
G01 X-22.67 Y32.21 
G01 X-22.57 Y32.36 
G01 X-22.43 Y32.50 
G01 X-22.28 Y32.60 
G01 X-22.10 Y32.68 
G01 X-21.91 Y32.71 
G01 X-21.26 Y32.71 
G01 X-21.26 Y32.77 
G01 X-21.90 Y32.77 
G00 Z1.00 
G00 X-39.61 Y24.44 
G01 Z-0.20 F60.00 
G01 X-39.60 Y24.43 F80.00 
G01 X-39.14 Y24.43 
G01 X-39.13 Y24.44 
G01 X-39.61 Y24.44 
G00 Z1.00 
G00 X-45.33 Y19.10 
G01 Z-0.20 F60.00 
G01 X-42.67 Y19.10 F80.00 
G01 X-42.61 Y19.12 
G01 X-42.70 Y19.10 
G01 X-45.30 Y19.10 
G01 X-45.39 Y19.12 
G01 X-45.33 Y19.10 
G00 Z1.00 
G00 X-40.33 Y22.76 
G01 Z-0.20 F60.00 
G01 X-40.33 Y22.96 F80.00 
G01 X-40.30 Y23.14 
G01 X-40.22 Y23.32 
G01 X-40.12 Y23.47 
G01 X-39.98 Y23.61 
G01 X-39.83 Y23.71 
G01 X-39.65 Y23.79 
G01 X-39.47 Y23.82 
G01 X-39.27 Y23.82 
G01 X-39.09 Y23.79 
G01 X-38.91 Y23.71 
G01 X-38.76 Y23.61 
G01 X-38.62 Y23.47 
G01 X-38.52 Y23.32 
G01 X-38.44 Y23.14 
G01 X-38.41 Y22.96 
G01 X-38.41 Y22.76 
G01 X-38.44 Y22.58 
G01 X-38.52 Y22.40 
G01 X-38.62 Y22.25 
G01 X-38.76 Y22.11 
G01 X-38.91 Y22.01 
G01 X-39.09 Y21.93 
G01 X-39.27 Y21.90 
G01 X-39.47 Y21.90 
G01 X-39.65 Y21.93 
G01 X-39.72 Y21.96 
G01 X-39.86 Y21.82 
G01 X-39.85 Y21.83 
G01 X-39.84 Y21.84 
G01 X-39.82 Y21.85 
G01 X-39.80 Y21.87 
G01 X-39.78 Y21.87 
G01 X-39.77 Y21.88 
G01 X-39.75 Y21.89 
G01 X-39.73 Y21.90 
G01 X-39.71 Y21.90 
G01 X-39.69 Y21.91 
G01 X-39.67 Y21.91 
G01 X-39.65 Y21.91 
G01 X-39.63 Y21.91 
G01 X-39.61 Y21.91 
G01 X-39.59 Y21.90 
G01 X-39.57 Y21.90 
G01 X-39.56 Y21.89 
G01 X-39.18 Y21.89 
G01 X-38.82 Y22.04 
G01 X-38.55 Y22.31 
G01 X-38.40 Y22.67 
G01 X-38.40 Y23.05 
G01 X-38.55 Y23.41 
G01 X-38.82 Y23.68 
G01 X-39.18 Y23.83 
G01 X-39.56 Y23.83 
G01 X-39.92 Y23.68 
G01 X-40.19 Y23.41 
G01 X-40.34 Y23.05 
G01 X-40.34 Y22.57 
G01 X-40.36 Y22.49 
G01 X-40.40 Y22.42 
G01 X-40.45 Y22.37 
G01 X-42.86 Y19.96 
G01 X-42.93 Y19.92 
G01 X-43.00 Y19.90 
G01 X-45.00 Y19.90 
G01 X-45.07 Y19.92 
G01 X-45.14 Y19.96 
G01 X-45.20 Y20.02 
G01 X-46.03 Y20.85 
G01 X-46.04 Y20.85 
G01 X-45.08 Y19.90 
G01 X-42.92 Y19.90 
G01 X-40.28 Y22.54 
G01 X-40.30 Y22.58 
G01 X-40.33 Y22.76 
G00 Z1.00 
G00 X-46.06 Y20.88 
G01 Z-0.20 F60.00 
G01 X-46.07 Y20.89 F80.00 
G01 X-46.08 Y20.91 
G01 X-46.09 Y20.92 
G01 X-46.10 Y20.94 
G01 X-46.11 Y20.96 
G01 X-46.12 Y20.98 
G01 X-46.12 Y21.00 
G01 X-46.13 Y21.02 
G01 X-46.13 Y21.04 
G01 X-46.13 Y21.06 
G01 X-46.13 Y21.08 
G01 X-46.13 Y21.10 
G01 X-46.13 Y21.12 
G01 X-46.13 Y21.14 
G01 X-46.12 Y21.16 
G01 X-46.12 Y21.17 
G01 X-46.11 Y21.18 
G01 X-46.14 Y21.13 
G01 X-46.21 Y21.02 
G01 X-46.05 Y20.87 
G01 X-46.06 Y20.88 
G00 Z1.00 
G00 X-47.09 Y20.63 
G01 Z-0.20 F60.00 
G01 X-47.27 Y20.66 F80.00 
G01 X-47.45 Y20.74 
G01 X-47.60 Y20.84 
G01 X-47.74 Y20.98 
G01 X-47.84 Y21.13 
G01 X-47.92 Y21.31 
G01 X-47.95 Y21.49 
G01 X-47.95 Y21.69 
G01 X-47.92 Y21.87 
G01 X-47.84 Y22.05 
G01 X-47.74 Y22.20 
G01 X-47.60 Y22.34 
G01 X-47.45 Y22.44 
G01 X-47.40 Y22.46 
G01 X-47.40 Y22.66 
G01 X-47.40 Y22.65 
G01 X-47.40 Y22.63 
G01 X-47.41 Y22.61 
G01 X-47.41 Y22.59 
G01 X-47.42 Y22.57 
G01 X-47.42 Y22.55 
G01 X-47.43 Y22.53 
G01 X-47.44 Y22.51 
G01 X-47.45 Y22.50 
G01 X-47.46 Y22.48 
G01 X-47.48 Y22.47 
G01 X-47.49 Y22.45 
G01 X-47.51 Y22.44 
G01 X-47.52 Y22.42 
G01 X-47.52 Y22.42 
G01 X-47.81 Y22.14 
G01 X-47.96 Y21.78 
G01 X-47.96 Y21.40 
G01 X-47.81 Y21.04 
G01 X-47.54 Y20.77 
G01 X-47.18 Y20.62 
G01 X-47.03 Y20.62 
G01 X-46.95 Y20.60 
G01 X-46.95 Y20.60 
G01 X-46.88 Y20.56 
G01 X-46.83 Y20.51 
G01 X-45.48 Y19.16 
G01 X-45.42 Y19.13 
G01 X-45.50 Y19.18 
G01 X-46.94 Y20.63 
G01 X-47.09 Y20.63 
G00 Z1.00 
G00 X-42.52 Y19.16 
G01 Z-0.20 F60.00 
G01 X-42.35 Y19.33 F80.00 
G01 X-39.88 Y21.80 
G01 X-39.87 Y21.81 
G01 X-42.43 Y19.25 
G01 X-42.50 Y19.18 
G01 X-42.58 Y19.13 
G01 X-42.52 Y19.16 
G00 Z1.00 
G00 X-54.86 Y4.23 
G01 Z-0.20 F60.00 
G01 X-54.80 Y4.07 F80.00 
G01 X-54.79 Y4.06 
G01 X-54.84 Y4.20 
G01 X-54.86 Y4.36 
G01 X-54.86 Y4.53 
G01 X-54.84 Y4.69 
G01 X-54.79 Y4.83 
G01 X-54.86 Y4.66 
G01 X-54.86 Y4.23 
G00 Z1.00 
G00 X-40.43 Y7.37 
G01 Z-0.20 F60.00 
G01 X-41.02 Y6.77 F80.00 
G01 X-41.02 Y6.65 
G01 X-40.97 Y6.65 
G01 X-40.97 Y6.75 
G01 X-40.40 Y7.31 
G01 X-40.31 Y7.31 
G01 X-40.31 Y7.37 
G01 X-40.43 Y7.37 
G00 Z1.00 
G00 X-38.97 Y24.44 
G01 Z-0.20 F60.00 
G01 X-39.11 Y24.44 F80.00 
G01 X-39.10 Y24.43 
G01 X-38.97 Y24.43 
G01 X-38.93 Y24.48 
G01 X-38.92 Y24.48 
G01 X-38.89 Y24.50 
G01 X-38.85 Y24.52 
G01 X-38.78 Y24.54 
G01 X-38.70 Y24.54 
G01 X-38.68 Y24.54 
G01 X-38.62 Y24.52 
G01 X-38.55 Y24.48 
G01 X-38.49 Y24.42 
G01 X-34.73 Y20.66 
G01 X-34.67 Y20.63 
G01 X-34.75 Y20.68 
G01 X-38.74 Y24.67 
G01 X-38.97 Y24.44 
G00 Z1.00 
G00 X-34.58 Y20.60 
G01 Z-0.20 F60.00 
G01 X-17.60 Y20.60 F80.00 
G01 X-17.53 Y20.58 
G01 X-17.53 Y20.58 
G01 X-17.46 Y20.54 
G01 X-17.40 Y20.48 
G01 X-16.91 Y19.99 
G01 X-16.11 Y19.99 
G01 X-15.54 Y20.55 
G01 X-15.54 Y21.36 
G01 X-16.11 Y21.92 
G01 X-16.91 Y21.92 
G01 X-17.31 Y21.52 
G01 X-17.36 Y21.47 
G01 X-17.37 Y21.46 
G01 X-17.44 Y21.42 
G01 X-17.51 Y21.40 
G01 X-34.25 Y21.40 
G01 X-34.32 Y21.42 
G01 X-34.39 Y21.46 
G01 X-34.45 Y21.52 
G01 X-38.34 Y25.41 
G01 X-38.38 Y25.48 
G01 X-38.40 Y25.56 
G01 X-38.40 Y25.80 
G01 X-38.97 Y26.37 
G01 X-39.77 Y26.37 
G01 X-40.34 Y25.80 
G01 X-40.34 Y25.00 
G01 X-39.77 Y24.43 
G01 X-39.64 Y24.43 
G01 X-39.63 Y24.44 
G01 X-39.77 Y24.44 
G01 X-40.33 Y25.00 
G01 X-40.33 Y25.80 
G01 X-39.77 Y26.36 
G01 X-38.97 Y26.36 
G01 X-38.41 Y25.80 
G01 X-38.41 Y25.47 
G01 X-34.33 Y21.40 
G01 X-17.43 Y21.40 
G01 X-16.91 Y21.92 
G01 X-16.11 Y21.92 
G01 X-15.55 Y21.35 
G01 X-15.55 Y20.56 
G01 X-16.11 Y19.99 
G01 X-16.91 Y19.99 
G01 X-17.47 Y20.56 
G01 X-17.47 Y20.60 
G01 X-34.55 Y20.60 
G01 X-34.64 Y20.62 
G01 X-34.58 Y20.60 
G00 Z1.00 
G00 X-53.24 Y5.36 
G01 Z-0.20 F60.00 
G01 X-53.10 Y5.26 F80.00 
G01 X-52.98 Y5.14 
G01 X-52.89 Y5.00 
G01 X-52.82 Y4.88 
G01 X-52.89 Y5.05 
G01 X-53.19 Y5.35 
G01 X-53.20 Y5.35 
G01 X-53.21 Y5.36 
G01 X-53.23 Y5.37 
G01 X-53.24 Y5.39 
G01 X-53.26 Y5.40 
G01 X-53.27 Y5.42 
G01 X-53.29 Y5.43 
G01 X-53.30 Y5.45 
G01 X-53.31 Y5.46 
G01 X-53.32 Y5.48 
G01 X-53.33 Y5.50 
G01 X-53.33 Y5.52 
G01 X-53.34 Y5.54 
G01 X-53.34 Y5.56 
G01 X-53.35 Y5.58 
G01 X-53.35 Y5.60 
G01 X-53.35 Y5.61 
G01 X-53.35 Y5.41 
G01 X-53.24 Y5.36 
G00 Z1.00 
G00 X-54.15 Y5.64 
G01 Z-0.20 F60.00 
G01 X-54.15 Y5.62 F80.00 
G01 X-54.16 Y5.60 
G01 X-54.16 Y5.58 
G01 X-54.17 Y5.56 
G01 X-54.17 Y5.54 
G01 X-54.18 Y5.52 
G01 X-54.19 Y5.50 
G01 X-54.20 Y5.49 
G01 X-54.21 Y5.47 
G01 X-54.23 Y5.46 
G01 X-54.24 Y5.44 
G01 X-54.26 Y5.43 
G01 X-54.27 Y5.41 
G01 X-54.29 Y5.40 
G01 X-54.30 Y5.39 
G01 X-54.32 Y5.38 
G01 X-54.34 Y5.37 
G01 X-54.36 Y5.37 
G01 X-54.40 Y5.35 
G01 X-54.70 Y5.05 
G01 X-54.77 Y4.88 
G01 X-54.71 Y5.00 
G01 X-54.61 Y5.14 
G01 X-54.49 Y5.26 
G01 X-54.36 Y5.36 
G01 X-54.21 Y5.43 
G01 X-54.15 Y5.45 
G01 X-54.15 Y5.65 
G01 X-54.15 Y5.64 
G00 Z1.00 
G00 X-50.73 Y9.84 
G01 Z-0.20 F60.00 
G01 X-52.80 Y7.77 F80.00 
G01 X-52.82 Y7.75 
G01 X-52.86 Y7.71 
G01 X-52.93 Y7.67 
G01 X-53.00 Y7.65 
G01 X-53.08 Y7.65 
G01 X-53.16 Y7.67 
G01 X-53.23 Y7.71 
G01 X-53.29 Y7.77 
G01 X-53.33 Y7.84 
G01 X-53.35 Y7.92 
G01 X-53.35 Y8.07 
G01 X-53.33 Y8.14 
G01 X-53.33 Y8.14 
G01 X-53.29 Y8.21 
G01 X-53.23 Y8.27 
G01 X-53.01 Y8.49 
G01 X-53.01 Y9.29 
G01 X-53.57 Y9.86 
G01 X-54.38 Y9.86 
G01 X-54.94 Y9.29 
G01 X-54.94 Y8.49 
G01 X-54.36 Y7.91 
G01 X-54.34 Y7.90 
G01 X-54.27 Y7.86 
G01 X-54.21 Y7.81 
G01 X-54.17 Y7.74 
G01 X-54.15 Y7.66 
G01 X-54.15 Y5.68 
G01 X-54.15 Y5.67 
G01 X-54.15 Y7.93 
G01 X-54.37 Y7.93 
G01 X-54.94 Y8.49 
G01 X-54.94 Y9.29 
G01 X-54.37 Y9.85 
G01 X-53.58 Y9.85 
G01 X-53.01 Y9.29 
G01 X-53.01 Y8.49 
G01 X-53.35 Y8.15 
G01 X-53.35 Y7.22 
G01 X-50.75 Y9.82 
G01 X-50.67 Y9.87 
G01 X-50.73 Y9.84 
G00 Z1.00 
G00 X-48.59 Y7.38 
G01 Z-0.20 F60.00 
G01 X-48.02 Y7.95 F80.00 
G01 X-47.23 Y7.95 
G01 X-46.66 Y7.38 
G01 X-46.66 Y7.29 
G01 X-46.61 Y7.29 
G01 X-46.61 Y7.41 
G01 X-47.20 Y8.00 
G01 X-47.23 Y8.00 
G01 X-47.25 Y8.00 
G01 X-47.27 Y8.00 
G01 X-47.29 Y8.00 
G01 X-47.31 Y8.01 
G01 X-47.33 Y8.01 
G01 X-47.35 Y8.02 
G01 X-47.37 Y8.02 
G01 X-47.38 Y8.03 
G01 X-47.40 Y8.04 
G01 X-47.42 Y8.05 
G01 X-47.44 Y8.06 
G01 X-47.45 Y8.08 
G01 X-47.47 Y8.09 
G01 X-47.48 Y8.10 
G01 X-47.49 Y8.12 
G01 X-47.50 Y8.14 
G01 X-47.52 Y8.15 
G01 X-47.52 Y8.17 
G01 X-47.53 Y8.19 
G01 X-47.54 Y8.21 
G01 X-47.55 Y8.23 
G01 X-47.55 Y8.25 
G01 X-47.55 Y8.27 
G01 X-47.55 Y8.29 
G01 X-47.56 Y8.31 
G01 X-47.55 Y8.33 
G01 X-47.55 Y8.35 
G01 X-47.55 Y8.37 
G01 X-47.55 Y8.39 
G01 X-47.54 Y8.40 
G01 X-47.53 Y8.42 
G01 X-47.52 Y8.44 
G01 X-47.52 Y8.46 
G01 X-47.50 Y8.48 
G01 X-47.49 Y8.49 
G01 X-47.48 Y8.51 
G01 X-47.47 Y8.52 
G01 X-47.45 Y8.53 
G01 X-47.44 Y8.55 
G01 X-47.42 Y8.56 
G01 X-47.40 Y8.57 
G01 X-47.38 Y8.58 
G01 X-47.37 Y8.59 
G01 X-47.35 Y8.59 
G01 X-47.25 Y8.64 
G01 X-47.24 Y8.64 
G01 X-47.34 Y8.60 
G01 X-47.53 Y8.56 
G01 X-47.72 Y8.56 
G01 X-47.91 Y8.60 
G01 X-48.08 Y8.67 
G01 X-48.24 Y8.78 
G01 X-48.37 Y8.91 
G01 X-48.48 Y9.07 
G01 X-48.49 Y9.10 
G01 X-50.33 Y9.10 
G01 X-53.18 Y6.25 
G01 X-53.25 Y6.18 
G01 X-53.35 Y6.13 
G01 X-53.35 Y6.13 
G01 X-53.35 Y5.63 
G01 X-53.35 Y5.64 
G01 X-53.35 Y6.00 
G01 X-53.33 Y6.07 
G01 X-53.29 Y6.14 
G01 X-53.23 Y6.20 
G01 X-53.09 Y6.34 
G01 X-50.39 Y9.04 
G01 X-50.32 Y9.08 
G01 X-50.25 Y9.10 
G01 X-48.65 Y9.10 
G01 X-48.58 Y9.08 
G01 X-48.57 Y9.08 
G01 X-48.50 Y9.04 
G01 X-48.45 Y8.98 
G01 X-48.17 Y8.71 
G01 X-47.90 Y8.59 
G01 X-47.88 Y8.59 
G01 X-47.87 Y8.58 
G01 X-47.85 Y8.57 
G01 X-47.83 Y8.56 
G01 X-47.81 Y8.55 
G01 X-47.80 Y8.53 
G01 X-47.78 Y8.52 
G01 X-47.77 Y8.51 
G01 X-47.76 Y8.49 
G01 X-47.75 Y8.48 
G01 X-47.73 Y8.46 
G01 X-47.73 Y8.44 
G01 X-47.72 Y8.42 
G01 X-47.71 Y8.40 
G01 X-47.70 Y8.39 
G01 X-47.70 Y8.37 
G01 X-47.70 Y8.35 
G01 X-47.70 Y8.33 
G01 X-47.69 Y8.31 
G01 X-47.70 Y8.29 
G01 X-47.70 Y8.27 
G01 X-47.70 Y8.25 
G01 X-47.70 Y8.23 
G01 X-47.71 Y8.21 
G01 X-47.72 Y8.19 
G01 X-47.73 Y8.17 
G01 X-47.73 Y8.15 
G01 X-47.75 Y8.14 
G01 X-47.76 Y8.12 
G01 X-47.77 Y8.10 
G01 X-47.78 Y8.09 
G01 X-47.80 Y8.08 
G01 X-47.81 Y8.06 
G01 X-47.83 Y8.05 
G01 X-47.85 Y8.04 
G01 X-47.87 Y8.03 
G01 X-47.88 Y8.02 
G01 X-47.90 Y8.02 
G01 X-47.92 Y8.01 
G01 X-47.94 Y8.01 
G01 X-47.96 Y8.00 
G01 X-47.98 Y8.00 
G01 X-48.00 Y8.00 
G01 X-48.02 Y8.00 
G01 X-48.05 Y8.00 
G01 X-48.64 Y7.41 
G01 X-48.64 Y7.29 
G01 X-48.59 Y7.29 
G01 X-48.59 Y7.38 
G00 Z1.00 
G00 X-46.88 Y8.56 
G01 Z-0.20 F60.00 
G01 X-41.98 Y3.66 F80.00 
G01 X-41.92 Y3.63 
G01 X-42.00 Y3.68 
G01 X-46.89 Y8.57 
G01 X-46.88 Y8.56 
G00 Z1.00 
G00 X-47.17 Y8.67 
G01 Z-0.20 F60.00 
G01 X-47.22 Y8.65 F80.00 
G01 X-47.21 Y8.65 
G01 X-47.19 Y8.66 
G01 X-47.17 Y8.66 
G01 X-47.15 Y8.67 
G01 X-47.13 Y8.67 
G01 X-47.11 Y8.67 
G01 X-47.09 Y8.67 
G01 X-47.07 Y8.67 
G01 X-47.05 Y8.66 
G01 X-47.03 Y8.66 
G01 X-47.01 Y8.65 
G01 X-46.99 Y8.65 
G01 X-46.98 Y8.64 
G01 X-46.96 Y8.63 
G01 X-46.94 Y8.62 
G01 X-46.93 Y8.61 
G01 X-46.91 Y8.59 
G01 X-46.90 Y8.59 
G01 X-47.06 Y8.74 
G01 X-47.17 Y8.67 
G00 Z1.00 
G00 X-48.48 Y9.98 
G01 Z-0.20 F60.00 
G01 X-48.37 Y10.14 F80.00 
G01 X-48.24 Y10.27 
G01 X-48.08 Y10.38 
G01 X-47.91 Y10.45 
G01 X-47.72 Y10.49 
G01 X-47.53 Y10.49 
G01 X-47.34 Y10.45 
G01 X-47.17 Y10.38 
G01 X-47.01 Y10.27 
G01 X-46.88 Y10.14 
G01 X-46.77 Y9.98 
G01 X-46.70 Y9.81 
G01 X-46.66 Y9.62 
G01 X-46.66 Y9.48 
G01 X-41.58 Y4.40 
G01 X-40.78 Y4.40 
G01 X-40.40 Y4.77 
G01 X-39.61 Y4.77 
G01 X-39.23 Y4.40 
G01 X-35.06 Y4.40 
G01 X-34.69 Y4.77 
G01 X-33.89 Y4.77 
G01 X-33.33 Y4.21 
G01 X-33.33 Y3.41 
G01 X-33.89 Y2.85 
G01 X-34.69 Y2.85 
G01 X-35.25 Y3.41 
G01 X-35.25 Y3.60 
G01 X-39.04 Y3.60 
G01 X-39.04 Y3.41 
G01 X-39.61 Y2.85 
G01 X-40.40 Y2.85 
G01 X-40.97 Y3.41 
G01 X-40.97 Y3.60 
G01 X-41.80 Y3.60 
G01 X-41.89 Y3.62 
G01 X-41.83 Y3.60 
G01 X-41.23 Y3.60 
G01 X-41.16 Y3.58 
G01 X-41.09 Y3.54 
G01 X-41.03 Y3.48 
G01 X-41.02 Y3.46 
G01 X-40.41 Y2.84 
G01 X-39.60 Y2.84 
G01 X-38.99 Y3.46 
G01 X-38.98 Y3.48 
G01 X-38.92 Y3.54 
G01 X-38.85 Y3.58 
G01 X-38.78 Y3.60 
G01 X-35.52 Y3.60 
G01 X-35.44 Y3.58 
G01 X-35.37 Y3.54 
G01 X-35.32 Y3.48 
G01 X-35.30 Y3.46 
G01 X-34.69 Y2.84 
G01 X-33.89 Y2.84 
G01 X-33.32 Y3.41 
G01 X-33.32 Y4.21 
G01 X-33.89 Y4.78 
G01 X-34.69 Y4.78 
G01 X-35.00 Y4.46 
G01 X-35.07 Y4.42 
G01 X-35.15 Y4.40 
G01 X-39.15 Y4.40 
G01 X-39.22 Y4.42 
G01 X-39.29 Y4.46 
G01 X-39.35 Y4.52 
G01 X-39.69 Y4.86 
G01 X-39.73 Y4.93 
G01 X-39.75 Y5.00 
G01 X-39.75 Y5.08 
G01 X-39.73 Y5.16 
G01 X-39.73 Y5.16 
G01 X-39.69 Y5.23 
G01 X-39.63 Y5.29 
G01 X-38.99 Y5.93 
G01 X-38.99 Y6.05 
G01 X-39.04 Y6.05 
G01 X-39.04 Y5.95 
G01 X-39.61 Y5.39 
G01 X-40.40 Y5.39 
G01 X-40.97 Y5.95 
G01 X-40.97 Y6.05 
G01 X-41.02 Y6.05 
G01 X-41.02 Y5.93 
G01 X-40.38 Y5.29 
G01 X-40.34 Y5.24 
G01 X-40.32 Y5.23 
G01 X-40.28 Y5.16 
G01 X-40.26 Y5.08 
G01 X-40.26 Y5.00 
G01 X-40.28 Y4.93 
G01 X-40.32 Y4.86 
G01 X-40.38 Y4.80 
G01 X-40.72 Y4.46 
G01 X-40.79 Y4.42 
G01 X-40.86 Y4.40 
G01 X-41.50 Y4.40 
G01 X-41.57 Y4.42 
G01 X-41.64 Y4.46 
G01 X-41.70 Y4.52 
G01 X-46.60 Y9.42 
G01 X-46.64 Y9.49 
G01 X-46.66 Y9.56 
G01 X-46.66 Y9.72 
G01 X-46.81 Y10.07 
G01 X-47.08 Y10.34 
G01 X-47.43 Y10.49 
G01 X-47.82 Y10.49 
G01 X-48.17 Y10.34 
G01 X-48.44 Y10.07 
G01 X-48.45 Y10.05 
G01 X-48.46 Y10.04 
G01 X-48.47 Y10.02 
G01 X-48.49 Y10.01 
G01 X-48.50 Y9.99 
G01 X-48.52 Y9.98 
G01 X-48.53 Y9.96 
G01 X-48.55 Y9.95 
G01 X-48.56 Y9.94 
G01 X-48.58 Y9.93 
G01 X-48.60 Y9.92 
G01 X-48.62 Y9.92 
G01 X-48.64 Y9.91 
G01 X-48.66 Y9.91 
G01 X-48.68 Y9.90 
G01 X-48.70 Y9.90 
G01 X-48.71 Y9.90 
G01 X-48.51 Y9.90 
G01 X-48.48 Y9.98 
G00 Z1.00 
G00 X-48.74 Y9.90 
G01 Z-0.20 F60.00 
G01 X-50.58 Y9.90 F80.00 
G01 X-50.64 Y9.88 
G01 X-50.55 Y9.90 
G01 X-48.73 Y9.90 
G01 X-48.74 Y9.90 
G00 Z1.00 
G00 X-38.99 Y6.77 
G01 Z-0.20 F60.00 
G01 X-39.58 Y7.37 F80.00 
G01 X-39.70 Y7.37 
G01 X-39.70 Y7.31 
G01 X-39.61 Y7.31 
G01 X-39.04 Y6.75 
G01 X-39.04 Y6.65 
G01 X-38.99 Y6.65 
G01 X-38.99 Y6.77 
G00 Z1.00 
G00 X-54.27 Y18.91 
G01 Z-0.20 F60.00 
G01 X-54.12 Y19.06 F80.00 
G01 X-52.63 Y20.55 
G01 X-52.62 Y20.56 
G01 X-54.18 Y19.00 
G01 X-54.25 Y18.93 
G01 X-54.33 Y18.88 
G01 X-54.27 Y18.91 
G00 Z1.00 
G00 X-52.89 Y3.84 
G01 Z-0.20 F60.00 
G01 X-52.82 Y4.01 F80.00 
G01 X-52.89 Y3.89 
G01 X-52.98 Y3.75 
G01 X-53.10 Y3.63 
G01 X-53.24 Y3.53 
G01 X-53.36 Y3.47 
G01 X-53.19 Y3.54 
G01 X-52.89 Y3.84 
G00 Z1.00 
G00 X-52.73 Y4.66 
G01 Z-0.20 F60.00 
G01 X-52.80 Y4.83 F80.00 
G01 X-52.76 Y4.69 
G01 X-52.73 Y4.53 
G01 X-52.73 Y4.36 
G01 X-52.76 Y4.20 
G01 X-52.80 Y4.06 
G01 X-52.73 Y4.23 
G01 X-52.73 Y4.66 
G00 Z1.00 
G00 X-48.59 Y6.59 
G01 Z-0.20 F60.00 
G01 X-48.59 Y6.68 F80.00 
G01 X-48.64 Y6.68 
G01 X-48.64 Y6.56 
G01 X-48.05 Y5.97 
G01 X-47.93 Y5.97 
G01 X-47.93 Y6.02 
G01 X-48.02 Y6.02 
G01 X-48.59 Y6.59 
G00 Z1.00 
G00 X-47.20 Y5.97 
G01 Z-0.20 F60.00 
G01 X-46.61 Y6.56 F80.00 
G01 X-46.61 Y6.68 
G01 X-46.66 Y6.68 
G01 X-46.66 Y6.59 
G01 X-47.23 Y6.02 
G01 X-47.32 Y6.02 
G01 X-47.32 Y5.97 
G01 X-47.20 Y5.97 
G00 Z1.00 
G00 X-43.69 Y14.88 
G01 Z-0.20 F60.00 
G01 X-43.70 Y14.87 F80.00 
G01 X-43.72 Y14.86 
G01 X-43.73 Y14.85 
G01 X-43.75 Y14.84 
G01 X-43.77 Y14.83 
G01 X-43.79 Y14.82 
G01 X-43.81 Y14.82 
G01 X-43.83 Y14.81 
G01 X-43.85 Y14.81 
G01 X-43.87 Y14.81 
G01 X-43.89 Y14.80 
G01 X-43.91 Y14.81 
G01 X-43.93 Y14.81 
G01 X-43.95 Y14.81 
G01 X-43.97 Y14.82 
G01 X-43.99 Y14.82 
G01 X-43.99 Y14.83 
G01 X-43.84 Y14.72 
G01 X-43.68 Y14.89 
G01 X-43.69 Y14.88 
G00 Z1.00 
G00 X-43.23 Y15.34 
G01 Z-0.20 F60.00 
G01 X-43.66 Y14.91 F80.00 
G01 X-43.66 Y14.90 
G01 X-43.25 Y15.32 
G01 X-43.17 Y15.37 
G01 X-43.23 Y15.34 
G00 Z1.00 
G00 X-45.52 Y13.60 
G01 Z-0.20 F60.00 
G01 X-45.50 Y13.60 F80.00 
G01 X-45.48 Y13.59 
G01 X-45.47 Y13.59 
G01 X-45.45 Y13.58 
G01 X-45.43 Y13.58 
G01 X-45.41 Y13.57 
G01 X-45.39 Y13.56 
G01 X-45.38 Y13.55 
G01 X-45.36 Y13.54 
G01 X-45.34 Y13.52 
G01 X-45.33 Y13.51 
G01 X-45.32 Y13.49 
G01 X-45.30 Y13.48 
G01 X-45.29 Y13.46 
G01 X-45.28 Y13.45 
G01 X-45.27 Y13.43 
G01 X-45.27 Y13.42 
G01 X-45.00 Y13.15 
G01 X-44.64 Y13.00 
G01 X-44.26 Y13.00 
G01 X-43.90 Y13.15 
G01 X-43.63 Y13.42 
G01 X-43.48 Y13.78 
G01 X-43.48 Y13.86 
G01 X-43.46 Y13.94 
G01 X-43.46 Y13.94 
G01 X-43.42 Y14.01 
G01 X-43.37 Y14.06 
G01 X-42.89 Y14.54 
G01 X-42.82 Y14.58 
G01 X-42.75 Y14.60 
G01 X-38.91 Y14.60 
G01 X-38.83 Y14.58 
G01 X-38.76 Y14.54 
G01 X-38.71 Y14.48 
G01 X-38.50 Y14.27 
G01 X-37.70 Y14.27 
G01 X-37.13 Y14.84 
G01 X-37.13 Y15.64 
G01 X-37.70 Y16.21 
G01 X-38.50 Y16.21 
G01 X-39.08 Y15.63 
G01 X-39.09 Y15.59 
G01 X-39.13 Y15.52 
G01 X-39.18 Y15.46 
G01 X-39.25 Y15.42 
G01 X-39.33 Y15.40 
G01 X-43.08 Y15.40 
G01 X-43.14 Y15.38 
G01 X-43.05 Y15.40 
G01 X-39.06 Y15.40 
G01 X-39.06 Y15.64 
G01 X-38.50 Y16.20 
G01 X-37.70 Y16.20 
G01 X-37.14 Y15.64 
G01 X-37.14 Y14.84 
G01 X-37.70 Y14.28 
G01 X-38.50 Y14.28 
G01 X-38.82 Y14.60 
G01 X-42.83 Y14.60 
G01 X-43.49 Y13.95 
G01 X-43.49 Y13.87 
G01 X-43.52 Y13.69 
G01 X-43.60 Y13.51 
G01 X-43.70 Y13.36 
G01 X-43.84 Y13.22 
G01 X-43.99 Y13.12 
G01 X-44.17 Y13.04 
G01 X-44.35 Y13.01 
G01 X-44.55 Y13.01 
G01 X-44.73 Y13.04 
G01 X-44.91 Y13.12 
G01 X-45.06 Y13.22 
G01 X-45.20 Y13.36 
G01 X-45.30 Y13.51 
G01 X-45.34 Y13.60 
G01 X-45.53 Y13.60 
G01 X-45.52 Y13.60 
G00 Z1.00 
G00 X-45.88 Y13.60 
G01 Z-0.20 F60.00 
G01 X-45.56 Y13.60 F80.00 
G01 X-45.56 Y13.60 
G01 X-45.88 Y13.60 
G01 X-45.88 Y13.60 
G00 Z1.00 
G00 X-47.95 Y13.87 
G01 Z-0.20 F60.00 
G01 X-47.95 Y14.07 F80.00 
G01 X-47.92 Y14.25 
G01 X-47.84 Y14.43 
G01 X-47.74 Y14.58 
G01 X-47.60 Y14.72 
G01 X-47.45 Y14.82 
G01 X-47.27 Y14.90 
G01 X-47.09 Y14.93 
G01 X-46.89 Y14.93 
G01 X-46.71 Y14.90 
G01 X-46.53 Y14.82 
G01 X-46.38 Y14.72 
G01 X-46.24 Y14.58 
G01 X-46.14 Y14.43 
G01 X-46.12 Y14.40 
G01 X-45.32 Y14.40 
G01 X-45.30 Y14.43 
G01 X-45.20 Y14.58 
G01 X-45.06 Y14.72 
G01 X-44.91 Y14.82 
G01 X-44.73 Y14.90 
G01 X-44.55 Y14.93 
G01 X-44.35 Y14.93 
G01 X-44.17 Y14.90 
G01 X-44.01 Y14.83 
G01 X-44.02 Y14.84 
G01 X-44.26 Y14.94 
G01 X-44.64 Y14.94 
G01 X-45.00 Y14.79 
G01 X-45.32 Y14.46 
G01 X-45.39 Y14.42 
G01 X-45.47 Y14.40 
G01 X-45.97 Y14.40 
G01 X-46.05 Y14.42 
G01 X-46.12 Y14.46 
G01 X-46.17 Y14.52 
G01 X-46.44 Y14.79 
G01 X-46.80 Y14.94 
G01 X-47.18 Y14.94 
G01 X-47.54 Y14.79 
G01 X-47.81 Y14.52 
G01 X-47.96 Y14.16 
G01 X-47.96 Y13.78 
G01 X-47.81 Y13.42 
G01 X-47.54 Y13.15 
G01 X-47.18 Y13.00 
G01 X-46.80 Y13.00 
G01 X-46.44 Y13.15 
G01 X-46.17 Y13.42 
G01 X-46.17 Y13.43 
G01 X-46.16 Y13.45 
G01 X-46.15 Y13.46 
G01 X-46.14 Y13.48 
G01 X-46.12 Y13.49 
G01 X-46.11 Y13.51 
G01 X-46.10 Y13.52 
G01 X-46.08 Y13.54 
G01 X-46.06 Y13.55 
G01 X-46.05 Y13.56 
G01 X-46.03 Y13.57 
G01 X-46.01 Y13.58 
G01 X-45.99 Y13.58 
G01 X-45.97 Y13.59 
G01 X-45.96 Y13.59 
G01 X-45.94 Y13.60 
G01 X-45.92 Y13.60 
G01 X-45.91 Y13.60 
G01 X-46.10 Y13.60 
G01 X-46.14 Y13.51 
G01 X-46.24 Y13.36 
G01 X-46.38 Y13.22 
G01 X-46.53 Y13.12 
G01 X-46.71 Y13.04 
G01 X-46.89 Y13.01 
G01 X-47.09 Y13.01 
G01 X-47.27 Y13.04 
G01 X-47.45 Y13.12 
G01 X-47.60 Y13.22 
G01 X-47.74 Y13.36 
G01 X-47.84 Y13.51 
G01 X-47.92 Y13.69 
G01 X-47.95 Y13.87 
G00 Z1.00 
G00 X-46.60 Y22.70 
G01 Z-0.20 F60.00 
G01 X-46.60 Y27.74 F80.00 
G01 X-46.60 Y27.75 
G01 X-46.60 Y22.69 
G01 X-46.60 Y22.70 
G00 Z1.00 
G00 X-46.53 Y22.44 
G01 Z-0.20 F60.00 
G01 X-46.38 Y22.34 F80.00 
G01 X-46.24 Y22.20 
G01 X-46.14 Y22.05 
G01 X-46.06 Y21.87 
G01 X-46.03 Y21.69 
G01 X-46.03 Y21.49 
G01 X-46.06 Y21.31 
G01 X-46.11 Y21.20 
G01 X-46.10 Y21.21 
G01 X-46.02 Y21.40 
G01 X-46.02 Y21.78 
G01 X-46.17 Y22.14 
G01 X-46.44 Y22.41 
G01 X-46.45 Y22.41 
G01 X-46.46 Y22.42 
G01 X-46.48 Y22.43 
G01 X-46.49 Y22.45 
G01 X-46.51 Y22.46 
G01 X-46.52 Y22.48 
G01 X-46.54 Y22.49 
G01 X-46.55 Y22.51 
G01 X-46.56 Y22.52 
G01 X-46.57 Y22.54 
G01 X-46.58 Y22.56 
G01 X-46.58 Y22.58 
G01 X-46.59 Y22.60 
G01 X-46.59 Y22.62 
G01 X-46.60 Y22.64 
G01 X-46.60 Y22.66 
G01 X-46.60 Y22.67 
G01 X-46.60 Y22.47 
G01 X-46.53 Y22.44 
G00 Z1.00 
G00 X-47.40 Y27.75 
G01 Z-0.20 F60.00 
G01 X-47.40 Y22.69 F80.00 
G01 X-47.40 Y22.68 
G01 X-47.40 Y27.76 
G01 X-47.40 Y27.75 
G00 Z1.00 
G00 X-48.36 Y29.15 
G01 Z-0.20 F60.00 
G01 X-48.38 Y29.15 F80.00 
G01 X-48.40 Y29.16 
G01 X-48.42 Y29.16 
G01 X-48.44 Y29.17 
G01 X-48.46 Y29.17 
G01 X-48.48 Y29.18 
G01 X-48.50 Y29.19 
G01 X-48.51 Y29.20 
G01 X-48.53 Y29.21 
G01 X-48.54 Y29.23 
G01 X-48.56 Y29.24 
G01 X-48.57 Y29.26 
G01 X-48.59 Y29.27 
G01 X-48.60 Y29.29 
G01 X-48.61 Y29.30 
G01 X-48.62 Y29.32 
G01 X-48.62 Y29.33 
G01 X-48.56 Y29.19 
G01 X-48.55 Y29.15 
G01 X-48.35 Y29.15 
G01 X-48.36 Y29.15 
G00 Z1.00 
G00 X-48.20 Y29.15 
G01 Z-0.20 F60.00 
G01 X-48.32 Y29.15 F80.00 
G01 X-48.33 Y29.15 
G01 X-48.19 Y29.15 
G01 X-48.20 Y29.15 
G00 Z1.00 
G00 X-47.96 Y29.19 
G01 Z-0.20 F60.00 
G01 X-47.90 Y29.33 F80.00 
G01 X-47.90 Y29.32 
G01 X-47.91 Y29.30 
G01 X-47.92 Y29.29 
G01 X-47.93 Y29.27 
G01 X-47.95 Y29.26 
G01 X-47.96 Y29.24 
G01 X-47.98 Y29.23 
G01 X-47.99 Y29.21 
G01 X-48.01 Y29.20 
G01 X-48.02 Y29.19 
G01 X-48.04 Y29.18 
G01 X-48.06 Y29.17 
G01 X-48.08 Y29.17 
G01 X-48.10 Y29.16 
G01 X-48.12 Y29.16 
G01 X-48.14 Y29.15 
G01 X-48.16 Y29.15 
G01 X-48.17 Y29.15 
G01 X-47.97 Y29.15 
G01 X-47.96 Y29.19 
G00 Z1.00 
G00 X-46.46 Y30.39 
G01 Z-0.20 F60.00 
G01 X-46.44 Y30.38 F80.00 
G01 X-46.43 Y30.36 
G01 X-46.42 Y30.34 
G01 X-46.41 Y30.32 
G01 X-46.40 Y30.31 
G01 X-46.40 Y30.29 
G01 X-46.39 Y30.27 
G01 X-46.39 Y30.25 
G01 X-46.38 Y30.23 
G01 X-46.38 Y30.21 
G01 X-46.38 Y30.19 
G01 X-46.38 Y30.17 
G01 X-46.38 Y30.15 
G01 X-46.39 Y30.13 
G01 X-46.39 Y30.11 
G01 X-46.40 Y30.09 
G01 X-46.40 Y30.07 
G01 X-46.41 Y30.05 
G01 X-46.42 Y30.04 
G01 X-46.43 Y30.02 
G01 X-46.44 Y30.00 
G01 X-46.46 Y29.99 
G01 X-46.47 Y29.97 
G01 X-46.49 Y29.96 
G01 X-46.50 Y29.95 
G01 X-46.52 Y29.94 
G01 X-46.53 Y29.92 
G01 X-46.55 Y29.92 
G01 X-46.57 Y29.91 
G01 X-46.59 Y29.90 
G01 X-46.61 Y29.89 
G01 X-46.63 Y29.89 
G01 X-46.65 Y29.89 
G01 X-46.67 Y29.89 
G01 X-46.69 Y29.88 
G01 X-46.71 Y29.89 
G01 X-46.73 Y29.89 
G01 X-46.75 Y29.89 
G01 X-46.77 Y29.89 
G01 X-46.79 Y29.90 
G01 X-46.79 Y29.90 
G01 X-47.19 Y29.90 
G01 X-47.56 Y29.75 
G01 X-47.85 Y29.46 
G01 X-47.89 Y29.36 
G01 X-47.89 Y29.35 
G01 X-47.88 Y29.37 
G01 X-47.77 Y29.54 
G01 X-47.63 Y29.68 
G01 X-47.47 Y29.79 
G01 X-47.28 Y29.86 
G01 X-47.09 Y29.90 
G01 X-46.89 Y29.90 
G01 X-46.70 Y29.86 
G01 X-46.51 Y29.79 
G01 X-46.35 Y29.68 
G01 X-46.21 Y29.54 
G01 X-46.10 Y29.37 
G01 X-46.02 Y29.19 
G01 X-45.98 Y28.99 
G01 X-45.98 Y28.79 
G01 X-46.02 Y28.60 
G01 X-46.10 Y28.41 
G01 X-46.21 Y28.25 
G01 X-46.35 Y28.11 
G01 X-46.51 Y28.00 
G01 X-46.60 Y27.96 
G01 X-46.60 Y27.77 
G01 X-46.60 Y27.78 
G01 X-46.60 Y27.80 
G01 X-46.59 Y27.82 
G01 X-46.59 Y27.84 
G01 X-46.58 Y27.86 
G01 X-46.58 Y27.88 
G01 X-46.57 Y27.89 
G01 X-46.56 Y27.91 
G01 X-46.55 Y27.93 
G01 X-46.54 Y27.95 
G01 X-46.52 Y27.96 
G01 X-46.51 Y27.98 
G01 X-46.49 Y27.99 
G01 X-46.48 Y28.00 
G01 X-46.46 Y28.01 
G01 X-46.45 Y28.02 
G01 X-46.43 Y28.03 
G01 X-46.41 Y28.04 
G01 X-46.13 Y28.32 
G01 X-45.98 Y28.69 
G01 X-45.98 Y29.09 
G01 X-45.98 Y29.10 
G01 X-45.99 Y29.11 
G01 X-45.99 Y29.13 
G01 X-46.00 Y29.15 
G01 X-46.00 Y29.17 
G01 X-46.00 Y29.19 
G01 X-46.00 Y29.21 
G01 X-46.00 Y29.23 
G01 X-45.99 Y29.25 
G01 X-45.99 Y29.27 
G01 X-45.98 Y29.29 
G01 X-45.98 Y29.31 
G01 X-45.97 Y29.33 
G01 X-45.96 Y29.35 
G01 X-45.95 Y29.36 
G01 X-45.94 Y29.38 
G01 X-45.92 Y29.40 
G01 X-45.91 Y29.41 
G01 X-45.89 Y29.42 
G01 X-45.88 Y29.44 
G01 X-45.86 Y29.45 
G01 X-45.85 Y29.46 
G01 X-45.83 Y29.47 
G01 X-45.81 Y29.48 
G01 X-45.79 Y29.48 
G01 X-45.77 Y29.49 
G01 X-45.75 Y29.49 
G01 X-45.73 Y29.50 
G01 X-45.71 Y29.50 
G01 X-45.69 Y29.50 
G01 X-45.67 Y29.50 
G01 X-45.65 Y29.50 
G01 X-45.63 Y29.49 
G01 X-45.61 Y29.49 
G01 X-45.60 Y29.48 
G01 X-45.58 Y29.48 
G01 X-45.56 Y29.47 
G01 X-45.54 Y29.46 
G01 X-45.52 Y29.45 
G01 X-45.51 Y29.44 
G01 X-45.49 Y29.42 
G01 X-45.48 Y29.42 
G01 X-46.46 Y30.40 
G01 X-46.46 Y30.39 
G00 Z1.00 
G00 X-52.67 Y37.65 
G01 Z-0.20 F60.00 
G01 X-64.31 Y37.65 F80.00 
G01 X-64.32 Y37.65 
G01 X-52.70 Y37.65 
G01 X-52.61 Y37.63 
G01 X-52.67 Y37.65 
G00 Z1.00 
G00 X-64.97 Y36.69 
G01 Z-0.20 F60.00 
G01 X-65.12 Y36.53 F80.00 
G01 X-65.30 Y36.40 
G01 X-65.46 Y36.32 
G01 X-65.24 Y36.41 
G01 X-64.92 Y36.73 
G01 X-64.87 Y36.78 
G01 X-64.86 Y36.79 
G01 X-64.79 Y36.83 
G01 X-64.72 Y36.85 
G01 X-53.00 Y36.85 
G01 X-52.93 Y36.83 
G01 X-52.86 Y36.79 
G01 X-52.80 Y36.73 
G01 X-46.49 Y30.42 
G01 X-46.48 Y30.41 
G01 X-52.92 Y36.85 
G01 X-64.85 Y36.85 
G01 X-64.97 Y36.69 
G00 Z1.00 
G00 X-33.89 Y5.39 
G01 Z-0.20 F60.00 
G01 X-34.69 Y5.39 F80.00 
G01 X-35.25 Y5.95 
G01 X-35.25 Y6.75 
G01 X-34.69 Y7.31 
G01 X-34.65 Y7.31 
G01 X-34.65 Y15.05 
G01 X-34.63 Y15.14 
G01 X-34.65 Y15.08 
G01 X-34.65 Y7.44 
G01 X-34.67 Y7.36 
G01 X-34.71 Y7.29 
G01 X-34.77 Y7.24 
G01 X-35.26 Y6.75 
G01 X-35.26 Y5.95 
G01 X-34.69 Y5.38 
G01 X-33.89 Y5.38 
G01 X-33.86 Y5.41 
G01 X-33.84 Y5.43 
G01 X-33.79 Y5.46 
G01 X-33.71 Y5.48 
G01 X-33.63 Y5.48 
G01 X-33.60 Y5.47 
G01 X-33.55 Y5.46 
G01 X-33.54 Y5.45 
G01 X-33.48 Y5.42 
G01 X-33.43 Y5.36 
G01 X-32.86 Y4.79 
G01 X-32.73 Y4.66 
G01 X-32.67 Y4.63 
G01 X-32.75 Y4.68 
G01 X-32.82 Y4.75 
G01 X-33.67 Y5.60 
G01 X-33.89 Y5.39 
G00 Z1.00 
G00 X-15.77 Y4.66 
G01 Z-0.20 F60.00 
G01 X-1.79 Y18.64 F80.00 
G01 X-1.66 Y18.77 
G01 X-1.63 Y18.83 
G01 X-1.68 Y18.75 
G01 X-1.75 Y18.68 
G01 X-15.75 Y4.68 
G01 X-15.83 Y4.63 
G01 X-15.77 Y4.66 
G00 Z1.00 
G00 X-1.66 Y29.98 
G01 Z-0.20 F60.00 
G01 X-5.89 Y34.21 F80.00 
G01 X-6.02 Y34.34 
G01 X-6.08 Y34.37 
G01 X-6.00 Y34.32 
G01 X-5.93 Y34.25 
G01 X-1.68 Y30.00 
G01 X-1.63 Y29.92 
G01 X-1.66 Y29.98 
G00 Z1.00 
G00 X-39.48 Y34.34 
G01 Z-0.20 F60.00 
G01 X-44.19 Y29.63 F80.00 
G01 X-44.26 Y29.59 
G01 X-44.33 Y29.57 
G01 X-44.42 Y29.57 
G01 X-44.49 Y29.59 
G01 X-44.56 Y29.63 
G01 X-44.62 Y29.69 
G01 X-52.39 Y37.46 
G01 X-52.52 Y37.59 
G01 X-52.58 Y37.62 
G01 X-52.50 Y37.57 
G01 X-52.43 Y37.50 
G01 X-44.37 Y29.44 
G01 X-39.50 Y34.32 
G01 X-39.42 Y34.37 
G01 X-39.48 Y34.34 
G00 Z1.00 
G00 X-44.10 Y22.70 
G01 Z-0.20 F60.00 
G01 X-44.10 Y22.71 F80.00 
G01 X-44.10 Y28.50 
G01 X-44.08 Y28.57 
G01 X-44.04 Y28.64 
G01 X-43.98 Y28.70 
G01 X-43.84 Y28.84 
G01 X-39.14 Y33.54 
G01 X-39.07 Y33.58 
G01 X-39.00 Y33.60 
G01 X-6.50 Y33.60 
G01 X-6.43 Y33.58 
G01 X-6.36 Y33.54 
G01 X-6.32 Y33.50 
G01 X-4.23 Y31.41 
G01 X-4.21 Y31.39 
G01 X-4.17 Y31.35 
G01 X-4.13 Y31.28 
G01 X-4.11 Y31.21 
G01 X-4.11 Y31.13 
G01 X-4.13 Y31.05 
G01 X-4.14 Y31.03 
G01 X-4.14 Y30.81 
G01 X-4.05 Y30.81 
G01 X-3.48 Y30.24 
G01 X-3.48 Y30.15 
G01 X-3.26 Y30.15 
G01 X-3.24 Y30.16 
G01 X-3.16 Y30.18 
G01 X-3.08 Y30.18 
G01 X-3.01 Y30.16 
G01 X-3.01 Y30.16 
G01 X-2.94 Y30.12 
G01 X-2.88 Y30.06 
G01 X-2.46 Y29.64 
G01 X-2.42 Y29.57 
G01 X-2.40 Y29.50 
G01 X-2.40 Y21.86 
G01 X-2.40 Y21.85 
G01 X-2.40 Y29.58 
G01 X-6.42 Y33.60 
G01 X-39.08 Y33.60 
G01 X-43.93 Y28.75 
G01 X-44.00 Y28.68 
G01 X-44.10 Y28.63 
G01 X-44.10 Y28.63 
G01 X-44.10 Y22.70 
G00 Z1.00 
G00 X-6.17 Y34.40 
G01 Z-0.20 F60.00 
G01 X-39.33 Y34.40 F80.00 
G01 X-39.39 Y34.38 
G01 X-39.30 Y34.40 
G01 X-6.20 Y34.40 
G01 X-6.11 Y34.38 
G01 X-6.17 Y34.40 
G00 Z1.00 
G00 X-1.60 Y18.92 
G01 Z-0.20 F60.00 
G01 X-1.60 Y29.83 F80.00 
G01 X-1.62 Y29.89 
G01 X-1.60 Y29.80 
G01 X-1.60 Y18.95 
G01 X-1.62 Y18.86 
G01 X-1.60 Y18.92 
G00 Z1.00 
G00 X-32.58 Y4.60 
G01 Z-0.20 F60.00 
G01 X-15.92 Y4.60 F80.00 
G01 X-15.86 Y4.62 
G01 X-15.95 Y4.60 
G01 X-32.55 Y4.60 
G01 X-32.64 Y4.62 
G01 X-32.58 Y4.60 
G00 Z1.00 
G00 X-45.41 Y21.49 
G01 Z-0.20 F60.00 
G01 X-45.41 Y21.69 F80.00 
G01 X-45.38 Y21.87 
G01 X-45.30 Y22.05 
G01 X-45.20 Y22.20 
G01 X-45.06 Y22.34 
G01 X-44.91 Y22.44 
G01 X-44.90 Y22.45 
G01 X-44.90 Y28.83 
G01 X-45.47 Y29.40 
G01 X-45.46 Y29.40 
G01 X-44.96 Y28.89 
G01 X-44.92 Y28.82 
G01 X-44.90 Y28.75 
G01 X-44.90 Y22.59 
G01 X-44.92 Y22.51 
G01 X-44.96 Y22.44 
G01 X-45.02 Y22.39 
G01 X-45.27 Y22.14 
G01 X-45.42 Y21.78 
G01 X-45.42 Y21.40 
G01 X-45.27 Y21.04 
G01 X-45.00 Y20.77 
G01 X-44.64 Y20.62 
G01 X-44.26 Y20.62 
G01 X-43.90 Y20.77 
G01 X-43.63 Y21.04 
G01 X-43.48 Y21.40 
G01 X-43.48 Y21.78 
G01 X-43.63 Y22.14 
G01 X-43.90 Y22.41 
G01 X-43.91 Y22.41 
G01 X-43.93 Y22.42 
G01 X-43.95 Y22.43 
G01 X-43.96 Y22.44 
G01 X-43.98 Y22.45 
G01 X-43.99 Y22.46 
G01 X-44.01 Y22.48 
G01 X-44.02 Y22.49 
G01 X-44.04 Y22.51 
G01 X-44.05 Y22.52 
G01 X-44.06 Y22.54 
G01 X-44.07 Y22.56 
G01 X-44.08 Y22.58 
G01 X-44.08 Y22.59 
G01 X-44.09 Y22.61 
G01 X-44.09 Y22.63 
G01 X-44.10 Y22.65 
G01 X-44.10 Y22.67 
G01 X-44.10 Y22.68 
G01 X-44.10 Y22.49 
G01 X-43.99 Y22.44 
G01 X-43.84 Y22.34 
G01 X-43.70 Y22.20 
G01 X-43.60 Y22.05 
G01 X-43.52 Y21.87 
G01 X-43.49 Y21.69 
G01 X-43.49 Y21.49 
G01 X-43.52 Y21.31 
G01 X-43.60 Y21.13 
G01 X-43.70 Y20.98 
G01 X-43.84 Y20.84 
G01 X-43.99 Y20.74 
G01 X-44.17 Y20.66 
G01 X-44.35 Y20.63 
G01 X-44.55 Y20.63 
G01 X-44.73 Y20.66 
G01 X-44.91 Y20.74 
G01 X-45.06 Y20.84 
G01 X-45.20 Y20.98 
G01 X-45.30 Y21.13 
G01 X-45.38 Y21.31 
G01 X-45.41 Y21.49 
G00 Z1.00 
G00 X-50.49 Y13.87 
G01 Z-0.20 F60.00 
G01 X-50.49 Y14.07 F80.00 
G01 X-50.46 Y14.25 
G01 X-50.38 Y14.43 
G01 X-50.28 Y14.58 
G01 X-50.14 Y14.72 
G01 X-49.99 Y14.82 
G01 X-49.81 Y14.90 
G01 X-49.63 Y14.93 
G01 X-49.43 Y14.93 
G01 X-49.25 Y14.90 
G01 X-49.07 Y14.82 
G01 X-48.92 Y14.72 
G01 X-48.78 Y14.58 
G01 X-48.68 Y14.43 
G01 X-48.60 Y14.25 
G01 X-48.57 Y14.07 
G01 X-48.57 Y13.87 
G01 X-48.60 Y13.69 
G01 X-48.68 Y13.51 
G01 X-48.78 Y13.36 
G01 X-48.92 Y13.22 
G01 X-49.07 Y13.12 
G01 X-49.25 Y13.04 
G01 X-49.43 Y13.01 
G01 X-49.43 Y13.00 
G01 X-51.68 Y10.75 
G01 X-51.75 Y10.68 
G01 X-51.83 Y10.63 
G01 X-51.77 Y10.66 
G01 X-51.61 Y10.82 
G01 X-49.54 Y12.89 
G01 X-49.52 Y12.91 
G01 X-49.49 Y12.94 
G01 X-49.42 Y12.98 
G01 X-49.34 Y13.00 
G01 X-49.34 Y13.00 
G01 X-48.98 Y13.15 
G01 X-48.71 Y13.42 
G01 X-48.56 Y13.78 
G01 X-48.56 Y14.16 
G01 X-48.71 Y14.52 
G01 X-48.98 Y14.79 
G01 X-49.34 Y14.94 
G01 X-49.72 Y14.94 
G01 X-50.08 Y14.79 
G01 X-50.35 Y14.52 
G01 X-50.50 Y14.16 
G01 X-50.51 Y14.12 
G01 X-50.51 Y14.12 
G01 X-50.51 Y14.12 
G01 X-50.54 Y14.09 
G01 X-50.56 Y14.06 
G01 X-50.56 Y14.06 
G01 X-50.56 Y14.05 
G01 X-50.59 Y14.03 
G01 X-50.62 Y14.01 
G01 X-50.62 Y14.01 
G01 X-50.63 Y14.00 
G01 X-50.66 Y13.99 
G01 X-50.69 Y13.98 
G01 X-50.70 Y13.98 
G01 X-50.70 Y13.97 
G01 X-50.73 Y13.97 
G01 X-50.70 Y13.97 
G01 X-50.70 Y13.96 
G01 X-50.69 Y13.96 
G01 X-50.66 Y13.95 
G01 X-50.63 Y13.94 
G01 X-50.62 Y13.93 
G01 X-50.62 Y13.93 
G01 X-50.59 Y13.91 
G01 X-50.56 Y13.89 
G01 X-50.56 Y13.88 
G01 X-50.56 Y13.88 
G01 X-50.54 Y13.85 
G01 X-50.51 Y13.82 
G01 X-50.51 Y13.82 
G01 X-50.51 Y13.82 
G01 X-50.50 Y13.78 
G01 X-50.37 Y13.49 
G01 X-50.36 Y13.47 
G01 X-50.36 Y13.45 
G01 X-50.35 Y13.43 
G01 X-50.35 Y13.41 
G01 X-50.34 Y13.39 
G01 X-50.34 Y13.37 
G01 X-50.34 Y13.35 
G01 X-50.34 Y13.33 
G01 X-50.34 Y13.31 
G01 X-50.35 Y13.29 
G01 X-50.35 Y13.27 
G01 X-50.36 Y13.25 
G01 X-50.36 Y13.23 
G01 X-50.37 Y13.22 
G01 X-50.38 Y13.20 
G01 X-50.39 Y13.18 
G01 X-50.40 Y13.16 
G01 X-50.42 Y13.15 
G01 X-50.42 Y13.14 
G01 X-50.25 Y13.32 
G01 X-50.28 Y13.36 
G01 X-50.38 Y13.51 
G01 X-50.46 Y13.69 
G01 X-50.49 Y13.87 
G00 Z1.00 
G00 X-54.98 Y11.34 
G01 Z-0.20 F60.00 
G01 X-56.40 Y9.92 F80.00 
G01 X-56.47 Y9.88 
G01 X-56.55 Y9.86 
G01 X-56.92 Y9.86 
G01 X-57.48 Y9.29 
G01 X-57.48 Y8.49 
G01 X-57.21 Y8.22 
G01 X-57.17 Y8.15 
G01 X-57.15 Y8.08 
G01 X-57.15 Y5.63 
G01 X-57.15 Y5.62 
G01 X-57.15 Y8.16 
G01 X-57.48 Y8.49 
G01 X-57.48 Y9.29 
G01 X-56.91 Y9.85 
G01 X-56.46 Y9.85 
G01 X-55.00 Y11.32 
G01 X-54.92 Y11.37 
G01 X-54.98 Y11.34 
G00 Z1.00 
G00 X-55.55 Y9.29 
G01 Z-0.20 F60.00 
G01 X-55.55 Y8.49 F80.00 
G01 X-56.12 Y7.93 
G01 X-56.35 Y7.93 
G01 X-56.35 Y5.67 
G01 X-56.35 Y5.68 
G01 X-56.35 Y7.66 
G01 X-56.33 Y7.74 
G01 X-56.29 Y7.81 
G01 X-56.23 Y7.86 
G01 X-56.16 Y7.90 
G01 X-56.13 Y7.91 
G01 X-55.55 Y8.49 
G01 X-55.55 Y9.30 
G01 X-55.57 Y9.34 
G01 X-55.59 Y9.42 
G01 X-55.59 Y9.50 
G01 X-55.57 Y9.58 
G01 X-55.57 Y9.58 
G01 X-55.53 Y9.65 
G01 X-55.48 Y9.70 
G01 X-54.64 Y10.54 
G01 X-54.57 Y10.58 
G01 X-54.50 Y10.60 
G01 X-51.92 Y10.60 
G01 X-51.86 Y10.62 
G01 X-51.95 Y10.60 
G01 X-54.58 Y10.60 
G01 X-55.72 Y9.46 
G01 X-55.55 Y9.29 
G00 Z1.00 
G00 X-50.45 Y13.12 
G01 Z-0.20 F60.00 
G01 X-52.11 Y11.46 F80.00 
G01 X-52.18 Y11.42 
G01 X-52.25 Y11.40 
G01 X-54.83 Y11.40 
G01 X-54.89 Y11.38 
G01 X-54.80 Y11.40 
G01 X-52.17 Y11.40 
G01 X-50.44 Y13.13 
G01 X-50.45 Y13.12 
G00 Z1.00 
G00 X-51.61 Y14.82 
G01 Z-0.20 F60.00 
G01 X-51.46 Y14.72 F80.00 
G01 X-51.32 Y14.58 
G01 X-51.22 Y14.43 
G01 X-51.14 Y14.25 
G01 X-51.11 Y14.07 
G01 X-51.11 Y13.87 
G01 X-51.14 Y13.69 
G01 X-51.22 Y13.51 
G01 X-51.32 Y13.36 
G01 X-51.46 Y13.22 
G01 X-51.61 Y13.12 
G01 X-51.77 Y13.05 
G01 X-51.77 Y13.00 
G01 X-51.68 Y13.03 
G01 X-51.54 Y13.10 
G01 X-51.41 Y13.19 
G01 X-51.29 Y13.31 
G01 X-51.20 Y13.44 
G01 X-51.13 Y13.58 
G01 X-51.08 Y13.73 
G01 X-51.08 Y13.75 
G01 X-51.08 Y13.75 
G01 X-51.07 Y13.76 
G01 X-51.06 Y13.79 
G01 X-51.06 Y13.79 
G01 X-51.05 Y13.82 
G01 X-51.04 Y13.83 
G01 X-51.04 Y13.83 
G01 X-51.02 Y13.86 
G01 X-51.00 Y13.89 
G01 X-50.99 Y13.89 
G01 X-50.99 Y13.89 
G01 X-50.96 Y13.91 
G01 X-50.93 Y13.94 
G01 X-50.93 Y13.94 
G01 X-50.93 Y13.94 
G01 X-50.89 Y13.95 
G01 X-50.86 Y13.97 
G01 X-50.86 Y13.97 
G01 X-50.85 Y13.97 
G01 X-50.83 Y13.97 
G01 X-50.85 Y13.97 
G01 X-50.86 Y13.97 
G01 X-50.86 Y13.97 
G01 X-50.89 Y13.99 
G01 X-50.93 Y14.00 
G01 X-50.93 Y14.00 
G01 X-50.93 Y14.00 
G01 X-50.96 Y14.03 
G01 X-50.99 Y14.05 
G01 X-50.99 Y14.05 
G01 X-51.00 Y14.05 
G01 X-51.02 Y14.08 
G01 X-51.04 Y14.11 
G01 X-51.04 Y14.11 
G01 X-51.05 Y14.12 
G01 X-51.06 Y14.15 
G01 X-51.06 Y14.15 
G01 X-51.07 Y14.18 
G01 X-51.08 Y14.19 
G01 X-51.08 Y14.19 
G01 X-51.08 Y14.21 
G01 X-51.13 Y14.36 
G01 X-51.20 Y14.50 
G01 X-51.29 Y14.63 
G01 X-51.41 Y14.75 
G01 X-51.54 Y14.84 
G01 X-51.68 Y14.91 
G01 X-51.77 Y14.94 
G01 X-51.77 Y14.89 
G01 X-51.61 Y14.82 
G00 Z1.00 
G00 X-52.92 Y14.43 
G01 Z-0.20 F60.00 
G01 X-52.82 Y14.58 F80.00 
G01 X-52.68 Y14.72 
G01 X-52.53 Y14.82 
G01 X-52.37 Y14.89 
G01 X-52.37 Y14.94 
G01 X-52.46 Y14.91 
G01 X-52.60 Y14.84 
G01 X-52.73 Y14.75 
G01 X-52.85 Y14.63 
G01 X-52.94 Y14.50 
G01 X-53.01 Y14.36 
G01 X-53.04 Y14.27 
G01 X-52.99 Y14.27 
G01 X-52.92 Y14.43 
G00 Z1.00 
G00 X-53.01 Y13.58 
G01 Z-0.20 F60.00 
G01 X-52.94 Y13.44 F80.00 
G01 X-52.85 Y13.31 
G01 X-52.73 Y13.19 
G01 X-52.60 Y13.10 
G01 X-52.46 Y13.03 
G01 X-52.37 Y13.00 
G01 X-52.37 Y13.05 
G01 X-52.53 Y13.12 
G01 X-52.68 Y13.22 
G01 X-52.82 Y13.36 
G01 X-52.92 Y13.51 
G01 X-52.99 Y13.67 
G01 X-53.04 Y13.67 
G01 X-53.01 Y13.58 
G00 Z1.00 
G00 X-48.59 Y20.90 
G01 Z-0.20 F60.00 
G01 X-48.60 Y20.92 F80.00 
G01 X-48.61 Y20.94 
G01 X-48.62 Y20.95 
G01 X-48.63 Y20.97 
G01 X-48.64 Y20.99 
G01 X-48.64 Y21.01 
G01 X-48.65 Y21.03 
G01 X-48.66 Y21.05 
G01 X-48.66 Y21.07 
G01 X-48.66 Y21.09 
G01 X-48.66 Y21.11 
G01 X-48.66 Y21.13 
G01 X-48.66 Y21.15 
G01 X-48.66 Y21.16 
G01 X-48.65 Y21.18 
G01 X-48.64 Y21.20 
G01 X-48.64 Y21.21 
G01 X-48.68 Y21.13 
G01 X-48.73 Y21.05 
G01 X-48.58 Y20.90 
G01 X-48.59 Y20.90 
G00 Z1.00 
G00 X-38.84 Y18.40 
G01 Z-0.20 F60.00 
G01 X-38.50 Y18.74 F80.00 
G01 X-37.70 Y18.74 
G01 X-37.14 Y18.18 
G01 X-37.14 Y17.38 
G01 X-37.70 Y16.82 
G01 X-38.50 Y16.82 
G01 X-39.06 Y17.38 
G01 X-39.06 Y17.60 
G01 X-46.30 Y17.60 
G01 X-46.39 Y17.62 
G01 X-46.33 Y17.60 
G01 X-39.33 Y17.60 
G01 X-39.25 Y17.58 
G01 X-39.18 Y17.54 
G01 X-39.13 Y17.48 
G01 X-39.09 Y17.41 
G01 X-39.08 Y17.40 
G01 X-38.50 Y16.81 
G01 X-37.70 Y16.81 
G01 X-37.13 Y17.38 
G01 X-37.13 Y18.18 
G01 X-37.70 Y18.75 
G01 X-38.50 Y18.75 
G01 X-38.78 Y18.46 
G01 X-38.85 Y18.42 
G01 X-38.93 Y18.40 
G01 X-46.00 Y18.40 
G01 X-46.07 Y18.42 
G01 X-46.14 Y18.46 
G01 X-46.20 Y18.52 
G01 X-48.56 Y20.88 
G01 X-48.56 Y20.88 
G01 X-46.08 Y18.40 
G01 X-38.84 Y18.40 
G00 Z1.00 
G00 X-50.49 Y21.49 
G01 Z-0.20 F60.00 
G01 X-50.49 Y21.69 F80.00 
G01 X-50.46 Y21.87 
G01 X-50.39 Y22.04 
G01 X-50.39 Y22.03 
G01 X-50.50 Y21.78 
G01 X-50.50 Y21.40 
G01 X-50.35 Y21.04 
G01 X-50.08 Y20.77 
G01 X-49.72 Y20.62 
G01 X-49.53 Y20.62 
G01 X-49.45 Y20.60 
G01 X-49.38 Y20.56 
G01 X-46.48 Y17.66 
G01 X-46.42 Y17.63 
G01 X-46.50 Y17.68 
G01 X-49.44 Y20.63 
G01 X-49.63 Y20.63 
G01 X-49.81 Y20.66 
G01 X-49.99 Y20.74 
G01 X-50.14 Y20.84 
G01 X-50.28 Y20.98 
G01 X-50.38 Y21.13 
G01 X-50.46 Y21.31 
G01 X-50.49 Y21.49 
G00 Z1.00 
G00 X-55.63 Y4.66 
G01 Z-0.20 F60.00 
G01 X-55.70 Y4.83 F80.00 
G01 X-55.65 Y4.69 
G01 X-55.63 Y4.53 
G01 X-55.63 Y4.36 
G01 X-55.65 Y4.20 
G01 X-55.70 Y4.06 
G01 X-55.63 Y4.23 
G01 X-55.63 Y4.66 
G00 Z1.00 
G00 X-55.79 Y3.84 
G01 Z-0.20 F60.00 
G01 X-55.72 Y4.01 F80.00 
G01 X-55.78 Y3.89 
G01 X-55.88 Y3.75 
G01 X-56.00 Y3.63 
G01 X-56.13 Y3.53 
G01 X-56.26 Y3.47 
G01 X-56.09 Y3.54 
G01 X-55.79 Y3.84 
G00 Z1.00 
G00 X-56.48 Y3.38 
G01 Z-0.20 F60.00 
G01 X-56.31 Y3.45 F80.00 
G01 X-56.44 Y3.41 
G01 X-56.61 Y3.38 
G01 X-56.78 Y3.38 
G01 X-56.94 Y3.41 
G01 X-57.08 Y3.45 
G01 X-56.91 Y3.38 
G01 X-56.48 Y3.38 
G00 Z1.00 
G00 X-57.30 Y3.54 
G01 Z-0.20 F60.00 
G01 X-57.13 Y3.47 F80.00 
G01 X-57.25 Y3.53 
G01 X-57.39 Y3.63 
G01 X-57.51 Y3.75 
G01 X-57.60 Y3.89 
G01 X-57.67 Y4.01 
G01 X-57.60 Y3.84 
G01 X-57.30 Y3.54 
G00 Z1.00 
G00 X-57.76 Y4.36 
G01 Z-0.20 F60.00 
G01 X-57.76 Y4.53 F80.00 
G01 X-57.73 Y4.69 
G01 X-57.69 Y4.83 
G01 X-57.76 Y4.66 
G01 X-57.76 Y4.23 
G01 X-57.69 Y4.06 
G01 X-57.73 Y4.20 
G01 X-57.76 Y4.36 
G00 Z1.00 
G00 X-4.87 Y30.86 
G01 Z-0.20 F60.00 
G01 X-5.46 Y30.27 F80.00 
G01 X-5.46 Y30.15 
G01 X-5.41 Y30.15 
G01 X-5.41 Y30.24 
G01 X-4.84 Y30.81 
G01 X-4.75 Y30.81 
G01 X-4.75 Y30.86 
G01 X-4.87 Y30.86 
G00 Z1.00 
G00 X-14.66 Y14.35 
G01 Z-0.20 F60.00 
G01 X-14.66 Y14.35 F80.00 
G01 X-7.92 Y14.35 
G01 X-7.84 Y14.33 
G01 X-7.77 Y14.29 
G01 X-7.71 Y14.23 
G01 X-7.67 Y14.16 
G01 X-7.65 Y14.08 
G01 X-7.65 Y14.00 
G01 X-7.67 Y13.93 
G01 X-7.71 Y13.86 
G01 X-7.77 Y13.80 
G01 X-16.11 Y5.46 
G01 X-16.18 Y5.42 
G01 X-16.25 Y5.40 
G01 X-18.14 Y5.40 
G01 X-18.22 Y5.42 
G01 X-18.29 Y5.46 
G01 X-18.35 Y5.52 
G01 X-18.39 Y5.59 
G01 X-18.41 Y5.67 
G01 X-18.41 Y6.84 
G01 X-18.47 Y6.90 
G01 X-21.05 Y6.90 
G01 X-21.11 Y6.84 
G01 X-21.11 Y6.67 
G01 X-21.13 Y6.59 
G01 X-21.17 Y6.52 
G01 X-21.23 Y6.46 
G01 X-21.30 Y6.42 
G01 X-21.38 Y6.40 
G01 X-28.30 Y6.40 
G01 X-28.38 Y6.42 
G01 X-28.45 Y6.46 
G01 X-28.51 Y6.52 
G01 X-28.55 Y6.59 
G01 X-28.57 Y6.67 
G01 X-28.57 Y6.84 
G01 X-28.63 Y6.90 
G01 X-31.21 Y6.90 
G01 X-31.27 Y6.84 
G01 X-31.27 Y5.67 
G01 X-31.29 Y5.59 
G01 X-31.33 Y5.52 
G01 X-31.39 Y5.46 
G01 X-31.46 Y5.42 
G01 X-31.54 Y5.40 
G01 X-32.25 Y5.40 
G01 X-32.32 Y5.42 
G01 X-32.39 Y5.46 
G01 X-32.45 Y5.52 
G01 X-33.26 Y6.33 
G01 X-33.30 Y6.40 
G01 X-33.32 Y6.48 
G01 X-33.32 Y6.75 
G01 X-33.79 Y7.21 
G01 X-33.83 Y7.28 
G01 X-33.85 Y7.36 
G01 X-33.85 Y14.75 
G01 X-33.83 Y14.82 
G01 X-33.79 Y14.89 
G01 X-33.73 Y14.95 
G01 X-33.20 Y15.48 
G01 X-33.13 Y15.52 
G01 X-33.05 Y15.54 
G01 X-32.62 Y15.54 
G01 X-31.97 Y16.19 
G01 X-31.90 Y16.23 
G01 X-31.83 Y16.25 
G01 X-31.75 Y16.25 
G01 X-31.67 Y16.23 
G01 X-31.67 Y16.23 
G01 X-31.60 Y16.19 
G01 X-31.54 Y16.13 
G01 X-30.90 Y15.49 
G01 X-30.78 Y15.49 
G01 X-30.78 Y15.55 
G01 X-30.88 Y15.55 
G01 X-31.44 Y16.11 
G01 X-31.44 Y16.91 
G01 X-30.88 Y17.47 
G01 X-30.78 Y17.47 
G01 X-30.78 Y17.53 
G01 X-30.90 Y17.53 
G01 X-31.54 Y16.89 
G01 X-31.59 Y16.84 
G01 X-31.60 Y16.83 
G01 X-31.67 Y16.79 
G01 X-31.75 Y16.77 
G01 X-31.83 Y16.77 
G01 X-31.90 Y16.79 
G01 X-31.97 Y16.83 
G01 X-32.03 Y16.89 
G01 X-32.62 Y17.48 
G01 X-33.42 Y17.48 
G01 X-33.99 Y16.91 
G01 X-33.99 Y16.06 
G01 X-33.97 Y16.01 
G01 X-33.97 Y15.97 
G01 X-33.97 Y15.93 
G01 X-33.98 Y15.90 
G01 X-33.99 Y15.85 
G01 X-34.01 Y15.82 
G01 X-34.03 Y15.78 
G01 X-34.07 Y15.75 
G01 X-34.09 Y15.73 
G01 X-34.59 Y15.23 
G01 X-34.62 Y15.17 
G01 X-34.57 Y15.25 
G01 X-33.85 Y15.97 
G01 X-33.98 Y16.11 
G01 X-33.98 Y16.91 
G01 X-33.42 Y17.47 
G01 X-32.62 Y17.47 
G01 X-32.06 Y16.91 
G01 X-32.06 Y16.11 
G01 X-32.62 Y15.55 
G01 X-33.14 Y15.55 
G01 X-33.85 Y14.83 
G01 X-33.85 Y7.27 
G01 X-33.33 Y6.75 
G01 X-33.33 Y6.39 
G01 X-32.33 Y5.40 
G01 X-16.17 Y5.40 
G01 X-2.40 Y19.17 
G01 X-2.40 Y21.83 
G01 X-2.40 Y21.82 
G01 X-2.40 Y21.80 
G01 X-2.41 Y21.78 
G01 X-2.41 Y21.76 
G01 X-2.42 Y21.74 
G01 X-2.42 Y21.72 
G01 X-2.43 Y21.70 
G01 X-2.44 Y21.68 
G01 X-2.45 Y21.67 
G01 X-2.46 Y21.65 
G01 X-2.48 Y21.64 
G01 X-2.49 Y21.62 
G01 X-2.51 Y21.61 
G01 X-2.52 Y21.59 
G01 X-2.54 Y21.58 
G01 X-2.55 Y21.57 
G01 X-2.57 Y21.56 
G01 X-2.59 Y21.55 
G01 X-2.61 Y21.55 
G01 X-2.63 Y21.54 
G01 X-2.65 Y21.54 
G01 X-2.67 Y21.53 
G01 X-2.69 Y21.53 
G01 X-2.71 Y21.53 
G01 X-2.73 Y21.53 
G01 X-2.75 Y21.53 
G01 X-2.77 Y21.54 
G01 X-2.79 Y21.54 
G01 X-2.80 Y21.55 
G01 X-2.82 Y21.55 
G01 X-2.84 Y21.56 
G01 X-2.86 Y21.57 
G01 X-2.88 Y21.58 
G01 X-2.89 Y21.59 
G01 X-2.91 Y21.61 
G01 X-2.92 Y21.62 
G01 X-2.94 Y21.64 
G01 X-2.95 Y21.65 
G01 X-2.96 Y21.67 
G01 X-2.97 Y21.68 
G01 X-2.98 Y21.70 
G01 X-2.99 Y21.72 
G01 X-2.99 Y21.73 
G01 X-3.23 Y21.97 
G01 X-3.29 Y22.03 
G01 X-3.33 Y22.09 
G01 X-3.35 Y22.17 
G01 X-3.35 Y26.83 
G01 X-3.37 Y26.89 
G01 X-3.35 Y26.80 
G01 X-3.35 Y22.04 
G01 X-3.20 Y21.93 
G01 X-3.06 Y21.80 
G01 X-2.96 Y21.64 
G01 X-2.88 Y21.46 
G01 X-2.85 Y21.28 
G01 X-2.85 Y19.36 
G01 X-2.88 Y19.18 
G01 X-2.96 Y19.00 
G01 X-3.06 Y18.84 
G01 X-3.20 Y18.71 
G01 X-3.35 Y18.60 
G01 X-3.53 Y18.53 
G01 X-3.69 Y18.50 
G01 X-3.75 Y18.43 
G01 X-7.75 Y14.43 
G01 X-7.85 Y14.38 
G01 X-7.95 Y14.35 
G01 X-8.05 Y14.35 
G01 X-14.66 Y14.35 
G00 Z1.00 
G00 X-31.19 Y6.90 
G01 Z-0.20 F60.00 
G01 X-28.65 Y6.90 F80.00 
G01 X-28.61 Y6.89 
G01 X-28.58 Y6.86 
G01 X-28.57 Y6.82 
G01 X-28.57 Y6.40 
G01 X-21.11 Y6.40 
G01 X-21.11 Y6.82 
G01 X-21.10 Y6.86 
G01 X-21.07 Y6.89 
G01 X-21.03 Y6.90 
G01 X-18.49 Y6.90 
G01 X-18.45 Y6.89 
G01 X-18.42 Y6.86 
G01 X-18.41 Y6.82 
G01 X-18.41 Y5.58 
G01 X-18.42 Y5.54 
G01 X-18.45 Y5.51 
G01 X-18.49 Y5.50 
G01 X-21.03 Y5.50 
G01 X-21.07 Y5.51 
G01 X-21.10 Y5.54 
G01 X-21.11 Y5.58 
G01 X-21.11 Y5.60 
G01 X-28.57 Y5.60 
G01 X-28.57 Y5.58 
G01 X-28.58 Y5.54 
G01 X-28.61 Y5.51 
G01 X-28.65 Y5.50 
G01 X-31.19 Y5.50 
G01 X-31.23 Y5.51 
G01 X-31.26 Y5.54 
G01 X-31.27 Y5.58 
G01 X-31.27 Y6.82 
G01 X-31.26 Y6.86 
G01 X-31.23 Y6.89 
G01 X-31.19 Y6.90 
G00 Z1.00 
G00 X-4.72 Y18.60 
G01 Z-0.20 F60.00 
G01 X-8.11 Y15.21 F80.00 
G01 X-8.18 Y15.17 
G01 X-8.25 Y15.15 
G01 X-14.67 Y15.15 
G01 X-14.68 Y15.15 
G01 X-8.17 Y15.15 
G01 X-4.72 Y18.60 
G01 X-4.72 Y18.60 
G00 Z1.00 
G00 X-4.15 Y22.27 
G01 Z-0.20 F60.00 
G01 X-4.15 Y22.25 F80.00 
G01 X-4.16 Y22.23 
G01 X-4.16 Y22.21 
G01 X-4.17 Y22.19 
G01 X-4.17 Y22.17 
G01 X-4.18 Y22.16 
G01 X-4.19 Y22.14 
G01 X-4.20 Y22.12 
G01 X-4.21 Y22.10 
G01 X-4.23 Y22.09 
G01 X-4.24 Y22.07 
G01 X-4.26 Y22.06 
G01 X-4.27 Y22.05 
G01 X-4.29 Y22.04 
G01 X-4.30 Y22.02 
G01 X-4.32 Y22.02 
G01 X-4.34 Y22.01 
G01 X-4.36 Y22.00 
G01 X-4.63 Y21.73 
G01 X-4.78 Y21.38 
G01 X-4.78 Y19.26 
G01 X-4.65 Y18.96 
G01 X-4.64 Y18.94 
G01 X-4.63 Y18.92 
G01 X-4.63 Y18.91 
G01 X-4.62 Y18.89 
G01 X-4.62 Y18.87 
G01 X-4.62 Y18.85 
G01 X-4.62 Y18.83 
G01 X-4.62 Y18.81 
G01 X-4.62 Y18.79 
G01 X-4.62 Y18.77 
G01 X-4.63 Y18.75 
G01 X-4.63 Y18.73 
G01 X-4.64 Y18.71 
G01 X-4.65 Y18.69 
G01 X-4.66 Y18.67 
G01 X-4.67 Y18.66 
G01 X-4.68 Y18.64 
G01 X-4.69 Y18.62 
G01 X-4.70 Y18.62 
G01 X-4.52 Y18.80 
G01 X-4.56 Y18.84 
G01 X-4.66 Y19.00 
G01 X-4.74 Y19.18 
G01 X-4.77 Y19.36 
G01 X-4.77 Y21.28 
G01 X-4.74 Y21.46 
G01 X-4.66 Y21.64 
G01 X-4.56 Y21.80 
G01 X-4.42 Y21.93 
G01 X-4.27 Y22.04 
G01 X-4.15 Y22.09 
G01 X-4.15 Y22.28 
G01 X-4.15 Y22.27 
G00 Z1.00 
G00 X-14.71 Y15.15 
G01 Z-0.20 F60.00 
G01 X-14.73 Y15.15 F80.00 
G01 X-14.75 Y15.16 
G01 X-14.77 Y15.16 
G01 X-14.79 Y15.17 
G01 X-14.81 Y15.17 
G01 X-14.83 Y15.18 
G01 X-14.84 Y15.19 
G01 X-14.86 Y15.20 
G01 X-14.88 Y15.21 
G01 X-14.89 Y15.23 
G01 X-14.91 Y15.24 
G01 X-14.92 Y15.26 
G01 X-14.93 Y15.27 
G01 X-14.94 Y15.29 
G01 X-14.96 Y15.30 
G01 X-14.96 Y15.32 
G01 X-14.97 Y15.34 
G01 X-15.27 Y15.64 
G01 X-15.44 Y15.71 
G01 X-15.32 Y15.64 
G01 X-15.18 Y15.55 
G01 X-15.06 Y15.43 
G01 X-14.96 Y15.29 
G01 X-14.89 Y15.15 
G01 X-14.70 Y15.15 
G01 X-14.71 Y15.15 
G00 Z1.00 
G00 X-14.89 Y14.32 
G01 Z-0.20 F60.00 
G01 X-14.96 Y14.17 F80.00 
G01 X-15.06 Y14.04 
G01 X-15.18 Y13.92 
G01 X-15.32 Y13.82 
G01 X-15.44 Y13.76 
G01 X-15.27 Y13.83 
G01 X-14.97 Y14.13 
G01 X-14.96 Y14.14 
G01 X-14.96 Y14.16 
G01 X-14.95 Y14.18 
G01 X-14.94 Y14.20 
G01 X-14.93 Y14.21 
G01 X-14.92 Y14.23 
G01 X-14.90 Y14.24 
G01 X-14.89 Y14.26 
G01 X-14.88 Y14.27 
G01 X-14.86 Y14.29 
G01 X-14.84 Y14.30 
G01 X-14.83 Y14.31 
G01 X-14.81 Y14.32 
G01 X-14.79 Y14.33 
G01 X-14.77 Y14.33 
G01 X-14.75 Y14.34 
G01 X-14.74 Y14.34 
G01 X-14.72 Y14.35 
G01 X-14.70 Y14.35 
G01 X-14.69 Y14.35 
G01 X-14.88 Y14.35 
G01 X-14.89 Y14.32 
G00 Z1.00 
G00 X-5.41 Y26.91 
G01 Z-0.20 F60.00 
G01 X-5.41 Y27.70 F80.00 
G01 X-4.84 Y28.27 
G01 X-4.05 Y28.27 
G01 X-3.48 Y27.70 
G01 X-3.48 Y27.05 
G01 X-3.43 Y27.00 
G01 X-3.38 Y26.92 
G01 X-3.41 Y26.98 
G01 X-3.42 Y26.99 
G01 X-3.46 Y27.06 
G01 X-3.48 Y27.13 
G01 X-3.48 Y27.71 
G01 X-4.13 Y28.35 
G01 X-4.17 Y28.42 
G01 X-4.19 Y28.50 
G01 X-4.19 Y28.58 
G01 X-4.17 Y28.65 
G01 X-4.17 Y28.66 
G01 X-4.13 Y28.73 
G01 X-4.07 Y28.78 
G01 X-3.43 Y29.42 
G01 X-3.43 Y29.54 
G01 X-3.48 Y29.54 
G01 X-3.48 Y29.45 
G01 X-4.05 Y28.88 
G01 X-4.84 Y28.88 
G01 X-5.41 Y29.45 
G01 X-5.41 Y29.54 
G01 X-5.46 Y29.54 
G01 X-5.46 Y29.42 
G01 X-4.82 Y28.78 
G01 X-4.76 Y28.73 
G01 X-4.72 Y28.66 
G01 X-4.70 Y28.58 
G01 X-4.70 Y28.50 
G01 X-4.72 Y28.42 
G01 X-4.76 Y28.35 
G01 X-5.41 Y27.71 
G01 X-5.41 Y26.90 
G01 X-4.85 Y26.34 
G01 X-4.42 Y26.34 
G01 X-4.34 Y26.32 
G01 X-4.27 Y26.28 
G01 X-4.21 Y26.22 
G01 X-4.17 Y26.15 
G01 X-4.15 Y26.08 
G01 X-4.15 Y22.31 
G01 X-4.15 Y22.30 
G01 X-4.15 Y26.34 
G01 X-4.84 Y26.34 
G01 X-5.41 Y26.91 
G00 Z1.00 
G00 X-11.12 Y26.91 
G01 Z-0.20 F60.00 
G01 X-11.12 Y27.70 F80.00 
G01 X-10.56 Y28.27 
G01 X-9.76 Y28.27 
G01 X-9.20 Y27.70 
G01 X-9.20 Y27.01 
G01 X-5.93 Y23.75 
G01 X-5.88 Y23.67 
G01 X-5.91 Y23.73 
G01 X-9.08 Y26.90 
G01 X-9.08 Y26.90 
G01 X-9.13 Y26.95 
G01 X-9.17 Y27.02 
G01 X-9.19 Y27.10 
G01 X-9.19 Y27.71 
G01 X-9.84 Y28.35 
G01 X-9.88 Y28.42 
G01 X-9.90 Y28.50 
G01 X-9.90 Y28.58 
G01 X-9.88 Y28.65 
G01 X-9.88 Y28.66 
G01 X-9.84 Y28.73 
G01 X-9.78 Y28.78 
G01 X-9.14 Y29.42 
G01 X-9.14 Y29.54 
G01 X-9.20 Y29.54 
G01 X-9.20 Y29.45 
G01 X-9.76 Y28.88 
G01 X-10.56 Y28.88 
G01 X-11.12 Y29.45 
G01 X-11.12 Y29.54 
G01 X-11.18 Y29.54 
G01 X-11.18 Y29.42 
G01 X-10.54 Y28.78 
G01 X-10.49 Y28.74 
G01 X-10.48 Y28.73 
G01 X-10.44 Y28.66 
G01 X-10.42 Y28.58 
G01 X-10.42 Y28.50 
G01 X-10.44 Y28.42 
G01 X-10.48 Y28.35 
G01 X-10.54 Y28.30 
G01 X-11.13 Y27.71 
G01 X-11.13 Y26.90 
G01 X-10.56 Y26.34 
G01 X-9.74 Y26.34 
G01 X-9.67 Y26.32 
G01 X-9.67 Y26.32 
G01 X-9.60 Y26.28 
G01 X-9.54 Y26.22 
G01 X-6.77 Y23.45 
G01 X-6.71 Y23.39 
G01 X-6.67 Y23.32 
G01 X-6.65 Y23.25 
G01 X-6.65 Y22.33 
G01 X-6.65 Y22.32 
G01 X-6.65 Y23.33 
G01 X-9.71 Y26.39 
G01 X-9.76 Y26.34 
G01 X-10.56 Y26.34 
G01 X-11.12 Y26.91 
G00 Z1.00 
G00 X-56.28 Y5.43 
G01 Z-0.20 F60.00 
G01 X-56.13 Y5.36 F80.00 
G01 X-56.00 Y5.26 
G01 X-55.88 Y5.14 
G01 X-55.78 Y5.00 
G01 X-55.72 Y4.88 
G01 X-55.79 Y5.05 
G01 X-56.09 Y5.35 
G01 X-56.14 Y5.37 
G01 X-56.16 Y5.38 
G01 X-56.18 Y5.39 
G01 X-56.20 Y5.39 
G01 X-56.21 Y5.41 
G01 X-56.23 Y5.42 
G01 X-56.24 Y5.43 
G01 X-56.26 Y5.44 
G01 X-56.27 Y5.46 
G01 X-56.29 Y5.47 
G01 X-56.30 Y5.49 
G01 X-56.31 Y5.51 
G01 X-56.32 Y5.53 
G01 X-56.33 Y5.54 
G01 X-56.33 Y5.56 
G01 X-56.34 Y5.58 
G01 X-56.34 Y5.60 
G01 X-56.35 Y5.62 
G01 X-56.35 Y5.64 
G01 X-56.35 Y5.65 
G01 X-56.35 Y5.45 
G01 X-56.28 Y5.43 
G00 Z1.00 
G00 X-57.15 Y5.59 
G01 Z-0.20 F60.00 
G01 X-57.15 Y5.57 F80.00 
G01 X-57.16 Y5.55 
G01 X-57.16 Y5.53 
G01 X-57.17 Y5.52 
G01 X-57.17 Y5.50 
G01 X-57.18 Y5.48 
G01 X-57.19 Y5.46 
G01 X-57.20 Y5.44 
G01 X-57.21 Y5.43 
G01 X-57.23 Y5.41 
G01 X-57.24 Y5.40 
G01 X-57.26 Y5.38 
G01 X-57.27 Y5.37 
G01 X-57.29 Y5.36 
G01 X-57.60 Y5.05 
G01 X-57.67 Y4.88 
G01 X-57.60 Y5.00 
G01 X-57.51 Y5.14 
G01 X-57.39 Y5.26 
G01 X-57.25 Y5.36 
G01 X-57.15 Y5.41 
G01 X-57.15 Y5.60 
G01 X-57.15 Y5.59 
G00 Z1.00 
G00 X-56.84 Y18.65 
G01 Z-0.20 F60.00 
G01 X-56.84 Y19.45 F80.00 
G01 X-56.28 Y20.01 
G01 X-55.48 Y20.01 
G01 X-55.12 Y19.65 
G01 X-54.67 Y19.65 
G01 X-53.00 Y21.32 
G01 X-53.03 Y21.49 
G01 X-53.03 Y21.69 
G01 X-53.00 Y21.87 
G01 X-52.92 Y22.05 
G01 X-52.82 Y22.20 
G01 X-52.68 Y22.34 
G01 X-52.53 Y22.44 
G01 X-52.35 Y22.52 
G01 X-52.17 Y22.55 
G01 X-51.97 Y22.55 
G01 X-51.79 Y22.52 
G01 X-51.61 Y22.44 
G01 X-51.46 Y22.34 
G01 X-51.32 Y22.20 
G01 X-51.22 Y22.05 
G01 X-51.14 Y21.87 
G01 X-51.11 Y21.69 
G01 X-51.11 Y21.49 
G01 X-51.14 Y21.31 
G01 X-51.22 Y21.13 
G01 X-51.32 Y20.98 
G01 X-51.46 Y20.84 
G01 X-51.61 Y20.74 
G01 X-51.79 Y20.66 
G01 X-51.97 Y20.63 
G01 X-52.17 Y20.63 
G01 X-52.35 Y20.66 
G01 X-52.47 Y20.71 
G01 X-52.61 Y20.58 
G01 X-52.60 Y20.58 
G01 X-52.59 Y20.60 
G01 X-52.57 Y20.61 
G01 X-52.55 Y20.62 
G01 X-52.53 Y20.63 
G01 X-52.52 Y20.64 
G01 X-52.50 Y20.64 
G01 X-52.48 Y20.65 
G01 X-52.46 Y20.65 
G01 X-52.44 Y20.66 
G01 X-52.42 Y20.66 
G01 X-52.40 Y20.66 
G01 X-52.38 Y20.66 
G01 X-52.36 Y20.66 
G01 X-52.34 Y20.65 
G01 X-52.32 Y20.65 
G01 X-52.30 Y20.64 
G01 X-52.28 Y20.64 
G01 X-52.26 Y20.63 
G01 X-51.88 Y20.62 
G01 X-51.52 Y20.77 
G01 X-51.25 Y21.04 
G01 X-51.10 Y21.40 
G01 X-51.10 Y21.78 
G01 X-51.25 Y22.14 
G01 X-51.52 Y22.41 
G01 X-51.88 Y22.56 
G01 X-52.26 Y22.56 
G01 X-52.62 Y22.41 
G01 X-52.89 Y22.14 
G01 X-53.04 Y21.78 
G01 X-53.04 Y21.37 
G01 X-53.06 Y21.29 
G01 X-53.10 Y21.22 
G01 X-53.15 Y21.17 
G01 X-54.61 Y19.71 
G01 X-54.68 Y19.67 
G01 X-54.75 Y19.65 
G01 X-55.03 Y19.65 
G01 X-55.11 Y19.67 
G01 X-55.18 Y19.71 
G01 X-55.23 Y19.77 
G01 X-55.48 Y20.02 
G01 X-56.28 Y20.02 
G01 X-56.85 Y19.45 
G01 X-56.85 Y18.65 
G01 X-56.28 Y18.08 
G01 X-55.48 Y18.08 
G01 X-54.88 Y18.68 
G01 X-54.85 Y18.73 
G01 X-54.80 Y18.79 
G01 X-54.73 Y18.83 
G01 X-54.65 Y18.85 
G01 X-54.42 Y18.85 
G01 X-54.36 Y18.87 
G01 X-54.45 Y18.85 
G01 X-54.92 Y18.85 
G01 X-54.92 Y18.65 
G01 X-55.48 Y18.09 
G01 X-56.28 Y18.09 
G01 X-56.84 Y18.65 
G00 Z1.00 
G00 X-56.84 Y16.11 
G01 Z-0.20 F60.00 
G01 X-56.84 Y16.91 F80.00 
G01 X-56.28 Y17.47 
G01 X-55.48 Y17.47 
G01 X-54.92 Y16.91 
G01 X-54.92 Y16.11 
G01 X-55.48 Y15.55 
G01 X-55.60 Y15.55 
G01 X-55.60 Y12.20 
G01 X-55.62 Y12.11 
G01 X-55.60 Y12.17 
G01 X-55.60 Y15.34 
G01 X-55.58 Y15.42 
G01 X-55.54 Y15.49 
G01 X-55.48 Y15.54 
G01 X-54.91 Y16.11 
G01 X-54.91 Y16.91 
G01 X-55.48 Y17.48 
G01 X-56.28 Y17.48 
G01 X-56.85 Y16.91 
G01 X-56.85 Y16.11 
G01 X-56.46 Y15.73 
G01 X-56.42 Y15.66 
G01 X-56.40 Y15.58 
G01 X-56.40 Y12.50 
G01 X-56.42 Y12.43 
G01 X-56.46 Y12.36 
G01 X-56.52 Y12.30 
G01 X-59.21 Y9.61 
G01 X-59.34 Y9.48 
G01 X-59.37 Y9.42 
G01 X-59.32 Y9.50 
G01 X-59.25 Y9.57 
G01 X-56.40 Y12.42 
G01 X-56.40 Y15.67 
G01 X-56.84 Y16.11 
G00 Z1.00 
G00 X-59.34 Y3.52 
G01 Z-0.20 F60.00 
G01 X-59.21 Y3.39 F80.00 
G01 X-59.21 Y3.39 
G01 X-59.16 Y3.34 
G01 X-57.86 Y2.04 
G01 X-57.73 Y1.91 
G01 X-57.67 Y1.88 
G01 X-57.75 Y1.93 
G01 X-57.82 Y2.00 
G01 X-59.32 Y3.50 
G01 X-59.37 Y3.58 
G01 X-59.34 Y3.52 
G00 Z1.00 
G00 X-55.52 Y1.91 
G01 Z-0.20 F60.00 
G01 X-54.11 Y3.32 F80.00 
G01 X-54.05 Y3.36 
G01 X-53.97 Y3.38 
G01 X-53.58 Y3.38 
G01 X-53.41 Y3.45 
G01 X-53.55 Y3.41 
G01 X-53.71 Y3.38 
G01 X-53.88 Y3.38 
G01 X-54.03 Y3.40 
G01 X-55.50 Y1.93 
G01 X-55.58 Y1.88 
G01 X-55.52 Y1.91 
G00 Z1.00 
G00 X-54.71 Y3.89 
G01 Z-0.20 F60.00 
G01 X-54.77 Y4.01 F80.00 
G01 X-54.77 Y4.01 
G01 X-54.77 Y3.99 
G01 X-54.76 Y3.97 
G01 X-54.76 Y3.95 
G01 X-54.76 Y3.93 
G01 X-54.76 Y3.91 
G01 X-54.76 Y3.89 
G01 X-54.77 Y3.87 
G01 X-54.77 Y3.85 
G01 X-54.78 Y3.83 
G01 X-54.79 Y3.81 
G01 X-54.80 Y3.80 
G01 X-54.80 Y3.78 
G01 X-54.82 Y3.76 
G01 X-54.83 Y3.74 
G01 X-54.84 Y3.73 
G01 X-54.85 Y3.72 
G01 X-54.70 Y3.87 
G01 X-54.71 Y3.89 
G00 Z1.00 
G00 X-54.87 Y3.70 
G01 Z-0.20 F60.00 
G01 X-55.86 Y2.71 F80.00 
G01 X-55.93 Y2.67 
G01 X-56.00 Y2.65 
G01 X-57.25 Y2.65 
G01 X-57.32 Y2.67 
G01 X-57.39 Y2.71 
G01 X-57.45 Y2.77 
G01 X-58.54 Y3.86 
G01 X-58.58 Y3.93 
G01 X-58.60 Y4.00 
G01 X-58.60 Y9.00 
G01 X-58.58 Y9.07 
G01 X-58.54 Y9.14 
G01 X-58.48 Y9.20 
G01 X-55.66 Y12.02 
G01 X-55.63 Y12.08 
G01 X-55.68 Y12.00 
G01 X-58.60 Y9.08 
G01 X-58.60 Y3.92 
G01 X-57.33 Y2.65 
G01 X-55.92 Y2.65 
G01 X-54.86 Y3.71 
G01 X-54.87 Y3.70 
G00 Z1.00 
G00 X-57.58 Y1.85 
G01 Z-0.20 F60.00 
G01 X-55.67 Y1.85 F80.00 
G01 X-55.61 Y1.87 
G01 X-55.70 Y1.85 
G01 X-57.55 Y1.85 
G01 X-57.64 Y1.87 
G01 X-57.58 Y1.85 
G00 Z1.00 
G00 X-59.40 Y9.33 
G01 Z-0.20 F60.00 
G01 X-59.40 Y3.67 F80.00 
G01 X-59.38 Y3.61 
G01 X-59.40 Y3.70 
G01 X-59.40 Y9.30 
G01 X-59.38 Y9.39 
G01 X-59.40 Y9.33 
G00 Z1.00 
G00 X-66.79 Y3.08 
G01 Z-0.20 F60.00 
G01 X-66.95 Y2.98 F80.00 
G01 X-67.11 Y2.87 
G01 X-67.24 Y2.73 
G01 X-67.36 Y2.58 
G01 X-67.45 Y2.41 
G01 X-67.51 Y2.27 
G01 X-67.46 Y2.27 
G01 X-67.45 Y2.31 
G01 X-67.35 Y2.50 
G01 X-67.21 Y2.68 
G01 X-67.06 Y2.84 
G01 X-66.88 Y2.97 
G01 X-66.68 Y3.07 
G01 X-66.65 Y3.08 
G01 X-66.65 Y3.14 
G01 X-66.79 Y3.08 
G00 Z1.00 
G00 X-31.32 Y2.58 
G01 Z-0.20 F60.00 
G01 X-31.31 Y2.54 F80.00 
G01 X-31.29 Y2.51 
G01 X-31.26 Y2.48 
G01 X-31.23 Y2.46 
G01 X-31.19 Y2.45 
G01 X-30.32 Y2.45 
G01 X-30.32 Y2.50 
G01 X-31.19 Y2.50 
G01 X-31.23 Y2.51 
G01 X-31.26 Y2.54 
G01 X-31.27 Y2.58 
G01 X-31.27 Y2.80 
G01 X-31.32 Y2.80 
G01 X-31.32 Y2.58 
G00 Z1.00 
G00 X-28.52 Y3.82 
G01 Z-0.20 F60.00 
G01 X-28.53 Y3.86 F80.00 
G01 X-28.55 Y3.89 
G01 X-28.58 Y3.92 
G01 X-28.61 Y3.94 
G01 X-28.65 Y3.95 
G01 X-29.52 Y3.95 
G01 X-29.52 Y3.90 
G01 X-28.65 Y3.90 
G01 X-28.61 Y3.89 
G01 X-28.58 Y3.86 
G01 X-28.57 Y3.82 
G01 X-28.57 Y3.60 
G01 X-28.52 Y3.60 
G01 X-28.52 Y3.82 
G00 Z1.00 
G00 X-28.57 Y2.80 
G01 Z-0.20 F60.00 
G01 X-28.57 Y2.58 F80.00 
G01 X-28.58 Y2.54 
G01 X-28.61 Y2.51 
G01 X-28.65 Y2.50 
G01 X-29.52 Y2.50 
G01 X-29.52 Y2.45 
G01 X-28.65 Y2.45 
G01 X-28.61 Y2.46 
G01 X-28.58 Y2.47 
G01 X-28.57 Y2.49 
G01 X-28.55 Y2.50 
G01 X-28.54 Y2.51 
G01 X-28.52 Y2.52 
G01 X-28.50 Y2.53 
G01 X-28.51 Y2.55 
G01 X-28.51 Y2.57 
G01 X-28.52 Y2.59 
G01 X-28.52 Y2.61 
G01 X-28.52 Y2.63 
G01 X-28.52 Y2.65 
G01 X-28.52 Y2.80 
G01 X-28.57 Y2.80 
G00 Z1.00 
G00 X-31.19 Y3.95 
G01 Z-0.20 F60.00 
G01 X-31.23 Y3.94 F80.00 
G01 X-31.26 Y3.92 
G01 X-31.29 Y3.89 
G01 X-31.31 Y3.86 
G01 X-31.32 Y3.82 
G01 X-31.32 Y3.60 
G01 X-31.27 Y3.60 
G01 X-31.27 Y3.82 
G01 X-31.26 Y3.86 
G01 X-31.23 Y3.89 
G01 X-31.19 Y3.90 
G01 X-30.32 Y3.90 
G01 X-30.32 Y3.95 
G01 X-31.19 Y3.95 
G00 Z1.00 
G00 X-64.83 Y2.41 
G01 Z-0.20 F60.00 
G01 X-64.92 Y2.58 F80.00 
G01 X-65.04 Y2.73 
G01 X-65.17 Y2.87 
G01 X-65.33 Y2.98 
G01 X-65.49 Y3.08 
G01 X-65.63 Y3.14 
G01 X-65.63 Y3.08 
G01 X-65.60 Y3.07 
G01 X-65.40 Y2.97 
G01 X-65.22 Y2.84 
G01 X-65.07 Y2.68 
G01 X-64.93 Y2.50 
G01 X-64.83 Y2.31 
G01 X-64.82 Y2.27 
G01 X-64.77 Y2.27 
G01 X-64.83 Y2.41 
G00 Z1.00 
G00 X-66.84 Y36.41 
G01 Z-0.20 F60.00 
G01 X-66.62 Y36.32 F80.00 
G01 X-66.78 Y36.40 
G01 X-66.96 Y36.53 
G01 X-67.11 Y36.69 
G01 X-67.25 Y36.87 
G01 X-67.33 Y37.03 
G01 X-67.24 Y36.81 
G01 X-66.84 Y36.41 
G00 Z1.00 
G00 X-65.76 Y36.19 
G01 Z-0.20 F60.00 
G01 X-65.54 Y36.29 F80.00 
G01 X-65.71 Y36.23 
G01 X-65.93 Y36.20 
G01 X-66.15 Y36.20 
G01 X-66.37 Y36.23 
G01 X-66.54 Y36.29 
G01 X-66.32 Y36.19 
G01 X-65.76 Y36.19 
G00 Z1.00 
G00 X-52.40 Y27.71 
G01 Z-0.20 F60.00 
G01 X-52.40 Y24.42 F80.00 
G01 X-52.38 Y24.36 
G01 X-52.40 Y24.45 
G01 X-52.40 Y27.72 
G01 X-52.40 Y27.71 
G00 Z1.00 
G00 X-53.08 Y28.79 
G01 Z-0.20 F60.00 
G01 X-53.08 Y28.99 F80.00 
G01 X-53.04 Y29.19 
G01 X-52.96 Y29.37 
G01 X-52.85 Y29.54 
G01 X-52.71 Y29.68 
G01 X-52.55 Y29.79 
G01 X-52.36 Y29.86 
G01 X-52.17 Y29.90 
G01 X-51.97 Y29.90 
G01 X-51.78 Y29.86 
G01 X-51.59 Y29.79 
G01 X-51.43 Y29.68 
G01 X-51.29 Y29.54 
G01 X-51.18 Y29.37 
G01 X-51.10 Y29.19 
G01 X-51.06 Y28.99 
G01 X-51.06 Y28.79 
G01 X-51.10 Y28.60 
G01 X-51.18 Y28.41 
G01 X-51.29 Y28.25 
G01 X-51.43 Y28.11 
G01 X-51.59 Y28.00 
G01 X-51.60 Y28.00 
G01 X-51.60 Y24.67 
G01 X-49.50 Y22.57 
G01 X-49.49 Y22.55 
G01 X-49.43 Y22.55 
G01 X-49.25 Y22.52 
G01 X-49.07 Y22.44 
G01 X-48.92 Y22.34 
G01 X-48.78 Y22.20 
G01 X-48.68 Y22.05 
G01 X-48.60 Y21.87 
G01 X-48.57 Y21.69 
G01 X-48.57 Y21.49 
G01 X-48.60 Y21.31 
G01 X-48.63 Y21.23 
G01 X-48.63 Y21.24 
G01 X-48.56 Y21.40 
G01 X-48.56 Y21.78 
G01 X-48.71 Y22.14 
G01 X-48.98 Y22.41 
G01 X-49.34 Y22.56 
G01 X-49.40 Y22.56 
G01 X-49.48 Y22.58 
G01 X-49.48 Y22.58 
G01 X-49.55 Y22.62 
G01 X-49.60 Y22.67 
G01 X-51.54 Y24.61 
G01 X-51.58 Y24.68 
G01 X-51.60 Y24.75 
G01 X-51.60 Y27.85 
G01 X-51.58 Y27.93 
G01 X-51.54 Y28.00 
G01 X-51.48 Y28.05 
G01 X-51.21 Y28.32 
G01 X-51.07 Y28.68 
G01 X-51.02 Y28.74 
G01 X-50.95 Y28.79 
G01 X-50.88 Y28.82 
G01 X-50.80 Y28.83 
G01 X-50.72 Y28.82 
G01 X-50.65 Y28.79 
G01 X-50.58 Y28.74 
G01 X-50.53 Y28.68 
G01 X-50.50 Y28.61 
G01 X-50.39 Y28.32 
G01 X-50.10 Y28.04 
G01 X-49.73 Y27.88 
G01 X-49.33 Y27.88 
G01 X-48.96 Y28.04 
G01 X-48.71 Y28.29 
G01 X-48.64 Y28.33 
G01 X-48.56 Y28.35 
G01 X-47.96 Y28.35 
G01 X-47.88 Y28.33 
G01 X-47.81 Y28.29 
G01 X-47.76 Y28.23 
G01 X-47.56 Y28.04 
G01 X-47.55 Y28.03 
G01 X-47.54 Y28.02 
G01 X-47.52 Y28.01 
G01 X-47.51 Y28.00 
G01 X-47.49 Y27.98 
G01 X-47.48 Y27.97 
G01 X-47.46 Y27.95 
G01 X-47.45 Y27.94 
G01 X-47.44 Y27.92 
G01 X-47.43 Y27.90 
G01 X-47.42 Y27.88 
G01 X-47.42 Y27.87 
G01 X-47.41 Y27.85 
G01 X-47.41 Y27.83 
G01 X-47.40 Y27.81 
G01 X-47.40 Y27.79 
G01 X-47.40 Y27.78 
G01 X-47.40 Y27.97 
G01 X-47.47 Y28.00 
G01 X-47.63 Y28.11 
G01 X-47.77 Y28.25 
G01 X-47.84 Y28.35 
G01 X-48.68 Y28.35 
G01 X-48.75 Y28.25 
G01 X-48.89 Y28.11 
G01 X-49.05 Y28.00 
G01 X-49.24 Y27.92 
G01 X-49.43 Y27.88 
G01 X-49.63 Y27.88 
G01 X-49.82 Y27.92 
G01 X-50.01 Y28.00 
G01 X-50.17 Y28.11 
G01 X-50.31 Y28.25 
G01 X-50.42 Y28.41 
G01 X-50.50 Y28.60 
G01 X-50.54 Y28.79 
G01 X-50.54 Y28.99 
G01 X-50.50 Y29.19 
G01 X-50.42 Y29.37 
G01 X-50.31 Y29.54 
G01 X-50.17 Y29.68 
G01 X-50.01 Y29.79 
G01 X-49.82 Y29.86 
G01 X-49.63 Y29.90 
G01 X-49.43 Y29.90 
G01 X-49.24 Y29.86 
G01 X-49.05 Y29.79 
G01 X-48.89 Y29.68 
G01 X-48.75 Y29.54 
G01 X-48.64 Y29.37 
G01 X-48.63 Y29.35 
G01 X-48.63 Y29.36 
G01 X-48.67 Y29.46 
G01 X-48.96 Y29.75 
G01 X-49.33 Y29.90 
G01 X-49.73 Y29.90 
G01 X-50.10 Y29.75 
G01 X-50.39 Y29.46 
G01 X-50.50 Y29.18 
G01 X-50.53 Y29.11 
G01 X-50.58 Y29.04 
G01 X-50.65 Y28.99 
G01 X-50.72 Y28.96 
G01 X-50.80 Y28.95 
G01 X-50.88 Y28.96 
G01 X-50.95 Y28.99 
G01 X-51.02 Y29.04 
G01 X-51.07 Y29.11 
G01 X-51.21 Y29.46 
G01 X-51.50 Y29.75 
G01 X-51.87 Y29.90 
G01 X-52.27 Y29.90 
G01 X-52.64 Y29.75 
G01 X-52.93 Y29.46 
G01 X-53.08 Y29.09 
G01 X-53.08 Y28.69 
G01 X-52.93 Y28.32 
G01 X-52.64 Y28.04 
G01 X-52.61 Y28.02 
G01 X-52.59 Y28.02 
G01 X-52.57 Y28.01 
G01 X-52.55 Y28.00 
G01 X-52.54 Y27.99 
G01 X-52.52 Y27.98 
G01 X-52.51 Y27.96 
G01 X-52.49 Y27.95 
G01 X-52.48 Y27.94 
G01 X-52.46 Y27.92 
G01 X-52.45 Y27.90 
G01 X-52.44 Y27.89 
G01 X-52.43 Y27.87 
G01 X-52.42 Y27.85 
G01 X-52.42 Y27.83 
G01 X-52.41 Y27.81 
G01 X-52.41 Y27.79 
G01 X-52.40 Y27.77 
G01 X-52.40 Y27.75 
G01 X-52.40 Y27.75 
G01 X-52.40 Y27.94 
G01 X-52.55 Y28.00 
G01 X-52.71 Y28.11 
G01 X-52.85 Y28.25 
G01 X-52.96 Y28.41 
G01 X-53.04 Y28.60 
G01 X-53.08 Y28.79 
G00 Z1.00 
G00 X-52.34 Y24.27 
G01 Z-0.20 F60.00 
G01 X-50.46 Y22.40 F80.00 
G01 X-50.46 Y22.39 
G01 X-52.32 Y24.25 
G01 X-52.37 Y24.33 
G01 X-52.34 Y24.27 
G00 Z1.00 
G00 X-50.44 Y22.37 
G01 Z-0.20 F60.00 
G01 X-50.42 Y22.35 F80.00 
G01 X-50.41 Y22.34 
G01 X-50.40 Y22.32 
G01 X-50.39 Y22.30 
G01 X-50.38 Y22.28 
G01 X-50.38 Y22.26 
G01 X-50.37 Y22.25 
G01 X-50.37 Y22.23 
G01 X-50.36 Y22.21 
G01 X-50.36 Y22.19 
G01 X-50.36 Y22.17 
G01 X-50.36 Y22.15 
G01 X-50.36 Y22.13 
G01 X-50.37 Y22.11 
G01 X-50.37 Y22.09 
G01 X-50.38 Y22.07 
G01 X-50.38 Y22.05 
G01 X-50.28 Y22.20 
G01 X-50.28 Y22.21 
G01 X-50.44 Y22.38 
G01 X-50.44 Y22.37 
G00 Z1.00 
G00 X-17.47 Y23.10 
G01 Z-0.20 F60.00 
G01 X-17.47 Y23.89 F80.00 
G01 X-17.15 Y24.22 
G01 X-17.15 Y26.58 
G01 X-17.47 Y26.91 
G01 X-17.47 Y27.10 
G01 X-18.92 Y27.10 
G01 X-18.91 Y27.10 
G01 X-17.74 Y27.10 
G01 X-17.66 Y27.08 
G01 X-17.59 Y27.04 
G01 X-17.54 Y26.98 
G01 X-17.52 Y26.95 
G01 X-17.27 Y26.70 
G01 X-17.21 Y26.64 
G01 X-17.17 Y26.57 
G01 X-17.15 Y26.50 
G01 X-17.15 Y24.30 
G01 X-17.17 Y24.23 
G01 X-17.17 Y24.23 
G01 X-17.21 Y24.16 
G01 X-17.27 Y24.10 
G01 X-17.48 Y23.90 
G01 X-17.48 Y23.09 
G01 X-16.91 Y22.53 
G01 X-16.04 Y22.53 
G01 X-16.02 Y22.53 
G01 X-15.98 Y22.53 
G01 X-15.94 Y22.53 
G01 X-15.90 Y22.52 
G01 X-15.86 Y22.51 
G01 X-15.83 Y22.50 
G01 X-15.79 Y22.47 
G01 X-15.76 Y22.45 
G01 X-15.74 Y22.42 
G01 X-13.48 Y20.16 
G01 X-13.42 Y20.13 
G01 X-13.50 Y20.18 
G01 X-15.98 Y22.66 
G01 X-16.11 Y22.53 
G01 X-16.91 Y22.53 
G01 X-17.47 Y23.10 
G00 Z1.00 
G00 X-16.91 Y28.27 
G01 Z-0.20 F60.00 
G01 X-16.11 Y28.27 F80.00 
G01 X-15.55 Y27.70 
G01 X-15.55 Y26.91 
G01 X-16.11 Y26.34 
G01 X-16.35 Y26.34 
G01 X-16.35 Y24.46 
G01 X-16.11 Y24.46 
G01 X-15.55 Y23.89 
G01 X-15.55 Y23.36 
G01 X-13.08 Y20.90 
G01 X-9.85 Y20.90 
G01 X-9.85 Y21.28 
G01 X-9.82 Y21.46 
G01 X-9.74 Y21.64 
G01 X-9.64 Y21.80 
G01 X-9.50 Y21.93 
G01 X-9.35 Y22.04 
G01 X-9.17 Y22.11 
G01 X-8.99 Y22.15 
G01 X-8.79 Y22.15 
G01 X-8.61 Y22.11 
G01 X-8.43 Y22.04 
G01 X-8.28 Y21.93 
G01 X-8.14 Y21.80 
G01 X-8.04 Y21.64 
G01 X-7.96 Y21.46 
G01 X-7.93 Y21.28 
G01 X-7.93 Y19.36 
G01 X-7.96 Y19.18 
G01 X-8.04 Y19.00 
G01 X-8.14 Y18.84 
G01 X-8.28 Y18.71 
G01 X-8.43 Y18.60 
G01 X-8.61 Y18.53 
G01 X-8.79 Y18.49 
G01 X-8.99 Y18.49 
G01 X-9.17 Y18.53 
G01 X-9.35 Y18.60 
G01 X-9.50 Y18.71 
G01 X-9.64 Y18.84 
G01 X-9.74 Y19.00 
G01 X-9.82 Y19.18 
G01 X-9.85 Y19.36 
G01 X-9.85 Y20.10 
G01 X-13.30 Y20.10 
G01 X-13.39 Y20.12 
G01 X-13.33 Y20.10 
G01 X-10.12 Y20.10 
G01 X-10.04 Y20.08 
G01 X-9.97 Y20.04 
G01 X-9.92 Y19.98 
G01 X-9.88 Y19.91 
G01 X-9.86 Y19.83 
G01 X-9.86 Y19.26 
G01 X-9.71 Y18.91 
G01 X-9.44 Y18.64 
G01 X-9.08 Y18.49 
G01 X-8.70 Y18.49 
G01 X-8.34 Y18.64 
G01 X-8.07 Y18.91 
G01 X-7.92 Y19.26 
G01 X-7.92 Y21.38 
G01 X-8.07 Y21.73 
G01 X-8.34 Y22.00 
G01 X-8.70 Y22.15 
G01 X-9.08 Y22.15 
G01 X-9.44 Y22.00 
G01 X-9.71 Y21.73 
G01 X-9.86 Y21.38 
G01 X-9.86 Y21.17 
G01 X-9.88 Y21.09 
G01 X-9.92 Y21.02 
G01 X-9.97 Y20.96 
G01 X-10.04 Y20.92 
G01 X-10.12 Y20.90 
G01 X-13.00 Y20.90 
G01 X-13.07 Y20.92 
G01 X-13.14 Y20.96 
G01 X-13.20 Y21.02 
G01 X-15.48 Y23.30 
G01 X-15.52 Y23.37 
G01 X-15.54 Y23.45 
G01 X-15.54 Y23.90 
G01 X-16.12 Y24.47 
G01 X-16.16 Y24.48 
G01 X-16.23 Y24.52 
G01 X-16.29 Y24.58 
G01 X-16.33 Y24.65 
G01 X-16.35 Y24.72 
G01 X-16.35 Y26.08 
G01 X-16.33 Y26.15 
G01 X-16.29 Y26.22 
G01 X-16.23 Y26.28 
G01 X-16.16 Y26.32 
G01 X-16.12 Y26.33 
G01 X-15.54 Y26.90 
G01 X-15.54 Y27.71 
G01 X-16.13 Y28.30 
G01 X-16.19 Y28.35 
G01 X-16.23 Y28.42 
G01 X-16.25 Y28.50 
G01 X-16.25 Y28.58 
G01 X-16.23 Y28.66 
G01 X-16.19 Y28.73 
G01 X-15.49 Y29.42 
G01 X-15.49 Y29.54 
G01 X-15.55 Y29.54 
G01 X-15.55 Y29.45 
G01 X-16.11 Y28.88 
G01 X-16.91 Y28.88 
G01 X-17.47 Y29.45 
G01 X-17.47 Y29.54 
G01 X-17.53 Y29.54 
G01 X-17.53 Y29.42 
G01 X-16.89 Y28.78 
G01 X-16.84 Y28.74 
G01 X-16.83 Y28.73 
G01 X-16.79 Y28.66 
G01 X-16.77 Y28.58 
G01 X-16.77 Y28.50 
G01 X-16.79 Y28.42 
G01 X-16.83 Y28.35 
G01 X-16.83 Y28.35 
G01 X-17.16 Y28.02 
G01 X-17.21 Y27.97 
G01 X-17.22 Y27.96 
G01 X-17.29 Y27.92 
G01 X-17.36 Y27.90 
G01 X-19.24 Y27.90 
G01 X-19.31 Y27.92 
G01 X-19.35 Y27.95 
G01 X-19.38 Y27.96 
G01 X-19.44 Y28.02 
G01 X-19.54 Y28.12 
G01 X-19.90 Y28.27 
G01 X-22.01 Y28.27 
G01 X-22.37 Y28.12 
G01 X-22.64 Y27.85 
G01 X-22.78 Y27.50 
G01 X-22.78 Y27.11 
G01 X-22.64 Y26.76 
G01 X-22.37 Y26.49 
G01 X-22.01 Y26.34 
G01 X-19.90 Y26.34 
G01 X-19.54 Y26.49 
G01 X-19.27 Y26.76 
G01 X-19.22 Y26.89 
G01 X-19.21 Y26.90 
G01 X-19.24 Y26.85 
G01 X-19.34 Y26.69 
G01 X-19.48 Y26.56 
G01 X-19.63 Y26.45 
G01 X-19.81 Y26.38 
G01 X-20.00 Y26.34 
G01 X-21.91 Y26.34 
G01 X-22.10 Y26.38 
G01 X-22.28 Y26.45 
G01 X-22.43 Y26.56 
G01 X-22.57 Y26.69 
G01 X-22.67 Y26.85 
G01 X-22.75 Y27.02 
G01 X-22.78 Y27.21 
G01 X-22.78 Y27.40 
G01 X-22.75 Y27.59 
G01 X-22.67 Y27.76 
G01 X-22.57 Y27.92 
G01 X-22.43 Y28.05 
G01 X-22.28 Y28.16 
G01 X-22.10 Y28.23 
G01 X-21.91 Y28.27 
G01 X-20.00 Y28.27 
G01 X-19.81 Y28.23 
G01 X-19.63 Y28.16 
G01 X-19.48 Y28.05 
G01 X-19.34 Y27.92 
G01 X-19.33 Y27.90 
G01 X-17.28 Y27.90 
G01 X-16.91 Y28.27 
G00 Z1.00 
G00 X-19.16 Y27.02 
G01 Z-0.20 F60.00 
G01 X-19.21 Y26.92 F80.00 
G01 X-19.20 Y26.93 
G01 X-19.19 Y26.95 
G01 X-19.18 Y26.96 
G01 X-19.17 Y26.98 
G01 X-19.16 Y26.99 
G01 X-19.15 Y27.01 
G01 X-19.13 Y27.02 
G01 X-19.12 Y27.04 
G01 X-19.10 Y27.05 
G01 X-19.08 Y27.06 
G01 X-19.06 Y27.07 
G01 X-19.05 Y27.08 
G01 X-19.03 Y27.08 
G01 X-19.01 Y27.09 
G01 X-18.99 Y27.09 
G01 X-18.97 Y27.10 
G01 X-18.95 Y27.10 
G01 X-18.94 Y27.10 
G01 X-19.15 Y27.10 
G01 X-19.16 Y27.02 
G00 Z1.00 
G00 X-25.92 Y11.65 
G01 Z-0.20 F60.00 
G01 X-27.83 Y11.65 F80.00 
G01 X-27.89 Y11.63 
G01 X-27.80 Y11.65 
G01 X-25.95 Y11.65 
G01 X-25.86 Y11.63 
G01 X-25.92 Y11.65 
G00 Z1.00 
G00 X-21.03 Y10.90 
G01 Z-0.20 F60.00 
G01 X-18.49 Y10.90 F80.00 
G01 X-18.45 Y10.89 
G01 X-18.42 Y10.86 
G01 X-18.41 Y10.82 
G01 X-18.41 Y9.58 
G01 X-18.42 Y9.54 
G01 X-18.45 Y9.51 
G01 X-18.49 Y9.50 
G01 X-21.03 Y9.50 
G01 X-21.07 Y9.51 
G01 X-21.10 Y9.54 
G01 X-21.11 Y9.58 
G01 X-21.11 Y9.60 
G01 X-24.80 Y9.60 
G01 X-24.89 Y9.62 
G01 X-24.88 Y9.62 
G01 X-24.86 Y9.61 
G01 X-24.83 Y9.60 
G01 X-21.24 Y9.60 
G01 X-21.16 Y9.58 
G01 X-21.09 Y9.54 
G01 X-21.05 Y9.50 
G01 X-18.47 Y9.50 
G01 X-18.41 Y9.56 
G01 X-18.41 Y10.84 
G01 X-18.47 Y10.90 
G01 X-21.05 Y10.90 
G01 X-21.11 Y10.84 
G01 X-21.11 Y10.67 
G01 X-21.13 Y10.59 
G01 X-21.17 Y10.52 
G01 X-21.23 Y10.46 
G01 X-21.30 Y10.42 
G01 X-21.38 Y10.40 
G01 X-21.80 Y10.40 
G01 X-21.88 Y10.42 
G01 X-21.95 Y10.46 
G01 X-22.01 Y10.52 
G01 X-22.05 Y10.59 
G01 X-22.07 Y10.67 
G01 X-22.07 Y12.03 
G01 X-22.05 Y12.10 
G01 X-22.05 Y12.10 
G01 X-22.01 Y12.17 
G01 X-21.95 Y12.23 
G01 X-20.54 Y13.64 
G01 X-20.41 Y13.77 
G01 X-20.40 Y13.78 
G01 X-20.39 Y13.80 
G01 X-20.37 Y13.81 
G01 X-20.36 Y13.82 
G01 X-20.05 Y14.13 
G01 X-20.02 Y14.19 
G01 X-20.00 Y14.24 
G01 X-19.95 Y14.30 
G01 X-19.92 Y14.33 
G01 X-19.89 Y14.35 
G01 X-19.86 Y14.37 
G01 X-19.82 Y14.38 
G01 X-19.75 Y14.39 
G01 X-19.74 Y14.39 
G01 X-19.73 Y14.39 
G01 X-19.66 Y14.38 
G01 X-19.61 Y14.36 
G01 X-19.58 Y14.35 
G01 X-19.52 Y14.30 
G01 X-19.49 Y14.27 
G01 X-19.47 Y14.24 
G01 X-19.45 Y14.18 
G01 X-19.41 Y14.09 
G01 X-19.45 Y14.23 
G01 X-19.48 Y14.39 
G01 X-19.48 Y14.56 
G01 X-19.45 Y14.73 
G01 X-19.40 Y14.89 
G01 X-19.33 Y15.04 
G01 X-19.23 Y15.17 
G01 X-19.11 Y15.29 
G01 X-18.97 Y15.39 
G01 X-18.85 Y15.45 
G01 X-19.02 Y15.38 
G01 X-19.32 Y15.08 
G01 X-19.35 Y15.02 
G01 X-19.37 Y14.97 
G01 X-19.42 Y14.91 
G01 X-19.45 Y14.88 
G01 X-19.48 Y14.86 
G01 X-19.51 Y14.84 
G01 X-19.55 Y14.83 
G01 X-19.62 Y14.82 
G01 X-19.63 Y14.82 
G01 X-19.64 Y14.82 
G01 X-19.71 Y14.83 
G01 X-19.76 Y14.85 
G01 X-19.79 Y14.86 
G01 X-19.85 Y14.91 
G01 X-19.88 Y14.94 
G01 X-19.90 Y14.97 
G01 X-19.92 Y15.03 
G01 X-19.96 Y15.12 
G01 X-19.92 Y14.98 
G01 X-19.89 Y14.82 
G01 X-19.89 Y14.65 
G01 X-19.92 Y14.48 
G01 X-19.97 Y14.32 
G01 X-20.04 Y14.17 
G01 X-20.14 Y14.04 
G01 X-20.26 Y13.92 
G01 X-20.39 Y13.83 
G01 X-20.43 Y13.75 
G01 X-20.50 Y13.68 
G01 X-22.18 Y12.00 
G01 X-22.15 Y12.00 
G01 X-22.11 Y11.99 
G01 X-22.08 Y11.96 
G01 X-22.07 Y11.92 
G01 X-22.07 Y10.68 
G01 X-22.08 Y10.64 
G01 X-22.11 Y10.61 
G01 X-22.15 Y10.60 
G01 X-24.69 Y10.60 
G01 X-24.73 Y10.61 
G01 X-24.76 Y10.64 
G01 X-24.77 Y10.68 
G01 X-24.77 Y11.92 
G01 X-24.76 Y11.96 
G01 X-24.73 Y11.99 
G01 X-24.69 Y12.00 
G01 X-23.32 Y12.00 
G01 X-21.50 Y13.81 
G01 X-21.51 Y13.82 
G01 X-21.65 Y13.92 
G01 X-21.77 Y14.04 
G01 X-21.87 Y14.17 
G01 X-21.93 Y14.30 
G01 X-21.86 Y14.13 
G01 X-21.77 Y14.04 
G01 X-21.71 Y13.98 
G01 X-21.67 Y13.91 
G01 X-21.65 Y13.83 
G01 X-21.65 Y13.75 
G01 X-21.67 Y13.68 
G01 X-21.71 Y13.61 
G01 X-23.26 Y12.06 
G01 X-23.33 Y12.02 
G01 X-23.40 Y12.00 
G01 X-24.71 Y12.00 
G01 X-24.77 Y11.94 
G01 X-24.77 Y11.29 
G01 X-24.79 Y11.21 
G01 X-24.79 Y11.21 
G01 X-24.83 Y11.14 
G01 X-24.89 Y11.08 
G01 X-24.96 Y11.04 
G01 X-25.04 Y11.02 
G01 X-25.12 Y11.02 
G01 X-25.19 Y11.04 
G01 X-25.19 Y11.04 
G01 X-25.26 Y11.08 
G01 X-25.32 Y11.14 
G01 X-25.64 Y11.46 
G01 X-25.77 Y11.59 
G01 X-25.83 Y11.62 
G01 X-25.75 Y11.57 
G01 X-25.68 Y11.50 
G01 X-24.58 Y10.40 
G01 X-21.11 Y10.40 
G01 X-21.11 Y10.82 
G01 X-21.10 Y10.86 
G01 X-21.07 Y10.89 
G01 X-21.03 Y10.90 
G00 Z1.00 
G00 X-18.33 Y13.41 
G01 Z-0.20 F60.00 
G01 X-18.50 Y13.41 F80.00 
G01 X-18.66 Y13.44 
G01 X-18.80 Y13.48 
G01 X-18.63 Y13.41 
G01 X-18.32 Y13.41 
G01 X-18.24 Y13.39 
G01 X-18.24 Y13.39 
G01 X-18.17 Y13.35 
G01 X-18.11 Y13.29 
G01 X-15.98 Y11.16 
G01 X-15.92 Y11.13 
G01 X-16.00 Y11.18 
G01 X-18.24 Y13.43 
G01 X-18.33 Y13.41 
G00 Z1.00 
G00 X-17.39 Y13.71 
G01 Z-0.20 F60.00 
G01 X-17.41 Y13.73 F80.00 
G01 X-17.42 Y13.74 
G01 X-17.43 Y13.76 
G01 X-17.44 Y13.78 
G01 X-17.45 Y13.80 
G01 X-17.45 Y13.82 
G01 X-17.46 Y13.83 
G01 X-17.46 Y13.85 
G01 X-17.47 Y13.87 
G01 X-17.47 Y13.89 
G01 X-17.47 Y13.91 
G01 X-17.47 Y13.93 
G01 X-17.47 Y13.95 
G01 X-17.46 Y13.97 
G01 X-17.46 Y13.99 
G01 X-17.45 Y14.01 
G01 X-17.45 Y14.02 
G01 X-17.50 Y13.92 
G01 X-17.54 Y13.86 
G01 X-17.39 Y13.71 
G01 X-17.39 Y13.71 
G00 Z1.00 
G00 X-14.53 Y12.00 
G01 Z-0.20 F60.00 
G01 X-11.99 Y12.00 F80.00 
G01 X-11.95 Y11.99 
G01 X-11.92 Y11.96 
G01 X-11.91 Y11.92 
G01 X-11.91 Y10.68 
G01 X-11.92 Y10.64 
G01 X-11.95 Y10.61 
G01 X-11.99 Y10.60 
G01 X-14.53 Y10.60 
G01 X-14.57 Y10.61 
G01 X-14.60 Y10.64 
G01 X-14.61 Y10.68 
G01 X-14.61 Y11.10 
G01 X-15.80 Y11.10 
G01 X-15.89 Y11.12 
G01 X-15.83 Y11.10 
G01 X-14.88 Y11.10 
G01 X-14.80 Y11.08 
G01 X-14.73 Y11.04 
G01 X-14.67 Y10.98 
G01 X-14.63 Y10.91 
G01 X-14.61 Y10.83 
G01 X-14.61 Y10.66 
G01 X-14.55 Y10.60 
G01 X-11.97 Y10.60 
G01 X-11.91 Y10.66 
G01 X-11.91 Y11.94 
G01 X-11.97 Y12.00 
G01 X-14.55 Y12.00 
G01 X-14.59 Y11.96 
G01 X-14.66 Y11.92 
G01 X-14.74 Y11.90 
G01 X-15.50 Y11.90 
G01 X-15.57 Y11.92 
G01 X-15.64 Y11.96 
G01 X-15.67 Y11.99 
G01 X-17.37 Y13.68 
G01 X-17.37 Y13.69 
G01 X-15.58 Y11.90 
G01 X-14.61 Y11.90 
G01 X-14.61 Y11.92 
G01 X-14.60 Y11.96 
G01 X-14.57 Y11.99 
G01 X-14.53 Y12.00 
G00 Z1.00 
G00 X-21.03 Y3.95 
G01 Z-0.20 F60.00 
G01 X-21.07 Y3.94 F80.00 
G01 X-21.10 Y3.92 
G01 X-21.13 Y3.89 
G01 X-21.15 Y3.86 
G01 X-21.16 Y3.82 
G01 X-21.16 Y3.60 
G01 X-21.11 Y3.60 
G01 X-21.11 Y3.82 
G01 X-21.10 Y3.86 
G01 X-21.07 Y3.89 
G01 X-21.03 Y3.90 
G01 X-20.16 Y3.90 
G01 X-20.16 Y3.95 
G01 X-21.03 Y3.95 
G00 Z1.00 
G00 X-18.49 Y2.50 
G01 Z-0.20 F60.00 
G01 X-19.36 Y2.50 F80.00 
G01 X-19.36 Y2.45 
G01 X-18.49 Y2.45 
G01 X-18.45 Y2.46 
G01 X-18.42 Y2.47 
G01 X-18.41 Y2.49 
G01 X-18.39 Y2.50 
G01 X-18.38 Y2.51 
G01 X-18.36 Y2.52 
G01 X-18.34 Y2.53 
G01 X-18.35 Y2.55 
G01 X-18.35 Y2.57 
G01 X-18.36 Y2.59 
G01 X-18.36 Y2.61 
G01 X-18.36 Y2.63 
G01 X-18.36 Y2.65 
G01 X-18.36 Y2.80 
G01 X-18.41 Y2.80 
G01 X-18.41 Y2.58 
G01 X-18.42 Y2.54 
G01 X-18.45 Y2.51 
G01 X-18.49 Y2.50 
G00 Z1.00 
G00 X-30.06 Y15.49 
G01 Z-0.20 F60.00 
G01 X-29.46 Y16.09 F80.00 
G01 X-29.46 Y16.21 
G01 X-29.52 Y16.21 
G01 X-29.52 Y16.11 
G01 X-30.08 Y15.55 
G01 X-30.18 Y15.55 
G01 X-30.18 Y15.49 
G01 X-30.06 Y15.49 
G00 Z1.00 
G00 X-16.43 Y13.82 
G01 Z-0.20 F60.00 
G01 X-16.57 Y13.92 F80.00 
G01 X-16.69 Y14.04 
G01 X-16.79 Y14.17 
G01 X-16.86 Y14.32 
G01 X-16.91 Y14.48 
G01 X-16.94 Y14.65 
G01 X-16.94 Y14.82 
G01 X-16.91 Y14.98 
G01 X-16.87 Y15.12 
G01 X-16.91 Y15.02 
G01 X-16.93 Y14.97 
G01 X-16.95 Y14.94 
G01 X-16.98 Y14.91 
G01 X-17.04 Y14.86 
G01 X-17.08 Y14.84 
G01 X-17.12 Y14.83 
G01 X-17.19 Y14.82 
G01 X-17.20 Y14.82 
G01 X-17.21 Y14.82 
G01 X-17.28 Y14.83 
G01 X-17.32 Y14.85 
G01 X-17.35 Y14.86 
G01 X-17.38 Y14.88 
G01 X-17.41 Y14.91 
G01 X-17.46 Y14.97 
G01 X-17.48 Y15.02 
G01 X-17.51 Y15.08 
G01 X-17.81 Y15.38 
G01 X-17.98 Y15.45 
G01 X-17.86 Y15.39 
G01 X-17.72 Y15.29 
G01 X-17.60 Y15.17 
G01 X-17.50 Y15.04 
G01 X-17.43 Y14.89 
G01 X-17.38 Y14.73 
G01 X-17.35 Y14.56 
G01 X-17.35 Y14.39 
G01 X-17.38 Y14.23 
G01 X-17.42 Y14.09 
G01 X-17.36 Y14.24 
G01 X-17.31 Y14.30 
G01 X-17.25 Y14.35 
G01 X-17.17 Y14.38 
G01 X-17.10 Y14.39 
G01 X-17.09 Y14.39 
G01 X-17.02 Y14.38 
G01 X-17.01 Y14.38 
G01 X-16.94 Y14.35 
G01 X-16.88 Y14.30 
G01 X-16.83 Y14.24 
G01 X-16.83 Y14.24 
G01 X-16.78 Y14.13 
G01 X-16.48 Y13.83 
G01 X-16.31 Y13.76 
G01 X-16.43 Y13.82 
G00 Z1.00 
G00 X-18.97 Y13.57 
G01 Z-0.20 F60.00 
G01 X-19.11 Y13.66 F80.00 
G01 X-19.23 Y13.78 
G01 X-19.33 Y13.92 
G01 X-19.39 Y14.04 
G01 X-19.32 Y13.87 
G01 X-19.02 Y13.57 
G01 X-18.85 Y13.50 
G01 X-18.97 Y13.57 
G00 Z1.00 
G00 X-15.63 Y13.69 
G01 Z-0.20 F60.00 
G01 X-15.79 Y13.67 F80.00 
G01 X-15.96 Y13.67 
G01 X-16.12 Y13.69 
G01 X-16.26 Y13.74 
G01 X-16.09 Y13.66 
G01 X-15.66 Y13.66 
G01 X-15.49 Y13.74 
G01 X-15.63 Y13.69 
G00 Z1.00 
G00 X-29.46 Y16.93 
G01 Z-0.20 F60.00 
G01 X-30.06 Y17.53 F80.00 
G01 X-30.18 Y17.53 
G01 X-30.18 Y17.47 
G01 X-30.08 Y17.47 
G01 X-29.52 Y16.91 
G01 X-29.52 Y16.81 
G01 X-29.46 Y16.81 
G01 X-29.46 Y16.93 
G00 Z1.00 
G00 X-18.36 Y3.82 
G01 Z-0.20 F60.00 
G01 X-18.37 Y3.86 F80.00 
G01 X-18.39 Y3.89 
G01 X-18.42 Y3.92 
G01 X-18.45 Y3.94 
G01 X-18.49 Y3.95 
G01 X-19.36 Y3.95 
G01 X-19.36 Y3.90 
G01 X-18.49 Y3.90 
G01 X-18.45 Y3.89 
G01 X-18.42 Y3.86 
G01 X-18.41 Y3.82 
G01 X-18.41 Y3.60 
G01 X-18.36 Y3.60 
G01 X-18.36 Y3.82 
G00 Z1.00 
G00 X-21.16 Y2.58 
G01 Z-0.20 F60.00 
G01 X-21.15 Y2.54 F80.00 
G01 X-21.13 Y2.51 
G01 X-21.10 Y2.48 
G01 X-21.07 Y2.46 
G01 X-21.03 Y2.45 
G01 X-20.16 Y2.45 
G01 X-20.16 Y2.50 
G01 X-21.03 Y2.50 
G01 X-21.07 Y2.51 
G01 X-21.10 Y2.54 
G01 X-21.11 Y2.58 
G01 X-21.11 Y2.80 
G01 X-21.16 Y2.80 
G01 X-21.16 Y2.58 
G00 Z1.00 
G00 X-16.78 Y15.34 
G01 Z-0.20 F60.00 
G01 X-16.85 Y15.17 F80.00 
G01 X-16.79 Y15.29 
G01 X-16.69 Y15.43 
G01 X-16.57 Y15.55 
G01 X-16.43 Y15.64 
G01 X-16.31 Y15.71 
G01 X-16.48 Y15.64 
G01 X-16.78 Y15.34 
G00 Z1.00 
G00 X-16.09 Y15.80 
G01 Z-0.20 F60.00 
G01 X-16.26 Y15.73 F80.00 
G01 X-16.12 Y15.77 
G01 X-15.96 Y15.80 
G01 X-15.79 Y15.80 
G01 X-15.63 Y15.77 
G01 X-15.49 Y15.73 
G01 X-15.66 Y15.80 
G01 X-16.09 Y15.80 
G00 Z1.00 
G00 X-18.63 Y15.55 
G01 Z-0.20 F60.00 
G01 X-18.80 Y15.47 F80.00 
G01 X-18.66 Y15.52 
G01 X-18.50 Y15.54 
G01 X-18.33 Y15.54 
G01 X-18.17 Y15.52 
G01 X-18.03 Y15.47 
G01 X-18.20 Y15.55 
G01 X-18.63 Y15.55 
G00 Z1.00 
G00 X-31.19 Y10.90 
G01 Z-0.20 F60.00 
G01 X-28.67 Y10.90 F80.00 
G01 X-28.00 Y11.57 
G01 X-27.92 Y11.62 
G01 X-27.98 Y11.59 
G01 X-28.61 Y10.96 
G01 X-28.68 Y10.92 
G01 X-28.75 Y10.90 
G01 X-31.21 Y10.90 
G01 X-31.27 Y10.84 
G01 X-31.27 Y9.56 
G01 X-31.21 Y9.50 
G01 X-28.63 Y9.50 
G01 X-28.55 Y9.58 
G01 X-28.53 Y9.60 
G01 X-28.52 Y9.61 
G01 X-28.50 Y9.62 
G01 X-28.49 Y9.63 
G01 X-28.47 Y9.64 
G01 X-28.45 Y9.65 
G01 X-28.43 Y9.66 
G01 X-28.41 Y9.67 
G01 X-28.40 Y9.68 
G01 X-28.38 Y9.68 
G01 X-28.36 Y9.68 
G01 X-28.34 Y9.68 
G01 X-28.32 Y9.69 
G01 X-28.30 Y9.68 
G01 X-28.28 Y9.68 
G01 X-28.26 Y9.68 
G01 X-28.24 Y9.68 
G01 X-28.22 Y9.67 
G01 X-28.20 Y9.66 
G01 X-28.18 Y9.65 
G01 X-28.16 Y9.64 
G01 X-28.15 Y9.63 
G01 X-28.13 Y9.62 
G01 X-28.12 Y9.61 
G01 X-28.10 Y9.60 
G01 X-28.09 Y9.58 
G01 X-28.07 Y9.57 
G01 X-28.06 Y9.55 
G01 X-28.05 Y9.53 
G01 X-28.04 Y9.51 
G01 X-28.03 Y9.50 
G01 X-28.03 Y9.48 
G01 X-28.02 Y9.46 
G01 X-28.02 Y9.44 
G01 X-28.01 Y9.42 
G01 X-28.01 Y9.40 
G01 X-28.01 Y9.38 
G01 X-28.01 Y9.36 
G01 X-28.01 Y9.34 
G01 X-28.02 Y9.32 
G01 X-28.02 Y9.30 
G01 X-28.03 Y9.28 
G01 X-28.03 Y9.26 
G01 X-28.04 Y9.24 
G01 X-28.18 Y8.90 
G01 X-28.18 Y8.30 
G01 X-27.95 Y7.74 
G01 X-27.53 Y7.32 
G01 X-26.97 Y7.08 
G01 X-26.37 Y7.08 
G01 X-25.81 Y7.32 
G01 X-25.39 Y7.74 
G01 X-25.15 Y8.30 
G01 X-25.15 Y8.90 
G01 X-25.27 Y9.19 
G01 X-25.30 Y9.24 
G01 X-25.30 Y9.26 
G01 X-25.31 Y9.32 
G01 X-25.32 Y9.34 
G01 X-25.30 Y9.42 
G01 X-25.29 Y9.46 
G01 X-25.27 Y9.50 
G01 X-25.23 Y9.56 
G01 X-25.18 Y9.59 
G01 X-25.16 Y9.61 
G01 X-25.11 Y9.63 
G01 X-25.09 Y9.64 
G01 X-25.03 Y9.65 
G01 X-25.01 Y9.65 
G01 X-24.93 Y9.64 
G01 X-24.92 Y9.63 
G01 X-25.00 Y9.68 
G01 X-26.17 Y10.85 
G01 X-27.58 Y10.85 
G01 X-28.43 Y10.00 
G01 X-28.50 Y9.93 
G01 X-28.57 Y9.89 
G01 X-28.57 Y9.58 
G01 X-28.58 Y9.54 
G01 X-28.61 Y9.51 
G01 X-28.65 Y9.50 
G01 X-31.19 Y9.50 
G01 X-31.23 Y9.51 
G01 X-31.26 Y9.54 
G01 X-31.27 Y9.58 
G01 X-31.27 Y10.82 
G01 X-31.26 Y10.86 
G01 X-31.23 Y10.89 
G01 X-31.19 Y10.90 
G00 Z1.00 
G00 X-22.02 Y14.52 
G01 Z-0.20 F60.00 
G01 X-21.95 Y14.35 F80.00 
G01 X-21.99 Y14.48 
G01 X-22.02 Y14.65 
G01 X-22.02 Y14.82 
G01 X-21.99 Y14.98 
G01 X-21.95 Y15.12 
G01 X-22.02 Y14.94 
G01 X-22.02 Y14.52 
G00 Z1.00 
G00 X-21.86 Y15.34 
G01 Z-0.20 F60.00 
G01 X-21.93 Y15.17 F80.00 
G01 X-21.87 Y15.29 
G01 X-21.77 Y15.43 
G01 X-21.65 Y15.55 
G01 X-21.51 Y15.64 
G01 X-21.39 Y15.71 
G01 X-21.56 Y15.64 
G01 X-21.86 Y15.34 
G00 Z1.00 
G00 X-21.17 Y15.80 
G01 Z-0.20 F60.00 
G01 X-21.34 Y15.73 F80.00 
G01 X-21.20 Y15.77 
G01 X-21.04 Y15.80 
G01 X-20.87 Y15.80 
G01 X-20.71 Y15.77 
G01 X-20.57 Y15.73 
G01 X-20.74 Y15.80 
G01 X-21.17 Y15.80 
G00 Z1.00 
G00 X-20.35 Y15.64 
G01 Z-0.20 F60.00 
G01 X-20.52 Y15.71 F80.00 
G01 X-20.40 Y15.64 
G01 X-20.26 Y15.55 
G01 X-20.14 Y15.43 
G01 X-20.04 Y15.29 
G01 X-19.98 Y15.17 
G01 X-20.05 Y15.34 
G01 X-20.35 Y15.64 
G00 Z1.00 
G00 X-17.79 Y7.74 
G01 Z-0.20 F60.00 
G01 X-17.37 Y7.32 F80.00 
G01 X-16.81 Y7.08 
G01 X-16.21 Y7.08 
G01 X-15.65 Y7.32 
G01 X-15.23 Y7.74 
G01 X-14.99 Y8.30 
G01 X-14.99 Y8.90 
G01 X-15.23 Y9.46 
G01 X-15.65 Y9.88 
G01 X-16.21 Y10.11 
G01 X-16.81 Y10.11 
G01 X-17.37 Y9.88 
G01 X-17.79 Y9.46 
G01 X-17.81 Y9.41 
G01 X-17.82 Y9.39 
G01 X-17.83 Y9.37 
G01 X-17.84 Y9.35 
G01 X-17.85 Y9.34 
G01 X-17.86 Y9.33 
G01 X-17.86 Y9.32 
G01 X-17.86 Y9.30 
G01 X-17.87 Y9.28 
G01 X-17.87 Y9.26 
G01 X-17.88 Y9.24 
G01 X-18.02 Y8.90 
G01 X-18.02 Y8.30 
G01 X-17.79 Y7.74 
G00 Z1.00 
G00 X-64.35 Y37.65 
G01 Z-0.20 F60.00 
G01 X-64.37 Y37.65 F80.00 
G01 X-64.39 Y37.66 
G01 X-64.41 Y37.66 
G01 X-64.43 Y37.67 
G01 X-64.45 Y37.67 
G01 X-64.46 Y37.68 
G01 X-64.48 Y37.69 
G01 X-64.50 Y37.70 
G01 X-64.52 Y37.71 
G01 X-64.53 Y37.73 
G01 X-64.55 Y37.74 
G01 X-64.56 Y37.76 
G01 X-64.57 Y37.77 
G01 X-64.58 Y37.79 
G01 X-64.60 Y37.80 
G01 X-64.60 Y37.82 
G01 X-64.61 Y37.84 
G01 X-64.62 Y37.86 
G01 X-64.68 Y38.01 
G01 X-64.69 Y38.02 
G01 X-64.69 Y38.04 
G01 X-64.70 Y38.06 
G01 X-64.71 Y38.08 
G01 X-64.71 Y38.10 
G01 X-64.71 Y38.12 
G01 X-64.71 Y38.14 
G01 X-64.71 Y38.16 
G01 X-64.71 Y38.18 
G01 X-64.71 Y38.20 
G01 X-64.70 Y38.22 
G01 X-64.69 Y38.24 
G01 X-64.69 Y38.26 
G01 X-64.68 Y38.28 
G01 X-64.67 Y38.29 
G01 X-64.66 Y38.31 
G01 X-64.65 Y38.33 
G01 X-64.64 Y38.34 
G01 X-64.62 Y38.36 
G01 X-64.61 Y38.37 
G01 X-64.59 Y38.38 
G01 X-64.58 Y38.39 
G01 X-64.56 Y38.41 
G01 X-64.54 Y38.41 
G01 X-64.52 Y38.42 
G01 X-64.50 Y38.43 
G01 X-64.49 Y38.44 
G01 X-64.47 Y38.44 
G01 X-64.45 Y38.44 
G01 X-64.43 Y38.44 
G01 X-64.41 Y38.45 
G01 X-64.39 Y38.44 
G01 X-1.18 Y38.44 
G01 X-1.10 Y38.42 
G01 X-1.03 Y38.38 
G01 X-0.98 Y38.33 
G01 X-0.94 Y38.26 
G01 X-0.91 Y38.18 
G01 X-0.91 Y1.18 
G01 X-0.94 Y1.10 
G01 X-0.98 Y1.03 
G01 X-1.03 Y0.98 
G01 X-1.10 Y0.94 
G01 X-1.18 Y0.91 
G01 X-14.68 Y0.91 
G01 X-14.70 Y0.91 
G01 X-14.72 Y0.91 
G01 X-14.74 Y0.91 
G01 X-14.76 Y0.92 
G01 X-14.78 Y0.92 
G01 X-14.80 Y0.93 
G01 X-14.82 Y0.94 
G01 X-14.83 Y0.95 
G01 X-14.85 Y0.95 
G01 X-14.87 Y0.97 
G01 X-14.89 Y0.98 
G01 X-14.90 Y0.99 
G01 X-14.92 Y1.00 
G01 X-14.93 Y1.02 
G01 X-14.94 Y1.03 
G01 X-14.95 Y1.05 
G01 X-14.96 Y1.07 
G01 X-14.97 Y1.08 
G01 X-14.98 Y1.10 
G01 X-14.99 Y1.12 
G01 X-15.00 Y1.14 
G01 X-15.00 Y1.16 
G01 X-15.00 Y1.18 
G01 X-15.00 Y1.20 
G01 X-15.01 Y1.22 
G01 X-15.00 Y1.24 
G01 X-15.00 Y1.26 
G01 X-15.00 Y1.28 
G01 X-15.00 Y1.30 
G01 X-14.99 Y1.90 
G01 X-15.23 Y2.46 
G01 X-15.65 Y2.88 
G01 X-16.21 Y3.11 
G01 X-16.81 Y3.11 
G01 X-17.37 Y2.88 
G01 X-17.81 Y2.44 
G01 X-17.82 Y2.43 
G01 X-17.84 Y2.41 
G01 X-17.85 Y2.40 
G01 X-17.87 Y2.39 
G01 X-17.88 Y2.38 
G01 X-17.90 Y2.36 
G01 X-17.92 Y2.36 
G01 X-17.91 Y2.34 
G01 X-17.91 Y2.32 
G01 X-17.90 Y2.30 
G01 X-17.90 Y2.28 
G01 X-17.90 Y2.26 
G01 X-17.90 Y2.24 
G01 X-17.90 Y2.22 
G01 X-17.91 Y2.20 
G01 X-17.91 Y2.18 
G01 X-17.92 Y2.16 
G01 X-17.92 Y2.14 
G01 X-17.93 Y2.12 
G01 X-18.02 Y1.90 
G01 X-18.02 Y1.30 
G01 X-18.02 Y1.28 
G01 X-18.02 Y1.26 
G01 X-18.02 Y1.24 
G01 X-18.01 Y1.22 
G01 X-18.02 Y1.20 
G01 X-18.02 Y1.18 
G01 X-18.02 Y1.16 
G01 X-18.02 Y1.14 
G01 X-18.03 Y1.12 
G01 X-18.04 Y1.10 
G01 X-18.05 Y1.08 
G01 X-18.06 Y1.07 
G01 X-18.07 Y1.05 
G01 X-18.08 Y1.03 
G01 X-18.09 Y1.02 
G01 X-18.10 Y1.00 
G01 X-18.12 Y0.99 
G01 X-18.13 Y0.98 
G01 X-18.15 Y0.97 
G01 X-18.17 Y0.95 
G01 X-18.19 Y0.95 
G01 X-18.20 Y0.94 
G01 X-18.22 Y0.93 
G01 X-18.24 Y0.92 
G01 X-18.26 Y0.92 
G01 X-18.28 Y0.91 
G01 X-18.30 Y0.91 
G01 X-18.32 Y0.91 
G01 X-18.34 Y0.91 
G01 X-24.84 Y0.91 
G01 X-24.86 Y0.91 
G01 X-24.88 Y0.91 
G01 X-24.90 Y0.91 
G01 X-24.92 Y0.92 
G01 X-24.94 Y0.92 
G01 X-24.96 Y0.93 
G01 X-24.98 Y0.94 
G01 X-24.99 Y0.95 
G01 X-25.01 Y0.95 
G01 X-25.03 Y0.97 
G01 X-25.05 Y0.98 
G01 X-25.06 Y0.99 
G01 X-25.08 Y1.00 
G01 X-25.09 Y1.02 
G01 X-25.10 Y1.03 
G01 X-25.11 Y1.05 
G01 X-25.12 Y1.07 
G01 X-25.13 Y1.08 
G01 X-25.14 Y1.10 
G01 X-25.15 Y1.12 
G01 X-25.16 Y1.14 
G01 X-25.16 Y1.16 
G01 X-25.16 Y1.18 
G01 X-25.16 Y1.20 
G01 X-25.17 Y1.22 
G01 X-25.16 Y1.24 
G01 X-25.16 Y1.26 
G01 X-25.16 Y1.28 
G01 X-25.16 Y1.30 
G01 X-25.15 Y1.90 
G01 X-25.39 Y2.46 
G01 X-25.81 Y2.88 
G01 X-26.37 Y3.11 
G01 X-26.97 Y3.11 
G01 X-27.53 Y2.88 
G01 X-27.97 Y2.44 
G01 X-27.98 Y2.43 
G01 X-28.00 Y2.41 
G01 X-28.01 Y2.40 
G01 X-28.03 Y2.39 
G01 X-28.04 Y2.38 
G01 X-28.06 Y2.36 
G01 X-28.08 Y2.36 
G01 X-28.07 Y2.34 
G01 X-28.07 Y2.32 
G01 X-28.06 Y2.30 
G01 X-28.06 Y2.28 
G01 X-28.06 Y2.26 
G01 X-28.06 Y2.24 
G01 X-28.06 Y2.22 
G01 X-28.07 Y2.20 
G01 X-28.07 Y2.18 
G01 X-28.08 Y2.16 
G01 X-28.08 Y2.14 
G01 X-28.09 Y2.12 
G01 X-28.18 Y1.90 
G01 X-28.18 Y1.30 
G01 X-28.18 Y1.28 
G01 X-28.18 Y1.26 
G01 X-28.18 Y1.24 
G01 X-28.17 Y1.22 
G01 X-28.18 Y1.20 
G01 X-28.18 Y1.18 
G01 X-28.18 Y1.16 
G01 X-28.18 Y1.14 
G01 X-28.19 Y1.12 
G01 X-28.20 Y1.10 
G01 X-28.21 Y1.08 
G01 X-28.22 Y1.07 
G01 X-28.23 Y1.05 
G01 X-28.24 Y1.03 
G01 X-28.25 Y1.02 
G01 X-28.26 Y1.00 
G01 X-28.28 Y0.99 
G01 X-28.29 Y0.98 
G01 X-28.31 Y0.97 
G01 X-28.33 Y0.95 
G01 X-28.35 Y0.95 
G01 X-28.36 Y0.94 
G01 X-28.38 Y0.93 
G01 X-28.40 Y0.92 
G01 X-28.42 Y0.92 
G01 X-28.44 Y0.91 
G01 X-28.46 Y0.91 
G01 X-28.48 Y0.91 
G01 X-28.50 Y0.91 
G01 X-64.50 Y0.91 
G01 X-64.58 Y0.94 
G01 X-64.65 Y0.98 
G01 X-64.70 Y1.03 
G01 X-64.74 Y1.10 
G01 X-64.74 Y1.11 
G01 X-64.76 Y1.18 
G01 X-64.76 Y1.26 
G01 X-64.82 Y1.26 
G01 X-64.83 Y1.22 
G01 X-64.93 Y1.03 
G01 X-65.07 Y0.85 
G01 X-65.22 Y0.69 
G01 X-65.40 Y0.56 
G01 X-65.60 Y0.46 
G01 X-65.81 Y0.39 
G01 X-66.03 Y0.36 
G01 X-66.25 Y0.36 
G01 X-66.47 Y0.39 
G01 X-66.68 Y0.46 
G01 X-66.88 Y0.56 
G01 X-67.06 Y0.69 
G01 X-67.21 Y0.85 
G01 X-67.35 Y1.03 
G01 X-67.45 Y1.22 
G01 X-67.46 Y1.26 
G01 X-67.52 Y1.26 
G01 X-67.52 Y1.18 
G01 X-67.54 Y1.10 
G01 X-67.58 Y1.03 
G01 X-67.63 Y0.98 
G01 X-67.70 Y0.94 
G01 X-67.78 Y0.91 
G01 X-72.15 Y0.91 
G01 X-72.23 Y0.94 
G01 X-72.30 Y0.98 
G01 X-72.35 Y1.03 
G01 X-72.39 Y1.10 
G01 X-72.41 Y1.18 
G01 X-72.41 Y38.18 
G01 X-72.39 Y38.26 
G01 X-72.35 Y38.33 
G01 X-72.30 Y38.38 
G01 X-72.23 Y38.42 
G01 X-72.15 Y38.44 
G01 X-67.69 Y38.44 
G01 X-67.67 Y38.45 
G01 X-67.65 Y38.44 
G01 X-67.63 Y38.44 
G01 X-67.61 Y38.44 
G01 X-67.59 Y38.44 
G01 X-67.58 Y38.43 
G01 X-67.56 Y38.42 
G01 X-67.54 Y38.41 
G01 X-67.52 Y38.41 
G01 X-67.50 Y38.39 
G01 X-67.49 Y38.38 
G01 X-67.47 Y38.37 
G01 X-67.46 Y38.36 
G01 X-67.44 Y38.34 
G01 X-67.43 Y38.33 
G01 X-67.42 Y38.31 
G01 X-67.41 Y38.29 
G01 X-67.40 Y38.28 
G01 X-67.39 Y38.26 
G01 X-67.39 Y38.24 
G01 X-67.38 Y38.22 
G01 X-67.37 Y38.20 
G01 X-67.37 Y38.18 
G01 X-67.37 Y38.16 
G01 X-67.37 Y38.14 
G01 X-67.37 Y38.12 
G01 X-67.37 Y38.10 
G01 X-67.37 Y38.08 
G01 X-67.38 Y38.06 
G01 X-67.39 Y38.04 
G01 X-67.39 Y38.02 
G01 X-67.40 Y38.01 
G01 X-67.45 Y37.89 
G01 X-67.45 Y37.32 
G01 X-67.36 Y37.10 
G01 X-67.41 Y37.28 
G01 X-67.45 Y37.49 
G01 X-67.45 Y37.72 
G01 X-67.41 Y37.93 
G01 X-67.35 Y38.15 
G01 X-67.25 Y38.34 
G01 X-67.11 Y38.52 
G01 X-66.96 Y38.68 
G01 X-66.78 Y38.81 
G01 X-66.58 Y38.91 
G01 X-66.37 Y38.98 
G01 X-66.15 Y39.01 
G01 X-65.93 Y39.01 
G01 X-65.71 Y38.98 
G01 X-65.50 Y38.91 
G01 X-65.30 Y38.81 
G01 X-65.12 Y38.68 
G01 X-64.97 Y38.52 
G01 X-64.83 Y38.34 
G01 X-64.73 Y38.15 
G01 X-64.67 Y37.93 
G01 X-64.63 Y37.72 
G01 X-64.63 Y37.65 
G01 X-64.34 Y37.65 
G01 X-64.35 Y37.65 
G00 Z1.00 
G00 Z2.00 
M05
M02
