(.../pcb-gcode-3.6.0.4/pcb-gcode.ulp)
(Copyright 2005 - 2012 by John Johnson)
(See readme.txt for licensing terms.)
(This file generated from the board:)
(.../eagle/CooperBuffer/CooperBuffer.brd)
(Current profile is .../pcb-gcode-3.6.0.4/profiles/iModela.pp  )
(This file generated 2016-08-01 3:48 PM)
(Settings from pcb-machine.h)
(  Tool Size)
(0.20 )
(Z Axis Settings)
(  High     Up        Down     Drill)
(2.00 	1.00 	-0.20 	-1.70 )
(spindle on time = 2.0000)
(milling depth = -0.2540)
(text depth = -0.1270)
(tool change at 0.00 0.00 10.00 )
(feed rate xy = F140.00 )
(feed rate z  = F60.00 )
(Settings from pcb-defaults.h)
(isolate min = 0.0010)
(isolate max = 0.2000)
(isolate step = 0.2000)
(Generated bottom outlines, bottom drill, )
(Unit of measure: mm)
(Metric Mode)
G21
(Absolute Coordinates)
G90
G00 X0.00 Y0.00 
M03
G04 P 2
G00 Z1.00 
G00 X-17.06 Y1.73 
G01 Z-0.20 F60.00 
G01 X-16.93 Y1.75 F140.00 
G01 X-16.81 Y1.79 
G01 X-16.69 Y1.84 
G01 X-16.59 Y1.92 
G01 X-16.50 Y2.01 
G01 X-16.42 Y2.11 
G01 X-16.41 Y2.14 
G01 X-16.47 Y2.14 
G01 X-16.53 Y2.05 
G01 X-16.63 Y1.95 
G01 X-16.76 Y1.87 
G01 X-16.90 Y1.81 
G01 X-17.04 Y1.78 
G01 X-17.48 Y1.78 
G01 X-17.48 Y1.73 
G01 X-17.06 Y1.73 
G00 Z1.00 
G00 X-18.97 Y1.92 
G01 Z-0.20 F60.00 
G01 X-18.87 Y1.84 F140.00 
G01 X-18.75 Y1.79 
G01 X-18.63 Y1.75 
G01 X-18.50 Y1.73 
G01 X-18.08 Y1.73 
G01 X-18.08 Y1.78 
G01 X-18.52 Y1.78 
G01 X-18.66 Y1.81 
G01 X-18.80 Y1.87 
G01 X-18.93 Y1.95 
G01 X-19.03 Y2.05 
G01 X-19.12 Y2.18 
G01 X-19.14 Y2.24 
G01 X-19.20 Y2.24 
G01 X-19.19 Y2.23 
G01 X-19.14 Y2.11 
G01 X-19.06 Y2.01 
G01 X-18.97 Y1.92 
G00 Z1.00 
G00 X-19.19 Y2.85 
G01 Z-0.20 F60.00 
G01 X-19.20 Y2.84 F140.00 
G01 X-19.14 Y2.84 
G01 X-19.12 Y2.90 
G01 X-19.03 Y3.03 
G01 X-18.93 Y3.13 
G01 X-18.97 Y3.16 
G01 X-19.06 Y3.07 
G01 X-19.14 Y2.97 
G01 X-19.19 Y2.85 
G00 Z1.00 
G00 X-4.03 Y3.50 
G01 Z-0.20 F60.00 
G01 X-3.88 Y3.56 F140.00 
G01 X-3.71 Y3.58 
G01 X-3.55 Y3.58 
G01 X-3.39 Y3.56 
G01 X-3.26 Y3.51 
G01 X-3.42 Y3.58 
G01 X-3.84 Y3.58 
G01 X-3.95 Y3.54 
G01 X-3.96 Y3.53 
G01 X-3.98 Y3.52 
G01 X-4.00 Y3.51 
G01 X-4.02 Y3.51 
G01 X-4.04 Y3.51 
G01 X-4.06 Y3.51 
G01 X-4.08 Y3.50 
G01 X-4.10 Y3.51 
G01 X-4.12 Y3.51 
G01 X-4.14 Y3.51 
G01 X-4.16 Y3.51 
G01 X-4.18 Y3.52 
G01 X-4.20 Y3.53 
G01 X-4.22 Y3.54 
G01 X-4.24 Y3.55 
G01 X-4.25 Y3.56 
G01 X-4.27 Y3.57 
G01 X-4.28 Y3.58 
G01 X-4.29 Y3.59 
G01 X-4.15 Y3.45 
G01 X-4.03 Y3.50 
G00 Z1.00 
G00 X-4.94 Y3.10 
G01 Z-0.20 F60.00 
G01 X-4.73 Y2.90 F140.00 
G01 X-4.69 Y2.83 
G01 X-4.67 Y2.75 
G01 X-4.67 Y2.33 
G01 X-4.60 Y2.16 
G01 X-4.65 Y2.30 
G01 X-4.67 Y2.46 
G01 X-4.67 Y2.62 
G01 X-4.65 Y2.78 
G01 X-4.64 Y2.80 
G01 X-4.94 Y3.11 
G01 X-4.94 Y3.10 
G00 Z1.00 
G00 X-18.52 Y8.38 
G01 Z-0.20 F60.00 
G01 X-17.04 Y8.38 F140.00 
G01 X-16.90 Y8.35 
G01 X-16.76 Y8.29 
G01 X-16.63 Y8.21 
G01 X-16.53 Y8.11 
G01 X-16.47 Y8.02 
G01 X-5.48 Y8.02 
G01 X-5.48 Y10.12 
G01 X-5.57 Y10.18 
G01 X-5.67 Y10.28 
G01 X-5.75 Y10.41 
G01 X-5.81 Y10.55 
G01 X-5.84 Y10.69 
G01 X-5.84 Y12.17 
G01 X-5.81 Y12.31 
G01 X-5.75 Y12.45 
G01 X-5.67 Y12.58 
G01 X-5.57 Y12.68 
G01 X-5.44 Y12.77 
G01 X-5.30 Y12.82 
G01 X-5.15 Y12.85 
G01 X-5.01 Y12.85 
G01 X-4.86 Y12.82 
G01 X-4.72 Y12.77 
G01 X-4.59 Y12.68 
G01 X-4.49 Y12.58 
G01 X-4.29 Y12.78 
G01 X-4.30 Y12.78 
G01 X-4.32 Y12.76 
G01 X-4.33 Y12.75 
G01 X-4.35 Y12.74 
G01 X-4.37 Y12.73 
G01 X-4.39 Y12.72 
G01 X-4.40 Y12.72 
G01 X-4.42 Y12.71 
G01 X-4.44 Y12.71 
G01 X-4.46 Y12.70 
G01 X-4.48 Y12.70 
G01 X-4.50 Y12.70 
G01 X-4.52 Y12.70 
G01 X-4.54 Y12.70 
G01 X-4.56 Y12.71 
G01 X-4.58 Y12.71 
G01 X-4.60 Y12.72 
G01 X-4.62 Y12.72 
G01 X-4.64 Y12.73 
G01 X-4.93 Y12.85 
G01 X-5.23 Y12.85 
G01 X-5.51 Y12.74 
G01 X-5.73 Y12.52 
G01 X-5.84 Y12.24 
G01 X-5.84 Y10.62 
G01 X-5.73 Y10.34 
G01 X-5.54 Y10.15 
G01 X-5.50 Y10.08 
G01 X-5.48 Y10.01 
G01 X-5.48 Y8.29 
G01 X-5.50 Y8.21 
G01 X-5.54 Y8.14 
G01 X-5.60 Y8.08 
G01 X-5.67 Y8.04 
G01 X-5.75 Y8.02 
G01 X-16.36 Y8.02 
G01 X-16.43 Y8.04 
G01 X-16.50 Y8.08 
G01 X-16.56 Y8.14 
G01 X-16.69 Y8.27 
G01 X-16.97 Y8.38 
G01 X-18.59 Y8.38 
G01 X-18.87 Y8.27 
G01 X-19.09 Y8.05 
G01 X-19.20 Y7.77 
G01 X-19.20 Y7.47 
G01 X-19.09 Y7.19 
G01 X-18.87 Y6.97 
G01 X-18.59 Y6.86 
G01 X-16.97 Y6.86 
G01 X-16.69 Y6.97 
G01 X-16.50 Y7.16 
G01 X-16.43 Y7.20 
G01 X-16.36 Y7.22 
G01 X-5.75 Y7.22 
G01 X-5.67 Y7.20 
G01 X-5.60 Y7.16 
G01 X-5.54 Y7.10 
G01 X-5.50 Y7.03 
G01 X-5.48 Y6.95 
G01 X-5.48 Y3.75 
G01 X-5.48 Y3.74 
G01 X-5.48 Y3.71 
G01 X-5.48 Y3.69 
G01 X-5.49 Y3.67 
G01 X-5.49 Y3.66 
G01 X-5.50 Y3.63 
G01 X-5.50 Y3.61 
G01 X-5.51 Y3.60 
G01 X-5.52 Y3.58 
G01 X-5.53 Y3.56 
G01 X-5.54 Y3.54 
G01 X-5.55 Y3.53 
G01 X-5.56 Y3.52 
G01 X-5.58 Y3.50 
G01 X-5.60 Y3.48 
G01 X-5.61 Y3.48 
G01 X-5.63 Y3.47 
G01 X-5.65 Y3.46 
G01 X-5.67 Y3.44 
G01 X-5.68 Y3.44 
G01 X-5.70 Y3.43 
G01 X-5.72 Y3.43 
G01 X-5.75 Y3.42 
G01 X-5.76 Y3.42 
G01 X-5.78 Y3.42 
G01 X-5.80 Y3.42 
G01 X-5.83 Y3.42 
G01 X-5.84 Y3.43 
G01 X-5.86 Y3.43 
G01 X-5.88 Y3.44 
G01 X-5.90 Y3.44 
G01 X-5.92 Y3.45 
G01 X-5.93 Y3.46 
G01 X-5.95 Y3.47 
G01 X-5.96 Y3.48 
G01 X-6.11 Y3.55 
G01 X-6.17 Y3.57 
G01 X-6.17 Y3.52 
G01 X-6.13 Y3.50 
G01 X-5.98 Y3.43 
G01 X-5.85 Y3.33 
G01 X-5.73 Y3.22 
G01 X-5.64 Y3.09 
G01 X-5.56 Y2.94 
G01 X-5.55 Y2.89 
G01 X-5.48 Y2.89 
G01 X-5.48 Y2.90 
G01 X-5.49 Y2.93 
G01 X-5.48 Y2.94 
G01 X-5.48 Y2.95 
G01 X-5.48 Y2.98 
G01 X-5.47 Y3.01 
G01 X-5.46 Y3.02 
G01 X-5.46 Y3.03 
G01 X-5.45 Y3.06 
G01 X-5.43 Y3.08 
G01 X-5.43 Y3.09 
G01 X-5.42 Y3.10 
G01 X-5.40 Y3.12 
G01 X-5.38 Y3.14 
G01 X-5.37 Y3.15 
G01 X-5.37 Y3.15 
G01 X-5.34 Y3.17 
G01 X-5.31 Y3.19 
G01 X-5.30 Y3.19 
G01 X-5.30 Y3.19 
G01 X-5.27 Y3.20 
G01 X-5.24 Y3.21 
G01 X-5.23 Y3.21 
G01 X-5.22 Y3.21 
G01 X-5.19 Y3.21 
G01 X-5.16 Y3.22 
G01 X-5.15 Y3.21 
G01 X-5.14 Y3.21 
G01 X-5.11 Y3.21 
G01 X-5.08 Y3.20 
G01 X-5.07 Y3.20 
G01 X-5.06 Y3.19 
G01 X-5.03 Y3.18 
G01 X-5.01 Y3.16 
G01 X-5.00 Y3.16 
G01 X-4.99 Y3.15 
G01 X-4.97 Y3.13 
G01 X-4.95 Y3.12 
G01 X-5.33 Y3.49 
G01 X-5.40 Y3.56 
G01 X-5.45 Y3.66 
G01 X-5.48 Y3.76 
G01 X-5.48 Y7.22 
G01 X-16.47 Y7.22 
G01 X-16.53 Y7.13 
G01 X-16.63 Y7.03 
G01 X-16.76 Y6.95 
G01 X-16.90 Y6.89 
G01 X-17.04 Y6.86 
G01 X-18.52 Y6.86 
G01 X-18.66 Y6.89 
G01 X-18.80 Y6.95 
G01 X-18.93 Y7.03 
G01 X-19.03 Y7.13 
G01 X-19.12 Y7.26 
G01 X-19.17 Y7.40 
G01 X-19.20 Y7.55 
G01 X-19.20 Y7.69 
G01 X-19.17 Y7.84 
G01 X-19.12 Y7.98 
G01 X-19.03 Y8.11 
G01 X-18.93 Y8.21 
G01 X-18.80 Y8.29 
G01 X-18.66 Y8.35 
G01 X-18.52 Y8.38 
G00 Z1.00 
G00 X-4.31 Y3.60 
G01 Z-0.20 F60.00 
G01 X-4.31 Y3.61 F140.00 
G01 X-4.62 Y3.92 
G01 X-4.66 Y3.99 
G01 X-4.68 Y4.06 
G01 X-4.68 Y10.01 
G01 X-4.66 Y10.08 
G01 X-4.62 Y10.15 
G01 X-4.43 Y10.34 
G01 X-4.32 Y10.62 
G01 X-4.32 Y11.54 
G01 X-4.30 Y11.62 
G01 X-4.26 Y11.68 
G01 X-4.20 Y11.74 
G01 X-2.33 Y13.61 
G01 X-2.20 Y13.74 
G01 X-2.17 Y13.80 
G01 X-2.22 Y13.72 
G01 X-2.29 Y13.65 
G01 X-4.32 Y11.62 
G01 X-4.32 Y10.69 
G01 X-4.35 Y10.55 
G01 X-4.41 Y10.41 
G01 X-4.49 Y10.28 
G01 X-4.59 Y10.18 
G01 X-4.68 Y10.12 
G01 X-4.68 Y3.98 
G01 X-4.31 Y3.60 
G00 Z1.00 
G00 X-4.18 Y1.65 
G01 Z-0.20 F60.00 
G01 X-4.31 Y1.75 F140.00 
G01 X-4.43 Y1.86 
G01 X-4.52 Y1.99 
G01 X-4.59 Y2.12 
G01 X-4.52 Y1.95 
G01 X-4.22 Y1.66 
G01 X-4.05 Y1.59 
G01 X-4.18 Y1.65 
G00 Z1.00 
G00 X-28.68 Y8.38 
G01 Z-0.20 F60.00 
G01 X-27.20 Y8.38 F140.00 
G01 X-27.06 Y8.35 
G01 X-26.92 Y8.29 
G01 X-26.79 Y8.21 
G01 X-26.69 Y8.11 
G01 X-26.60 Y7.98 
G01 X-26.55 Y7.84 
G01 X-26.52 Y7.69 
G01 X-26.52 Y7.55 
G01 X-26.55 Y7.40 
G01 X-26.60 Y7.26 
G01 X-26.69 Y7.13 
G01 X-26.79 Y7.03 
G01 X-26.92 Y6.95 
G01 X-27.06 Y6.89 
G01 X-27.20 Y6.86 
G01 X-27.54 Y6.86 
G01 X-27.54 Y3.30 
G01 X-27.20 Y3.30 
G01 X-27.06 Y3.27 
G01 X-26.92 Y3.21 
G01 X-26.79 Y3.13 
G01 X-26.69 Y3.03 
G01 X-26.60 Y2.90 
G01 X-26.55 Y2.76 
G01 X-26.52 Y2.61 
G01 X-26.52 Y2.47 
G01 X-26.55 Y2.32 
G01 X-26.60 Y2.18 
G01 X-26.69 Y2.05 
G01 X-26.79 Y1.95 
G01 X-26.92 Y1.87 
G01 X-27.06 Y1.81 
G01 X-27.20 Y1.78 
G01 X-28.68 Y1.78 
G01 X-28.82 Y1.81 
G01 X-28.81 Y1.81 
G01 X-28.80 Y1.80 
G01 X-28.75 Y1.78 
G01 X-27.13 Y1.78 
G01 X-26.85 Y1.89 
G01 X-26.63 Y2.11 
G01 X-26.52 Y2.39 
G01 X-26.52 Y2.69 
G01 X-26.63 Y2.97 
G01 X-26.85 Y3.19 
G01 X-27.13 Y3.30 
G01 X-27.27 Y3.30 
G01 X-27.35 Y3.32 
G01 X-27.42 Y3.36 
G01 X-27.48 Y3.42 
G01 X-27.52 Y3.49 
G01 X-27.54 Y3.57 
G01 X-27.54 Y6.59 
G01 X-27.52 Y6.67 
G01 X-27.48 Y6.74 
G01 X-27.42 Y6.80 
G01 X-27.35 Y6.84 
G01 X-27.27 Y6.86 
G01 X-27.13 Y6.86 
G01 X-26.85 Y6.97 
G01 X-26.63 Y7.19 
G01 X-26.52 Y7.47 
G01 X-26.52 Y7.77 
G01 X-26.63 Y8.05 
G01 X-26.85 Y8.27 
G01 X-27.13 Y8.38 
G01 X-28.75 Y8.38 
G01 X-28.80 Y8.36 
G01 X-28.81 Y8.35 
G01 X-28.82 Y8.35 
G01 X-28.68 Y8.38 
G00 Z1.00 
G00 X-18.18 Y21.88 
G01 Z-0.20 F60.00 
G01 X-18.18 Y21.95 F140.00 
G01 X-18.69 Y22.46 
G01 X-18.76 Y22.46 
G01 X-18.76 Y22.45 
G01 X-18.19 Y21.88 
G01 X-18.18 Y21.88 
G00 Z1.00 
G00 X-16.80 Y23.27 
G01 Z-0.20 F60.00 
G01 X-17.37 Y23.84 F140.00 
G01 X-17.40 Y23.84 
G01 X-17.40 Y23.79 
G01 X-17.40 Y23.79 
G01 X-16.85 Y23.24 
G01 X-16.85 Y23.24 
G01 X-16.80 Y23.24 
G01 X-16.80 Y23.27 
G00 Z1.00 
G00 X-16.80 Y22.48 
G01 Z-0.20 F60.00 
G01 X-16.85 Y22.48 F140.00 
G01 X-16.85 Y22.48 
G01 X-17.38 Y21.95 
G01 X-17.38 Y21.88 
G01 X-17.37 Y21.88 
G01 X-16.80 Y22.45 
G01 X-16.80 Y22.48 
G00 Z1.00 
G00 X-18.19 Y23.84 
G01 Z-0.20 F60.00 
G01 X-18.76 Y23.27 F140.00 
G01 X-18.76 Y23.26 
G01 X-18.69 Y23.26 
G01 X-18.16 Y23.79 
G01 X-18.16 Y23.79 
G01 X-18.16 Y23.84 
G01 X-18.19 Y23.84 
G00 Z1.00 
G00 X-26.29 Y23.79 
G01 Z-0.20 F60.00 
G01 X-25.76 Y23.26 F140.00 
G01 X-25.69 Y23.26 
G01 X-25.69 Y23.27 
G01 X-26.26 Y23.84 
G01 X-26.29 Y23.84 
G01 X-26.29 Y23.79 
G01 X-26.29 Y23.79 
G00 Z1.00 
G00 X-27.65 Y23.24 
G01 Z-0.20 F60.00 
G01 X-27.60 Y23.24 F140.00 
G01 X-27.60 Y23.24 
G01 X-27.05 Y23.79 
G01 X-27.05 Y23.79 
G01 X-27.05 Y23.84 
G01 X-27.08 Y23.84 
G01 X-27.65 Y23.27 
G01 X-27.65 Y23.24 
G00 Z1.00 
G00 X-27.65 Y22.45 
G01 Z-0.20 F60.00 
G01 X-27.65 Y22.45 F140.00 
G01 X-27.61 Y22.48 
G01 X-27.65 Y22.48 
G01 X-27.65 Y22.45 
G00 Z1.00 
G00 X-6.95 Y3.55 
G01 Z-0.20 F60.00 
G01 X-7.10 Y3.47 F140.00 
G01 X-7.24 Y3.37 
G01 X-7.36 Y3.25 
G01 X-7.46 Y3.11 
G01 X-7.54 Y2.96 
G01 X-7.55 Y2.94 
G01 X-7.49 Y2.94 
G01 X-7.42 Y3.09 
G01 X-7.32 Y3.22 
G01 X-7.21 Y3.33 
G01 X-7.07 Y3.43 
G01 X-6.93 Y3.50 
G01 X-6.88 Y3.52 
G01 X-6.88 Y3.57 
G01 X-6.95 Y3.55 
G00 Z1.00 
G00 X-2.75 Y1.95 
G01 Z-0.20 F60.00 
G01 X-2.68 Y2.12 F140.00 
G01 X-2.74 Y1.99 
G01 X-2.84 Y1.86 
G01 X-2.95 Y1.75 
G01 X-3.09 Y1.65 
G01 X-3.21 Y1.59 
G01 X-3.04 Y1.66 
G01 X-2.75 Y1.95 
G00 Z1.00 
G00 X-2.59 Y2.75 
G01 Z-0.20 F60.00 
G01 X-2.66 Y2.92 F140.00 
G01 X-2.62 Y2.78 
G01 X-2.59 Y2.62 
G01 X-2.59 Y2.46 
G01 X-2.62 Y2.30 
G01 X-2.66 Y2.16 
G01 X-2.59 Y2.33 
G01 X-2.59 Y2.75 
G00 Z1.00 
G00 X-3.04 Y3.42 
G01 Z-0.20 F60.00 
G01 X-3.21 Y3.49 F140.00 
G01 X-3.09 Y3.43 
G01 X-2.95 Y3.33 
G01 X-2.84 Y3.22 
G01 X-2.74 Y3.09 
G01 X-2.68 Y2.96 
G01 X-2.75 Y3.13 
G01 X-3.04 Y3.42 
G00 Z1.00 
G00 X-26.90 Y17.49 
G01 Z-0.20 F60.00 
G01 X-27.01 Y17.37 F140.00 
G01 X-27.04 Y17.31 
G01 X-26.99 Y17.39 
G01 X-26.92 Y17.47 
G01 X-26.84 Y17.51 
G01 X-26.90 Y17.49 
G00 Z1.00 
G00 X-15.79 Y17.55 
G01 Z-0.20 F60.00 
G01 X-26.75 Y17.55 F140.00 
G01 X-26.81 Y17.52 
G01 X-26.72 Y17.55 
G01 X-15.82 Y17.55 
G01 X-15.74 Y17.52 
G01 X-15.79 Y17.55 
G00 Z1.00 
G00 X-10.97 Y12.81 
G01 Z-0.20 F60.00 
G01 X-15.52 Y17.36 F140.00 
G01 X-15.52 Y17.36 
G01 X-15.65 Y17.49 
G01 X-15.71 Y17.51 
G01 X-15.63 Y17.47 
G01 X-15.55 Y17.39 
G01 X-10.96 Y12.80 
G01 X-10.97 Y12.81 
G00 Z1.00 
G00 X-2.14 Y13.89 
G01 Z-0.20 F60.00 
G01 X-2.14 Y18.05 F140.00 
G01 X-2.12 Y18.13 
G01 X-2.08 Y18.20 
G01 X-2.02 Y18.26 
G01 X-1.61 Y18.67 
G01 X-1.61 Y19.43 
G01 X-2.16 Y19.98 
G01 X-2.92 Y19.98 
G01 X-3.47 Y19.43 
G01 X-3.47 Y18.67 
G01 X-3.00 Y18.20 
G01 X-2.96 Y18.13 
G01 X-2.94 Y18.05 
G01 X-2.94 Y14.22 
G01 X-2.96 Y14.15 
G01 X-3.00 Y14.08 
G01 X-3.02 Y14.06 
G01 X-4.27 Y12.81 
G01 X-4.28 Y12.80 
G01 X-2.94 Y14.14 
G01 X-2.94 Y18.14 
G01 X-3.47 Y18.67 
G01 X-3.47 Y19.43 
G01 X-2.92 Y19.98 
G01 X-2.16 Y19.98 
G01 X-1.61 Y19.43 
G01 X-1.61 Y18.67 
G01 X-2.14 Y18.14 
G01 X-2.14 Y13.92 
G01 X-2.16 Y13.83 
G01 X-2.14 Y13.89 
G00 Z1.00 
G00 X-9.30 Y9.18 
G01 Z-0.20 F60.00 
G01 X-9.17 Y9.31 F140.00 
G01 X-9.17 Y9.31 
G01 X-8.43 Y10.05 
G01 X-8.42 Y10.06 
G01 X-9.20 Y9.28 
G01 X-9.28 Y9.20 
G01 X-9.36 Y9.16 
G01 X-9.30 Y9.18 
G00 Z1.00 
G00 X-8.38 Y12.17 
G01 Z-0.20 F60.00 
G01 X-8.35 Y12.31 F140.00 
G01 X-8.29 Y12.45 
G01 X-8.21 Y12.58 
G01 X-8.11 Y12.68 
G01 X-7.98 Y12.77 
G01 X-7.84 Y12.82 
G01 X-7.69 Y12.85 
G01 X-7.55 Y12.85 
G01 X-7.40 Y12.82 
G01 X-7.26 Y12.77 
G01 X-7.13 Y12.68 
G01 X-7.03 Y12.58 
G01 X-6.95 Y12.45 
G01 X-6.89 Y12.31 
G01 X-6.86 Y12.17 
G01 X-6.86 Y10.69 
G01 X-6.89 Y10.55 
G01 X-6.95 Y10.41 
G01 X-7.03 Y10.28 
G01 X-7.13 Y10.18 
G01 X-7.26 Y10.09 
G01 X-7.40 Y10.04 
G01 X-7.55 Y10.01 
G01 X-7.69 Y10.01 
G01 X-7.84 Y10.04 
G01 X-7.98 Y10.09 
G01 X-8.11 Y10.18 
G01 X-8.21 Y10.28 
G01 X-8.41 Y10.08 
G01 X-8.40 Y10.08 
G01 X-8.38 Y10.10 
G01 X-8.37 Y10.11 
G01 X-8.35 Y10.12 
G01 X-8.33 Y10.13 
G01 X-8.31 Y10.14 
G01 X-8.30 Y10.14 
G01 X-8.28 Y10.15 
G01 X-8.26 Y10.15 
G01 X-8.24 Y10.16 
G01 X-8.22 Y10.16 
G01 X-8.20 Y10.16 
G01 X-8.18 Y10.16 
G01 X-8.16 Y10.16 
G01 X-8.14 Y10.15 
G01 X-8.12 Y10.15 
G01 X-8.10 Y10.14 
G01 X-8.08 Y10.14 
G01 X-8.06 Y10.13 
G01 X-7.77 Y10.01 
G01 X-7.47 Y10.01 
G01 X-7.19 Y10.12 
G01 X-6.97 Y10.34 
G01 X-6.86 Y10.62 
G01 X-6.86 Y12.24 
G01 X-6.97 Y12.52 
G01 X-7.19 Y12.74 
G01 X-7.47 Y12.85 
G01 X-7.77 Y12.85 
G01 X-8.05 Y12.74 
G01 X-8.27 Y12.52 
G01 X-8.38 Y12.24 
G01 X-8.38 Y11.32 
G01 X-8.40 Y11.24 
G01 X-8.44 Y11.18 
G01 X-8.50 Y11.12 
G01 X-8.91 Y10.71 
G01 X-8.98 Y10.67 
G01 X-9.05 Y10.65 
G01 X-9.13 Y10.65 
G01 X-9.21 Y10.67 
G01 X-9.28 Y10.71 
G01 X-9.34 Y10.77 
G01 X-9.38 Y10.84 
G01 X-9.40 Y10.92 
G01 X-9.40 Y12.24 
G01 X-9.51 Y12.52 
G01 X-9.73 Y12.74 
G01 X-10.01 Y12.85 
G01 X-10.31 Y12.85 
G01 X-10.60 Y12.73 
G01 X-10.62 Y12.72 
G01 X-10.64 Y12.72 
G01 X-10.66 Y12.71 
G01 X-10.68 Y12.71 
G01 X-10.70 Y12.70 
G01 X-10.72 Y12.70 
G01 X-10.74 Y12.70 
G01 X-10.76 Y12.70 
G01 X-10.78 Y12.70 
G01 X-10.80 Y12.71 
G01 X-10.82 Y12.71 
G01 X-10.84 Y12.72 
G01 X-10.85 Y12.72 
G01 X-10.87 Y12.73 
G01 X-10.89 Y12.74 
G01 X-10.91 Y12.75 
G01 X-10.92 Y12.76 
G01 X-10.94 Y12.78 
G01 X-10.95 Y12.78 
G01 X-10.75 Y12.58 
G01 X-10.65 Y12.68 
G01 X-10.52 Y12.77 
G01 X-10.38 Y12.82 
G01 X-10.23 Y12.85 
G01 X-10.09 Y12.85 
G01 X-9.94 Y12.82 
G01 X-9.80 Y12.77 
G01 X-9.67 Y12.68 
G01 X-9.57 Y12.58 
G01 X-9.49 Y12.45 
G01 X-9.43 Y12.31 
G01 X-9.40 Y12.17 
G01 X-9.40 Y10.69 
G01 X-9.43 Y10.55 
G01 X-9.49 Y10.41 
G01 X-9.57 Y10.28 
G01 X-9.67 Y10.18 
G01 X-9.80 Y10.09 
G01 X-9.94 Y10.04 
G01 X-10.09 Y10.01 
G01 X-10.23 Y10.01 
G01 X-10.38 Y10.04 
G01 X-10.52 Y10.09 
G01 X-10.65 Y10.18 
G01 X-10.75 Y10.28 
G01 X-10.83 Y10.41 
G01 X-10.89 Y10.55 
G01 X-10.92 Y10.69 
G01 X-10.92 Y11.62 
G01 X-16.04 Y16.74 
G01 X-26.27 Y16.74 
G01 X-26.27 Y13.61 
G01 X-25.74 Y13.08 
G01 X-25.74 Y12.32 
G01 X-26.29 Y11.77 
G01 X-27.05 Y11.77 
G01 X-27.60 Y12.32 
G01 X-27.60 Y13.08 
G01 X-27.07 Y13.61 
G01 X-27.07 Y17.20 
G01 X-27.05 Y17.28 
G01 X-27.07 Y17.23 
G01 X-27.07 Y13.70 
G01 X-27.09 Y13.62 
G01 X-27.13 Y13.55 
G01 X-27.19 Y13.49 
G01 X-27.60 Y13.08 
G01 X-27.60 Y12.32 
G01 X-27.05 Y11.77 
G01 X-26.29 Y11.77 
G01 X-25.74 Y12.32 
G01 X-25.74 Y13.08 
G01 X-26.21 Y13.55 
G01 X-26.25 Y13.62 
G01 X-26.27 Y13.70 
G01 X-26.27 Y16.48 
G01 X-26.25 Y16.56 
G01 X-26.21 Y16.63 
G01 X-26.15 Y16.68 
G01 X-26.08 Y16.72 
G01 X-26.00 Y16.74 
G01 X-16.13 Y16.74 
G01 X-16.05 Y16.72 
G01 X-15.98 Y16.68 
G01 X-15.92 Y16.63 
G01 X-10.98 Y11.68 
G01 X-10.94 Y11.62 
G01 X-10.92 Y11.54 
G01 X-10.92 Y10.62 
G01 X-10.82 Y10.37 
G01 X-10.81 Y10.35 
G01 X-10.80 Y10.33 
G01 X-10.80 Y10.31 
G01 X-10.79 Y10.29 
G01 X-10.79 Y10.27 
G01 X-10.79 Y10.25 
G01 X-10.78 Y10.23 
G01 X-10.79 Y10.21 
G01 X-10.79 Y10.19 
G01 X-10.79 Y10.17 
G01 X-10.80 Y10.15 
G01 X-10.80 Y10.13 
G01 X-10.81 Y10.11 
G01 X-10.82 Y10.10 
G01 X-10.83 Y10.08 
G01 X-10.84 Y10.06 
G01 X-10.85 Y10.04 
G01 X-10.86 Y10.03 
G01 X-10.87 Y10.01 
G01 X-10.89 Y10.00 
G01 X-10.90 Y9.99 
G01 X-10.92 Y9.98 
G01 X-10.94 Y9.97 
G01 X-10.96 Y9.96 
G01 X-10.97 Y9.95 
G01 X-10.99 Y9.94 
G01 X-11.01 Y9.94 
G01 X-11.03 Y9.93 
G01 X-11.05 Y9.93 
G01 X-11.07 Y9.93 
G01 X-11.08 Y9.93 
G01 X-9.69 Y9.93 
G01 X-8.38 Y11.24 
G01 X-8.38 Y12.17 
G00 Z1.00 
G00 X-18.12 Y9.30 
G01 Z-0.20 F60.00 
G01 X-18.01 Y9.18 F140.00 
G01 X-17.95 Y9.16 
G01 X-18.03 Y9.20 
G01 X-18.10 Y9.28 
G01 X-18.15 Y9.36 
G01 X-18.12 Y9.30 
G00 Z1.00 
G00 X-17.86 Y9.12 
G01 Z-0.20 F60.00 
G01 X-9.44 Y9.12 F140.00 
G01 X-9.39 Y9.15 
G01 X-9.47 Y9.12 
G01 X-17.83 Y9.12 
G01 X-17.92 Y9.15 
G01 X-17.86 Y9.12 
G00 Z1.00 
G00 X-18.71 Y12.32 
G01 Z-0.20 F60.00 
G01 X-18.71 Y13.08 F140.00 
G01 X-18.16 Y13.63 
G01 X-17.40 Y13.63 
G01 X-16.85 Y13.08 
G01 X-16.85 Y12.32 
G01 X-17.38 Y11.79 
G01 X-17.38 Y9.93 
G01 X-11.10 Y9.93 
G01 X-11.11 Y9.93 
G01 X-17.11 Y9.93 
G01 X-17.19 Y9.95 
G01 X-17.26 Y9.99 
G01 X-17.32 Y10.04 
G01 X-17.36 Y10.11 
G01 X-17.38 Y10.19 
G01 X-17.38 Y11.70 
G01 X-17.36 Y11.78 
G01 X-17.32 Y11.85 
G01 X-17.26 Y11.91 
G01 X-16.85 Y12.32 
G01 X-16.85 Y13.08 
G01 X-17.40 Y13.63 
G01 X-18.16 Y13.63 
G01 X-18.71 Y13.08 
G01 X-18.71 Y12.32 
G01 X-18.24 Y11.85 
G01 X-18.20 Y11.78 
G01 X-18.18 Y11.70 
G01 X-18.18 Y9.44 
G01 X-18.16 Y9.39 
G01 X-18.18 Y9.47 
G01 X-18.18 Y11.79 
G01 X-18.71 Y12.32 
G00 Z1.00 
G00 X-16.59 Y3.16 
G01 Z-0.20 F60.00 
G01 X-16.69 Y3.24 F140.00 
G01 X-16.81 Y3.29 
G01 X-16.93 Y3.33 
G01 X-17.06 Y3.35 
G01 X-17.48 Y3.35 
G01 X-17.48 Y3.30 
G01 X-17.04 Y3.30 
G01 X-16.90 Y3.27 
G01 X-16.76 Y3.21 
G01 X-16.63 Y3.13 
G01 X-16.53 Y3.03 
G01 X-16.47 Y2.94 
G01 X-16.41 Y2.94 
G01 X-16.42 Y2.97 
G01 X-16.50 Y3.07 
G01 X-16.59 Y3.16 
G00 Z1.00 
G00 X-12.29 Y18.07 
G01 Z-0.20 F60.00 
G01 X-11.72 Y18.64 F140.00 
G01 X-11.72 Y18.67 
G01 X-11.77 Y18.67 
G01 X-11.77 Y18.67 
G01 X-12.32 Y18.12 
G01 X-12.32 Y18.12 
G01 X-12.32 Y18.07 
G01 X-12.29 Y18.07 
G00 Z1.00 
G00 X-13.68 Y19.45 
G01 Z-0.20 F60.00 
G01 X-13.61 Y19.45 F140.00 
G01 X-13.08 Y19.98 
G01 X-13.08 Y19.98 
G01 X-13.08 Y20.03 
G01 X-13.11 Y20.03 
G01 X-13.68 Y19.46 
G01 X-13.68 Y19.45 
G00 Z1.00 
G00 X-13.08 Y18.07 
G01 Z-0.20 F60.00 
G01 X-13.08 Y18.12 F140.00 
G01 X-13.08 Y18.12 
G01 X-13.61 Y18.65 
G01 X-13.68 Y18.65 
G01 X-13.68 Y18.64 
G01 X-13.11 Y18.07 
G01 X-13.08 Y18.07 
G00 Z1.00 
G00 X-11.72 Y19.46 
G01 Z-0.20 F60.00 
G01 X-12.29 Y20.03 F140.00 
G01 X-12.32 Y20.03 
G01 X-12.32 Y19.98 
G01 X-12.32 Y19.98 
G01 X-11.77 Y19.43 
G01 X-11.77 Y19.43 
G01 X-11.72 Y19.43 
G01 X-11.72 Y19.46 
G00 Z1.00 
G00 X-27.05 Y21.92 
G01 Z-0.20 F60.00 
G01 X-27.08 Y21.88 F140.00 
G01 X-27.08 Y21.88 
G01 X-27.05 Y21.88 
G01 X-27.05 Y21.92 
G00 Z1.00 
G00 X-25.69 Y22.46 
G01 Z-0.20 F60.00 
G01 X-25.76 Y22.46 F140.00 
G01 X-26.29 Y21.93 
G01 X-26.29 Y21.93 
G01 X-26.29 Y21.88 
G01 X-26.26 Y21.88 
G01 X-25.69 Y22.45 
G01 X-25.69 Y22.46 
G00 Z1.00 
G00 X-28.68 Y6.86 
G01 Z-0.20 F60.00 
G01 X-28.82 Y6.89 F140.00 
G01 X-28.96 Y6.95 
G01 X-29.09 Y7.03 
G01 X-29.19 Y7.13 
G01 X-29.28 Y7.26 
G01 X-29.33 Y7.40 
G01 X-29.36 Y7.55 
G01 X-29.36 Y7.69 
G01 X-29.33 Y7.84 
G01 X-29.28 Y7.98 
G01 X-29.19 Y8.11 
G01 X-29.09 Y8.21 
G01 X-28.96 Y8.29 
G01 X-28.82 Y8.35 
G01 X-28.83 Y8.35 
G01 X-28.85 Y8.34 
G01 X-28.87 Y8.34 
G01 X-28.89 Y8.33 
G01 X-28.91 Y8.33 
G01 X-28.93 Y8.33 
G01 X-28.95 Y8.33 
G01 X-28.97 Y8.33 
G01 X-28.99 Y8.34 
G01 X-29.01 Y8.34 
G01 X-29.03 Y8.35 
G01 X-29.05 Y8.35 
G01 X-29.07 Y8.36 
G01 X-29.08 Y8.37 
G01 X-29.10 Y8.38 
G01 X-29.12 Y8.39 
G01 X-29.13 Y8.41 
G01 X-29.15 Y8.42 
G01 X-29.16 Y8.44 
G01 X-29.17 Y8.45 
G01 X-29.18 Y8.47 
G01 X-29.20 Y8.48 
G01 X-29.20 Y8.50 
G01 X-29.21 Y8.52 
G01 X-29.22 Y8.54 
G01 X-29.23 Y8.56 
G01 X-29.23 Y8.58 
G01 X-29.23 Y8.60 
G01 X-29.23 Y8.62 
G01 X-29.24 Y8.64 
G01 X-29.23 Y8.66 
G01 X-29.23 Y24.21 
G01 X-29.21 Y24.29 
G01 X-29.17 Y24.36 
G01 X-29.12 Y24.41 
G01 X-29.05 Y24.45 
G01 X-28.97 Y24.47 
G01 X-1.18 Y24.47 
G01 X-1.10 Y24.45 
G01 X-1.03 Y24.41 
G01 X-0.98 Y24.36 
G01 X-0.94 Y24.29 
G01 X-0.92 Y24.21 
G01 X-0.92 Y1.18 
G01 X-0.94 Y1.10 
G01 X-0.98 Y1.03 
G01 X-1.03 Y0.98 
G01 X-1.10 Y0.94 
G01 X-1.18 Y0.92 
G01 X-3.28 Y0.92 
G01 X-3.30 Y0.91 
G01 X-3.32 Y0.92 
G01 X-3.34 Y0.92 
G01 X-3.36 Y0.92 
G01 X-3.38 Y0.92 
G01 X-3.40 Y0.93 
G01 X-3.42 Y0.94 
G01 X-3.44 Y0.95 
G01 X-3.46 Y0.95 
G01 X-3.47 Y0.97 
G01 X-3.49 Y0.98 
G01 X-3.50 Y0.99 
G01 X-3.52 Y1.00 
G01 X-3.53 Y1.02 
G01 X-3.55 Y1.03 
G01 X-3.56 Y1.05 
G01 X-3.57 Y1.07 
G01 X-3.58 Y1.08 
G01 X-3.59 Y1.10 
G01 X-3.59 Y1.12 
G01 X-3.60 Y1.14 
G01 X-3.60 Y1.16 
G01 X-3.61 Y1.18 
G01 X-3.61 Y1.20 
G01 X-3.61 Y1.22 
G01 X-3.61 Y1.24 
G01 X-3.61 Y1.26 
G01 X-3.60 Y1.28 
G01 X-3.60 Y1.30 
G01 X-3.59 Y1.32 
G01 X-3.59 Y1.34 
G01 X-3.58 Y1.35 
G01 X-3.57 Y1.37 
G01 X-3.56 Y1.39 
G01 X-3.55 Y1.41 
G01 X-3.53 Y1.42 
G01 X-3.52 Y1.44 
G01 X-3.50 Y1.45 
G01 X-3.49 Y1.46 
G01 X-3.47 Y1.47 
G01 X-3.46 Y1.48 
G01 X-3.44 Y1.49 
G01 X-3.42 Y1.50 
G01 X-3.40 Y1.51 
G01 X-3.26 Y1.57 
G01 X-3.39 Y1.52 
G01 X-3.55 Y1.50 
G01 X-3.71 Y1.50 
G01 X-3.88 Y1.52 
G01 X-4.01 Y1.57 
G01 X-3.86 Y1.51 
G01 X-3.84 Y1.50 
G01 X-3.83 Y1.49 
G01 X-3.81 Y1.48 
G01 X-3.79 Y1.47 
G01 X-3.77 Y1.46 
G01 X-3.76 Y1.45 
G01 X-3.74 Y1.44 
G01 X-3.73 Y1.42 
G01 X-3.72 Y1.41 
G01 X-3.71 Y1.39 
G01 X-3.70 Y1.37 
G01 X-3.69 Y1.35 
G01 X-3.68 Y1.34 
G01 X-3.67 Y1.32 
G01 X-3.66 Y1.30 
G01 X-3.66 Y1.28 
G01 X-3.66 Y1.26 
G01 X-3.66 Y1.24 
G01 X-3.65 Y1.22 
G01 X-3.66 Y1.20 
G01 X-3.66 Y1.18 
G01 X-3.66 Y1.16 
G01 X-3.66 Y1.14 
G01 X-3.67 Y1.12 
G01 X-3.68 Y1.10 
G01 X-3.69 Y1.08 
G01 X-3.70 Y1.07 
G01 X-3.71 Y1.05 
G01 X-3.72 Y1.03 
G01 X-3.73 Y1.02 
G01 X-3.74 Y1.00 
G01 X-3.76 Y0.99 
G01 X-3.77 Y0.98 
G01 X-3.79 Y0.97 
G01 X-3.81 Y0.95 
G01 X-3.83 Y0.95 
G01 X-3.84 Y0.94 
G01 X-3.86 Y0.93 
G01 X-3.88 Y0.92 
G01 X-3.90 Y0.92 
G01 X-3.92 Y0.92 
G01 X-3.94 Y0.92 
G01 X-3.96 Y0.91 
G01 X-3.98 Y0.92 
G01 X-6.06 Y0.92 
G01 X-6.10 Y0.91 
G01 X-6.10 Y0.92 
G01 X-6.11 Y0.92 
G01 X-6.14 Y0.92 
G01 X-6.17 Y0.93 
G01 X-6.18 Y0.93 
G01 X-6.19 Y0.94 
G01 X-6.22 Y0.95 
G01 X-6.25 Y0.97 
G01 X-6.25 Y0.97 
G01 X-6.26 Y0.98 
G01 X-6.28 Y1.00 
G01 X-6.31 Y1.02 
G01 X-6.31 Y1.03 
G01 X-6.32 Y1.03 
G01 X-6.33 Y1.06 
G01 X-6.35 Y1.09 
G01 X-6.35 Y1.09 
G01 X-6.36 Y1.10 
G01 X-6.36 Y1.13 
G01 X-6.37 Y1.16 
G01 X-6.37 Y1.17 
G01 X-6.38 Y1.18 
G01 X-6.38 Y1.21 
G01 X-6.38 Y1.24 
G01 X-6.38 Y1.25 
G01 X-6.38 Y1.26 
G01 X-6.37 Y1.29 
G01 X-6.36 Y1.32 
G01 X-6.36 Y1.33 
G01 X-6.36 Y1.34 
G01 X-6.34 Y1.36 
G01 X-6.32 Y1.39 
G01 X-6.32 Y1.40 
G01 X-6.32 Y1.41 
G01 X-6.29 Y1.43 
G01 X-6.27 Y1.45 
G01 X-6.26 Y1.46 
G01 X-6.26 Y1.46 
G01 X-6.23 Y1.48 
G01 X-6.20 Y1.50 
G01 X-6.20 Y1.50 
G01 X-6.19 Y1.50 
G01 X-6.16 Y1.51 
G01 X-6.11 Y1.53 
G01 X-5.96 Y1.61 
G01 X-5.82 Y1.71 
G01 X-5.69 Y1.83 
G01 X-5.59 Y1.97 
G01 X-5.52 Y2.12 
G01 X-5.49 Y2.19 
G01 X-5.55 Y2.19 
G01 X-5.56 Y2.14 
G01 X-5.64 Y1.99 
G01 X-5.73 Y1.86 
G01 X-5.85 Y1.75 
G01 X-5.98 Y1.65 
G01 X-6.13 Y1.58 
G01 X-6.28 Y1.52 
G01 X-6.45 Y1.50 
G01 X-6.61 Y1.50 
G01 X-6.77 Y1.52 
G01 X-6.93 Y1.58 
G01 X-7.07 Y1.65 
G01 X-7.21 Y1.75 
G01 X-7.32 Y1.86 
G01 X-7.42 Y1.99 
G01 X-7.49 Y2.14 
G01 X-7.55 Y2.14 
G01 X-7.54 Y2.12 
G01 X-7.46 Y1.97 
G01 X-7.36 Y1.83 
G01 X-7.24 Y1.71 
G01 X-7.10 Y1.61 
G01 X-6.95 Y1.53 
G01 X-6.90 Y1.51 
G01 X-6.87 Y1.50 
G01 X-6.86 Y1.50 
G01 X-6.85 Y1.50 
G01 X-6.82 Y1.48 
G01 X-6.80 Y1.46 
G01 X-6.79 Y1.46 
G01 X-6.78 Y1.45 
G01 X-6.76 Y1.43 
G01 X-6.74 Y1.41 
G01 X-6.74 Y1.40 
G01 X-6.73 Y1.39 
G01 X-6.72 Y1.36 
G01 X-6.70 Y1.34 
G01 X-6.70 Y1.33 
G01 X-6.69 Y1.32 
G01 X-6.69 Y1.29 
G01 X-6.68 Y1.26 
G01 X-6.68 Y1.25 
G01 X-6.68 Y1.24 
G01 X-6.68 Y1.21 
G01 X-6.68 Y1.18 
G01 X-6.68 Y1.17 
G01 X-6.68 Y1.16 
G01 X-6.69 Y1.13 
G01 X-6.70 Y1.10 
G01 X-6.70 Y1.09 
G01 X-6.71 Y1.09 
G01 X-6.72 Y1.06 
G01 X-6.74 Y1.03 
G01 X-6.75 Y1.03 
G01 X-6.75 Y1.02 
G01 X-6.77 Y1.00 
G01 X-6.80 Y0.98 
G01 X-6.80 Y0.97 
G01 X-6.81 Y0.97 
G01 X-6.84 Y0.95 
G01 X-6.87 Y0.94 
G01 X-6.87 Y0.93 
G01 X-6.88 Y0.93 
G01 X-6.91 Y0.92 
G01 X-6.94 Y0.92 
G01 X-6.95 Y0.92 
G01 X-6.96 Y0.91 
G01 X-6.99 Y0.92 
G01 X-28.97 Y0.92 
G01 X-29.05 Y0.94 
G01 X-29.12 Y0.98 
G01 X-29.17 Y1.03 
G01 X-29.21 Y1.10 
G01 X-29.23 Y1.18 
G01 X-29.23 Y1.50 
G01 X-29.24 Y1.52 
G01 X-29.23 Y1.54 
G01 X-29.23 Y1.56 
G01 X-29.23 Y1.58 
G01 X-29.23 Y1.60 
G01 X-29.22 Y1.62 
G01 X-29.21 Y1.64 
G01 X-29.20 Y1.66 
G01 X-29.20 Y1.68 
G01 X-29.18 Y1.69 
G01 X-29.17 Y1.71 
G01 X-29.16 Y1.72 
G01 X-29.15 Y1.74 
G01 X-29.13 Y1.75 
G01 X-29.12 Y1.77 
G01 X-29.10 Y1.78 
G01 X-29.08 Y1.79 
G01 X-29.07 Y1.80 
G01 X-29.05 Y1.81 
G01 X-29.03 Y1.81 
G01 X-29.01 Y1.82 
G01 X-28.99 Y1.82 
G01 X-28.97 Y1.83 
G01 X-28.95 Y1.83 
G01 X-28.93 Y1.83 
G01 X-28.91 Y1.83 
G01 X-28.89 Y1.83 
G01 X-28.87 Y1.82 
G01 X-28.85 Y1.82 
G01 X-28.83 Y1.81 
G01 X-28.82 Y1.81 
G01 X-28.96 Y1.87 
G01 X-29.09 Y1.95 
G01 X-29.19 Y2.05 
G01 X-29.28 Y2.18 
G01 X-29.33 Y2.32 
G01 X-29.36 Y2.47 
G01 X-29.36 Y2.61 
G01 X-29.33 Y2.76 
G01 X-29.28 Y2.90 
G01 X-29.19 Y3.03 
G01 X-29.09 Y3.13 
G01 X-28.96 Y3.21 
G01 X-28.82 Y3.27 
G01 X-28.68 Y3.30 
G01 X-28.34 Y3.30 
G01 X-28.34 Y6.86 
G01 X-28.68 Y6.86 
G00 Z1.00 
G00 Z2.00 
M05
M02
